P2
# Created by GIMP version 2.10.36 PNM plug-in
64 64
255
209
174
141
122
109
98
95
104
116
128
135
136
132
126
121
117
111
101
86
68
52
39
33
35
46
61
76
85
90
97
107
117
121
116
102
82
62
49
49
62
84
105
126
141
149
151
147
141
136
134
133
135
146
165
186
205
220
231
240
246
248
250
251
251
173
147
124
111
103
96
92
97
107
117
124
127
126
123
120
115
112
107
99
90
79
70
65
66
76
88
100
105
104
104
108
111
111
108
100
88
77
71
72
82
99
117
133
147
156
158
152
144
136
132
128
129
138
151
166
180
191
202
211
220
226
231
232
232
140
124
112
104
100
96
93
96
101
106
113
118
121
122
121
119
118
118
117
113
106
99
94
96
104
116
124
126
121
116
112
107
103
101
99
95
91
89
91
98
111
124
139
152
162
164
157
146
136
129
124
124
129
136
144
153
161
170
179
187
193
197
198
197
128
120
111
106
102
99
97
98
99
101
105
113
119
122
123
125
128
131
132
130
125
118
113
115
123
134
142
143
138
130
120
108
101
99
100
102
104
104
105
109
117
129
142
157
167
169
160
147
136
127
123
121
121
123
127
131
138
146
154
162
168
171
170
168
141
131
120
113
107
101
98
97
97
97
101
108
117
123
128
132
137
141
141
140
135
128
123
124
132
142
150
151
148
139
125
109
100
99
101
108
114
115
116
118
123
134
148
164
174
174
164
150
137
128
122
117
113
112
113
116
122
130
138
146
153
157
156
151
163
147
132
120
110
101
96
93
91
92
96
105
116
126
133
138
143
144
144
143
139
132
125
125
132
139
145
147
145
138
124
108
99
97
101
110
119
122
124
125
130
142
157
171
180
178
167
153
141
131
123
116
108
104
103
106
112
119
127
135
144
150
150
144
180
160
139
123
111
99
91
87
86
87
92
102
116
129
138
143
146
147
145
144
139
133
126
124
127
129
130
132
132
126
116
103
95
94
100
110
120
126
131
133
138
149
164
177
183
179
167
153
142
135
127
118
108
102
100
101
105
112
119
128
139
147
150
146
183
160
139
122
108
96
86
80
78
81
88
100
117
134
144
150
152
152
148
144
140
134
128
122
119
115
111
109
109
107
102
95
91
92
99
109
119
129
135
140
145
154
166
176
178
172
160
147
139
135
131
123
114
106
102
100
102
108
115
125
138
149
154
155
167
147
129
114
101
89
79
72
70
74
84
98
118
138
151
157
157
155
150
145
140
134
128
119
110
101
94
89
88
89
89
89
91
95
102
110
121
132
139
144
147
155
164
170
168
160
147
136
133
133
133
128
120
112
107
102
101
104
112
123
138
151
161
168
137
124
112
102
92
83
73
67
65
70
80
97
118
139
156
163
162
157
151
146
141
135
128
117
105
93
82
75
74
76
82
89
96
103
109
116
126
134
142
144
145
150
157
161
157
146
133
125
125
130
133
132
126
119
113
108
104
105
111
122
138
154
170
181
99
95
91
87
83
78
70
65
64
69
79
97
118
139
156
164
163
157
152
147
143
137
129
118
105
90
78
70
69
72
82
93
104
112
118
123
130
135
140
141
140
143
148
150
145
134
121
114
117
125
131
133
131
126
120
115
110
110
113
124
141
159
176
191
68
73
75
76
77
76
71
69
69
73
84
99
119
138
152
159
159
155
150
145
142
137
130
120
107
95
83
76
76
81
92
103
114
121
126
129
133
134
136
135
134
135
138
139
135
124
113
106
110
119
126
130
132
131
127
122
117
114
115
124
140
159
176
190
59
67
73
75
78
78
78
78
79
83
93
105
121
137
149
153
153
149
145
141
137
133
127
120
111
101
93
89
91
98
107
117
124
129
132
133
134
134
134
132
128
127
129
130
126
117
108
103
107
114
121
125
129
133
132
128
123
119
118
125
137
152
166
176
72
81
85
86
87
87
89
90
92
96
104
114
126
138
145
147
146
142
138
133
129
126
122
117
112
107
102
101
107
116
125
131
135
135
134
134
134
134
134
132
127
124
124
124
121
115
109
106
109
115
120
123
126
131
133
132
129
125
123
126
135
144
151
155
94
103
106
104
101
100
102
104
105
109
115
123
133
141
144
145
141
136
131
126
121
118
115
113
111
110
109
112
121
132
142
147
146
142
137
134
134
134
134
133
130
127
125
124
123
119
115
113
115
119
122
123
125
130
133
134
133
131
129
130
135
139
140
136
117
123
124
120
116
113
114
115
117
119
123
130
137
143
144
143
138
133
127
122
116
113
111
111
111
111
112
119
132
146
156
159
157
149
141
136
134
134
135
136
135
133
132
130
128
127
124
123
124
126
127
125
124
127
132
135
138
138
137
138
139
139
134
126
135
139
138
133
128
124
124
124
125
127
130
134
138
142
142
140
135
130
125
121
115
109
107
108
110
111
113
123
139
155
164
166
163
153
143
136
134
135
138
141
141
139
138
136
136
135
134
133
132
133
132
128
124
124
130
136
142
145
146
146
146
143
134
123
150
151
149
144
138
133
131
131
132
133
136
137
137
138
137
135
131
129
128
125
117
109
103
104
107
110
115
125
141
157
165
166
161
151
141
135
133
134
138
142
144
144
143
143
142
142
142
140
140
140
137
131
125
125
130
137
145
151
154
156
154
148
137
123
160
161
158
151
144
137
133
133
134
137
141
142
141
138
136
134
130
129
131
129
120
112
104
102
104
109
115
126
141
154
160
159
154
145
137
133
129
130
133
138
142
144
145
144
144
144
144
145
147
147
142
136
131
131
135
141
149
156
162
165
164
156
142
126
164
165
162
155
146
137
131
130
133
138
143
144
144
142
138
134
130
130
132
130
122
114
108
106
108
112
118
127
139
148
151
151
146
140
135
130
125
122
123
128
134
139
142
143
143
143
144
145
148
149
145
141
138
139
142
147
153
159
166
172
172
165
150
134
158
160
160
154
145
134
125
123
127
135
142
145
145
144
139
134
130
130
132
128
122
117
113
113
116
120
125
132
140
145
146
145
142
138
136
131
123
116
112
114
122
130
136
138
137
136
137
139
143
145
145
145
146
148
150
152
155
160
168
176
178
172
158
141
151
154
154
149
140
128
117
114
119
129
139
144
146
144
140
135
132
131
129
125
122
120
119
121
126
132
137
141
144
146
145
145
144
142
140
136
126
114
106
105
111
121
127
129
128
127
127
130
134
139
143
147
152
154
154
153
153
158
167
176
182
176
161
145
145
147
145
139
130
118
109
106
113
125
138
146
149
147
141
135
133
130
126
123
122
123
125
131
137
144
149
150
150
149
147
145
145
145
144
141
131
118
106
102
105
114
120
122
121
119
118
120
125
132
140
148
154
155
153
148
148
153
162
173
178
174
159
142
138
137
133
126
117
109
104
105
114
129
143
153
156
152
144
137
133
127
123
121
122
125
133
141
149
156
160
159
156
152
147
145
145
145
145
143
136
123
110
103
103
110
115
116
115
113
113
113
118
127
136
146
152
153
148
143
142
146
155
166
170
166
152
136
128
125
121
115
109
106
105
111
123
138
153
163
165
159
149
139
132
125
120
117
120
128
138
147
157
164
166
164
157
151
147
145
145
145
145
143
138
127
115
106
103
107
111
112
112
111
111
113
117
124
134
143
148
147
142
137
135
139
147
156
159
155
142
128
117
115
110
107
107
110
114
123
136
151
165
172
172
165
153
141
130
121
115
113
116
126
137
149
160
166
166
162
155
149
146
145
145
145
145
143
137
127
116
107
102
105
109
111
111
112
113
115
120
126
133
139
142
140
135
130
129
134
139
144
145
141
131
120
109
106
103
102
108
116
125
136
148
160
172
177
175
166
154
139
126
115
109
107
112
121
134
147
158
165
164
158
151
146
145
145
145
145
144
141
134
125
115
107
102
104
109
111
112
115
118
123
128
131
134
136
136
134
128
125
127
132
134
136
134
129
121
113
104
101
100
102
110
122
134
145
154
164
172
176
174
165
151
134
119
108
102
102
108
117
130
143
153
159
158
152
147
145
145
145
145
145
142
137
129
120
113
109
107
108
111
113
116
121
126
132
136
138
136
134
133
130
127
128
131
134
134
133
128
121
114
106
102
100
98
102
112
126
138
146
152
159
166
170
169
161
148
131
115
104
100
101
106
115
125
136
146
150
149
147
145
145
145
145
145
143
139
132
125
119
115
114
114
114
116
119
122
127
132
138
141
141
136
133
131
128
130
135
139
139
137
132
125
118
111
103
110
104
99
102
112
127
138
143
144
147
152
158
160
156
146
131
116
105
100
101
107
113
121
129
136
139
140
140
141
144
144
144
144
142
136
129
123
121
121
122
123
123
123
124
124
129
133
137
138
136
133
129
126
126
133
141
147
146
140
133
126
118
110
102
125
114
104
103
112
124
133
135
133
133
137
145
151
153
146
135
122
110
104
104
108
112
117
121
125
128
129
131
135
139
142
142
142
140
135
129
124
123
127
131
133
133
132
129
125
125
127
128
128
128
126
123
122
125
134
144
150
147
139
131
124
117
108
99
139
124
110
105
111
120
126
126
121
120
124
134
145
151
150
142
130
118
111
110
110
110
111
111
114
117
118
122
126
131
133
135
136
136
135
131
126
125
131
136
140
140
137
131
124
119
117
116
116
116
116
116
117
121
131
142
147
143
133
124
118
112
104
93
144
128
112
104
107
114
119
118
113
111
116
127
140
150
153
149
138
126
118
113
111
108
104
102
103
106
110
114
117
121
123
126
131
135
137
135
130
128
132
137
141
142
137
129
120
112
106
103
102
103
105
106
108
114
125
135
139
134
123
115
110
106
98
88
140
125
110
102
102
107
112
113
110
108
114
125
138
149
154
151
143
132
123
117
111
106
100
96
95
99
104
109
112
114
115
119
126
135
141
140
135
131
130
133
136
136
132
123
113
103
96
91
90
92
93
95
99
106
116
124
126
121
113
106
102
100
95
89
126
116
104
97
97
102
109
112
113
114
118
127
138
146
150
148
140
132
124
119
113
107
100
95
94
99
105
110
112
112
112
115
124
135
142
144
139
133
127
127
128
127
121
112
103
94
87
84
83
87
89
91
95
102
110
115
116
111
104
101
100
101
101
99
112
105
96
92
93
101
110
117
121
123
126
131
137
141
141
138
131
125
121
120
116
111
106
102
101
105
112
116
116
114
113
115
125
137
145
146
141
133
126
123
121
117
109
100
92
85
80
80
83
89
93
96
100
105
110
112
111
106
101
100
103
109
114
117
101
96
91
89
93
103
116
126
131
132
132
134
135
135
132
126
120
115
115
118
119
117
114
111
110
114
120
125
124
119
116
118
128
138
145
145
139
132
125
121
117
109
100
92
85
80
79
82
89
96
102
105
109
112
114
113
110
106
103
105
111
119
128
135
92
88
85
86
95
109
124
134
140
139
135
134
134
131
125
119
113
110
111
115
120
121
120
117
115
119
126
131
129
124
121
123
130
138
143
140
135
129
124
122
117
110
100
92
85
82
83
88
97
105
110
113
115
118
118
115
112
110
109
112
118
127
136
144
80
79
79
84
97
115
132
142
143
140
136
134
133
130
125
119
113
110
111
114
120
121
122
121
119
121
126
130
129
124
123
125
131
136
138
134
128
125
125
126
123
117
109
102
96
92
93
99
107
113
117
116
116
117
116
114
111
111
111
115
121
128
134
141
69
72
78
87
103
122
138
145
145
140
134
132
133
133
131
126
120
116
114
115
119
121
121
121
120
121
123
125
125
123
123
127
132
134
132
126
121
120
124
130
130
126
120
113
108
104
105
110
115
119
118
114
112
113
113
111
111
110
111
114
118
121
123
126
65
73
83
94
109
127
141
146
144
138
134
133
136
139
140
138
133
127
122
119
119
119
118
118
120
121
122
123
124
124
124
129
133
133
128
119
115
115
122
129
132
132
127
121
116
112
113
117
120
119
114
110
109
110
111
111
111
111
111
112
113
111
109
105
73
84
95
105
116
129
139
143
140
136
134
136
142
147
150
149
145
139
131
125
121
118
115
115
119
121
123
126
128
128
129
132
133
132
125
116
112
113
119
128
132
132
129
122
116
112
114
117
117
113
108
103
104
108
111
113
113
113
112
111
110
104
97
90
93
103
113
119
124
130
135
137
136
134
135
138
147
154
159
159
155
148
139
131
125
121
118
117
119
122
124
130
133
133
133
134
133
131
124
116
113
114
120
128
132
131
125
118
111
107
108
110
109
105
100
97
99
105
111
116
119
118
117
115
110
102
91
81
117
127
133
134
133
133
133
132
132
134
135
140
149
157
163
164
160
153
145
137
130
125
122
120
120
121
125
131
135
136
135
134
133
129
124
120
118
120
124
127
128
125
118
110
103
99
99
101
100
96
92
92
95
100
107
113
118
120
120
119
113
103
90
78
140
148
151
147
142
136
131
128
129
133
136
141
149
156
160
161
158
153
146
139
133
127
122
119
115
117
123
131
137
140
136
134
132
127
124
125
127
128
129
126
123
118
111
103
99
95
93
93
93
91
90
89
91
94
99
105
112
118
122
122
118
107
91
77
152
160
162
156
149
142
135
132
132
135
138
143
148
154
156
156
153
149
144
138
133
127
122
117
113
114
121
129
136
138
136
134
131
126
127
130
132
132
131
124
117
112
105
101
99
97
95
95
95
94
93
91
89
90
91
97
104
114
122
127
122
111
94
78
151
159
162
157
152
146
142
140
140
142
144
146
148
153
155
154
149
144
140
135
130
125
122
118
114
115
121
129
136
137
135
134
132
130
132
133
134
133
129
120
113
107
103
104
105
104
102
100
100
100
99
97
92
89
88
91
100
111
122
129
125
113
95
78
137
147
151
150
147
145
146
147
148
150
150
151
152
155
157
155
149
142
135
130
125
123
122
120
118
119
125
134
139
140
137
135
134
133
134
134
134
133
128
118
112
107
106
108
109
109
107
104
103
105
106
102
97
91
89
91
99
111
122
129
125
112
95
77
117
129
136
138
140
143
148
152
154
154
154
155
156
160
162
161
154
144
135
127
123
122
122
122
122
125
132
140
145
146
142
138
135
134
134
134
134
132
127
118
112
110
108
108
108
106
104
101
101
103
107
107
103
97
95
96
103
114
122
127
122
108
89
72
98
112
120
124
129
137
144
149
152
153
153
155
158
165
171
171
164
151
138
128
123
122
122
122
124
130
137
146
152
153
149
143
138
135
134
134
134
133
128
120
114
111
107
103
101
99
96
94
94
98
103
108
108
105
102
103
109
117
122
123
116
100
79
61
87
100
109
115
120
129
137
142
144
145
146
149
156
167
177
180
173
160
145
132
125
122
122
122
124
131
140
149
157
160
155
147
140
134
132
132
133
133
130
124
118
113
107
101
96
92
88
85
85
90
97
105
109
109
109
111
116
122
124
122
112
93
69
48
84
97
105
111
116
123
131
135
135
135
136
140
151
165
178
185
180
168
152
139
129
124
122
122
124
130
140
152
162
165
160
150
140
131
127
127
131
133
132
128
123
118
112
104
95
87
81
76
76
83
92
101
109
111
112
116
123
129
130
125
113
91
64
42
86
100
108
112
117
123
129
133
130
127
127
132
143
159
173
181
179
169
155
142
132
125
122
122
124
130
140
153
163
165
160
148
137
127
123
123
127
131
133
131
127
123
118
110
99
88
78
72
72
80
91
101
109
112
116
123
131
137
138
132
118
96
70
47
86
101
111
116
121
128
135
137
135
129
125
127
136
150
163
171
171
163
152
140
131
124
122
121
122
128
139
150
160
161
155
143
131
124
122
122
123
126
129
132
132
129
125
118
107
94
83
76
76
84
95
106
113
118
124
132
140
145
146
140
127
106
81
59
80
99
111
120
127
136
145
149
146
137
128
125
130
141
152
159
160
155
145
135
127
121
118
117
119
125
134
144
150
148
141
131
123
118
118
119
120
122
124
129
133
134
131
126
116
104
94
89
89
96
105
114
121
126
131
139
147
152
152
147
135
115
92
74
74
95
110
121
132
144
155
161
158
147
134
125
126
132
140
147
149
146
139
130
122
115
113
112
114
120
128
135
136
131
124
117
114
113
114
115
115
117
121
128
134
138
138
133
125
116
109
106
107
110
117
124
130
132
136
143
150
154
154
149
138
120
102
86
72
94
111
123
135
148
161
170
167
154
139
127
123
125
130
137
141
140
135
128
119
113
110
109
111
116
121
124
121
115
109
106
109
113
117
117
114
113
119
127
135
141
143
140
134
129
125
123
122
122
125
129
132
133
136
141
146
149
149
146
138
124
108
94
79
97
113
125
137
151
164
173
170
158
142
129
123
123
126
133
137
139
136
129
120
112
107
104
107
111
115
116
112
105
100
101
109
116
120
120
115
112
115
123
132
140
144
144
141
139
137
136
132
129
125
126
126
125
126
130
135
139
142
142
137
126
112
98
96
108
121
133
144
156
166
171
168
158
143
132
125
124
128
134
140
142
140
133
124
114
106
101
102
107
111
110
104
98
95
100
110
118
120
119
113
110
111
117
126
136
142
144
144
144
143
142
137
128
120
116
113
110
110
114
120
127
134
138
135
127
114
99
118
123
132
143
154
165
172
173
168
158
145
135
129
128
132
136
141
144
143
137
127
116
107
101
101
105
109
108
102
95
92
98
108
115
117
113
107
103
104
111
121
132
140
145
146
146
145
143
136
124
113
106
100
96
96
100
108
118
127
133
133
126
112
96
141
139
143
154
166
177
183
182
175
162
148
138
134
133
134
136
139
141
141
135
126
116
107
103
105
109
111
109
102
94
89
93
100
106
106
101
96
93
97
105
117
130
141
147
150
150
148
144
135
122
110
101
93
88
87
92
100
111
121
127
126
118
101
84
168
157
155
163
177
190
197
197
188
172
155
144
138
136
136
135
136
135
133
128
120
112
107
107
112
115
115
110
101
90
83
82
85
90
90
84
80
81
87
99
114
130
144
153
157
158
156
151
141
129
117
105
94
85
81
85
93
102
110
114
111
100
82
63
201
180
168
171
184
201
212
214
204
186
167
152
145
142
140
140
136
131
124
117
110
105
106
112
118
121
118
107
94
80
69
63
65
67
66
61
59
63
73
89
109
131
150
162
168
169
170
166
158
147
132
117
100
86
78
78
82
89
94
94
89
75
56
37
230
203
182
178
188
206
221
226
217
198
176
160
152
149
148
146
140
129
117
108
103
102
106
115
123
125
117
102
84
66
52
45
43
42
39
37
36
42
57
80
107
135
158
173
179
181
185
184
178
166
150
130
107
87
73
67
69
74
77
74
66
52
33
16
