P2
# Created by GIMP version 2.10.36 PNM plug-in
32 32
255
176
126
102
98
117
130
127
118
108
88
64
55
72
93
100
111
113
94
67
69
103
137
153
146
135
132
150
184
211
229
238
240
130
109
100
96
102
113
121
122
124
123
112
105
119
133
126
112
102
99
97
101
121
148
165
153
132
123
128
140
156
172
184
185
146
122
105
96
94
103
121
133
141
141
133
124
136
147
141
117
99
105
117
121
133
160
176
159
135
120
110
110
122
137
151
151
169
131
104
86
83
96
124
144
149
145
136
125
123
121
119
104
94
105
123
135
147
170
177
157
138
125
108
101
107
122
143
152
144
115
92
74
71
91
129
156
157
148
138
123
103
86
83
88
97
110
128
142
149
162
158
136
130
131
120
108
104
118
146
170
87
83
79
70
70
91
129
157
158
148
139
124
100
78
76
94
113
124
133
138
138
144
135
115
118
130
130
121
113
120
150
182
72
81
83
84
88
105
131
148
147
139
131
121
108
97
104
121
131
133
134
133
127
127
120
107
112
122
130
131
124
124
142
162
110
114
108
109
113
123
138
144
137
127
117
113
111
113
133
150
148
137
134
135
131
128
124
119
121
124
127
133
135
134
138
135
144
141
131
127
129
134
139
138
131
125
113
106
110
120
148
164
156
139
134
139
142
140
139
137
136
132
125
134
146
151
148
130
162
156
141
132
135
142
141
136
130
130
117
106
109
122
145
155
146
134
127
131
139
143
143
144
147
141
135
142
154
166
164
139
156
154
137
120
128
142
145
137
131
128
120
117
124
134
144
145
142
136
120
110
121
132
132
133
140
145
150
152
157
171
176
152
142
136
119
107
121
145
151
140
131
123
123
133
147
154
152
146
145
143
127
106
109
118
117
117
126
142
153
148
148
164
171
148
121
114
109
114
138
163
165
146
127
117
123
143
161
164
153
146
145
144
132
111
105
111
112
114
122
137
144
136
135
147
150
131
105
102
114
135
156
173
169
145
118
106
115
139
158
158
148
145
145
141
127
111
106
111
116
125
133
135
133
128
131
134
128
114
105
101
120
141
150
161
161
139
111
101
111
128
142
144
144
144
143
134
122
118
119
121
125
134
138
133
128
135
142
135
122
107
125
106
117
130
128
136
150
143
121
108
110
115
121
125
133
138
138
133
125
131
136
132
123
122
122
120
122
137
146
132
118
101
133
108
108
115
111
122
144
151
135
118
109
101
102
110
116
121
132
138
131
133
138
130
112
100
97
100
107
125
130
115
105
93
115
98
99
112
118
126
140
144
132
121
112
101
101
111
114
114
131
144
136
126
123
111
94
84
86
93
101
112
111
102
104
108
94
88
101
125
135
134
134
126
115
115
119
115
115
125
124
120
133
143
134
123
114
97
84
84
97
107
113
115
110
108
119
135
76
83
110
139
142
134
132
126
116
114
120
121
120
126
125
125
133
132
124
126
124
111
101
102
113
116
114
113
111
113
122
131
76
95
121
141
139
135
141
144
136
125
119
117
120
124
126
129
132
122
114
125
132
124
114
115
117
109
108
112
112
112
110
101
112
125
130
134
134
137
151
160
154
138
125
119
120
127
134
134
131
121
117
125
128
118
106
105
103
96
100
111
118
117
107
86
150
153
142
132
133
140
152
158
153
142
130
120
115
126
137
135
129
127
129
127
118
106
98
95
94
91
91
99
112
123
114
86
148
154
147
144
145
148
152
155
146
135
126
121
117
128
138
135
132
133
133
124
110
105
106
103
102
101
93
91
106
125
118
87
116
130
137
148
153
154
160
166
154
133
123
122
125
139
149
143
136
134
133
123
112
107
103
99
99
106
103
100
111
123
111
77
93
110
123
136
140
143
160
179
170
143
125
122
128
145
160
153
136
130
132
128
118
106
93
83
84
99
109
112
123
125
103
59
94
112
123
134
131
129
148
171
170
147
128
122
126
145
161
151
130
123
127
131
128
118
98
79
79
99
113
124
138
139
113
68
89
116
135
152
147
129
133
150
152
138
122
115
120
135
141
129
118
117
119
126
134
132
116
101
101
115
127
137
150
150
127
90
88
118
143
166
162
135
124
132
139
132
117
108
111
119
114
105
112
118
114
121
137
142
136
130
126
126
128
133
142
144
131
104
113
133
155
170
163
139
127
133
141
138
120
104
104
109
100
97
112
117
108
111
129
143
145
143
131
114
106
106
119
133
130
106
153
155
178
190
175
147
136
135
138
134
118
107
110
111
97
87
95
95
88
98
123
146
154
150
133
109
91
87
102
117
113
85
203
176
195
217
201
164
147
143
134
117
106
110
121
111
83
60
57
54
53
77
122
160
174
176
162
132
96
75
80
86
73
41
