P2
# Created by GIMP version 2.10.36 PNM plug-in
256 256
255
255
255
254
248
232
208
186
167
152
138
127
121
117
115
117
121
123
126
131
133
134
135
136
136
136
135
132
127
123
117
113
109
103
95
84
73
59
46
35
22
11
4
1
0
0
0
0
0
2
4
11
20
30
42
55
65
72
78
86
95
102
107
111
112
111
106
101
94
83
69
56
43
30
20
15
10
10
15
21
32
46
60
75
90
106
118
129
139
148
155
158
159
159
159
158
157
156
156
156
158
163
166
170
177
186
198
214
228
242
250
254
255
255
255
255
255
255
255
255
255
255
255
255
255
255
255
253
245
233
218
207
200
200
207
216
226
237
246
252
254
255
255
255
254
253
250
245
236
226
216
206
196
186
179
173
168
163
156
148
143
136
126
116
109
103
95
89
87
89
96
105
116
129
147
167
186
203
216
226
234
236
234
229
224
214
200
186
170
155
137
120
105
90
77
67
60
57
54
48
46
45
43
38
34
31
26
22
17
14
12
11
12
16
24
33
43
53
64
74
87
102
118
136
155
176
196
217
236
249
254
255
255
255
255
255
255
255
255
255
255
255
255
253
246
234
217
200
184
167
150
136
126
116
109
106
105
255
254
251
240
220
198
178
160
146
134
124
117
113
113
113
115
118
122
125
127
129
132
133
133
133
132
129
126
123
118
115
111
105
97
87
76
65
55
44
34
24
17
10
5
4
4
4
5
10
18
26
34
43
53
64
72
78
84
91
98
103
105
107
107
107
104
98
92
84
72
61
48
38
32
26
23
24
28
34
44
56
69
84
98
114
126
136
146
153
159
163
164
164
164
162
158
156
156
156
157
160
163
167
173
181
191
205
218
230
241
249
253
254
255
255
255
255
255
255
255
255
255
255
255
255
254
249
238
223
210
202
197
197
200
209
219
229
239
247
251
253
253
253
251
247
241
235
227
218
208
198
189
181
175
169
164
159
153
147
142
135
126
118
112
105
98
93
92
93
98
106
116
129
146
164
181
196
209
219
226
229
227
222
217
208
197
184
169
155
140
124
109
96
85
76
71
66
62
56
54
53
50
44
40
35
30
26
23
20
16
15
16
20
26
34
43
53
64
74
85
99
116
134
151
170
189
209
228
243
252
254
255
255
255
255
255
255
255
255
255
255
254
250
240
227
212
196
181
166
150
137
126
119
113
109
108
254
251
242
225
203
183
165
149
137
126
116
110
107
106
106
108
112
115
118
121
123
125
127
128
128
127
126
125
123
119
116
113
108
102
94
85
75
67
57
48
40
34
27
20
18
17
19
22
28
35
42
49
57
67
75
82
86
91
97
102
104
105
105
105
105
102
97
92
84
74
65
56
50
44
39
37
38
42
48
58
69
82
95
108
122
133
144
152
159
164
168
169
168
167
165
160
157
156
156
156
157
158
161
167
174
182
191
203
216
227
237
245
250
253
254
255
255
255
255
255
255
255
255
255
254
249
240
228
214
202
196
192
191
193
199
209
219
229
236
241
245
246
245
241
236
229
221
213
206
198
189
181
175
170
164
159
154
149
145
140
134
127
121
115
108
103
98
97
98
103
109
118
131
146
161
176
190
201
210
217
219
218
215
209
201
193
181
168
156
143
129
116
106
95
87
82
76
72
66
64
62
57
52
47
42
37
33
30
26
24
23
24
26
30
36
44
54
64
74
85
98
114
130
147
165
181
200
218
233
246
252
254
255
255
255
255
255
255
255
254
253
251
245
233
219
206
192
178
166
151
139
130
123
118
114
113
251
243
228
208
188
169
153
139
128
118
110
105
102
99
99
102
105
108
112
115
117
119
122
123
124
125
125
125
124
122
118
115
112
108
103
96
88
81
73
65
57
51
45
39
36
36
37
41
46
52
58
65
73
81
86
92
95
98
102
104
105
105
105
105
105
102
97
92
85
77
71
65
60
55
52
52
53
57
63
73
83
95
105
116
128
139
149
158
164
169
173
173
171
169
167
163
158
156
156
155
154
154
156
160
167
174
180
189
201
211
220
229
238
245
249
251
253
254
254
255
255
255
254
253
249
240
230
219
207
197
191
187
186
187
192
199
209
217
223
228
231
232
231
227
222
216
208
199
192
186
180
174
168
164
159
154
149
147
144
138
134
128
123
117
112
108
104
103
104
108
114
123
134
146
159
173
185
196
204
208
210
209
207
201
196
188
178
167
157
146
134
124
115
106
97
92
87
82
77
74
71
66
62
56
51
46
41
37
34
32
31
31
33
36
40
47
56
64
74
85
98
113
128
144
160
175
192
207
222
237
247
252
254
255
255
255
255
255
254
252
248
242
236
226
213
200
189
178
167
155
144
135
128
123
119
118
242
229
210
191
173
157
144
131
122
114
107
102
98
95
95
96
99
103
106
109
112
114
116
119
121
123
124
125
125
124
122
119
117
115
111
106
101
95
88
81
74
67
62
57
55
55
56
59
64
69
75
82
88
93
97
103
105
106
107
108
108
107
106
105
104
101
96
92
86
81
76
71
67
64
64
64
66
71
76
85
95
105
116
126
136
146
156
164
169
174
176
176
175
173
169
164
159
156
155
153
150
150
152
155
159
165
170
177
186
195
203
211
220
229
236
240
244
247
250
251
251
251
250
247
240
230
219
209
200
192
186
181
180
181
186
191
199
206
211
217
219
219
217
212
208
202
197
189
182
176
171
166
160
157
153
149
147
145
142
138
134
129
124
119
115
112
109
108
109
113
118
126
136
146
157
169
180
190
197
201
203
202
199
196
190
185
177
167
157
148
139
129
122
115
108
103
97
93
89
85
82
76
72
66
61
56
51
46
43
41
37
37
40
43
46
52
60
67
76
85
98
113
126
140
155
170
185
199
213
227
239
246
249
252
253
254
253
252
249
246
240
233
227
218
207
198
188
177
167
156
147
139
133
128
124
123
225
211
194
177
161
148
136
126
117
109
103
98
95
93
92
92
94
98
101
104
106
109
112
115
117
119
123
125
125
125
124
123
123
121
118
115
111
106
102
95
88
83
78
75
73
72
73
76
81
85
91
96
102
105
107
111
114
113
113
113
112
111
107
105
103
98
95
92
88
84
81
77
75
74
74
74
77
82
87
95
105
116
126
135
144
154
163
169
175
178
180
179
178
175
171
166
160
157
154
150
147
147
148
149
151
155
159
166
172
179
187
195
202
210
218
223
228
233
237
240
240
240
239
236
229
220
211
202
195
188
182
178
177
178
181
186
191
197
201
206
208
208
206
201
196
191
186
179
174
168
164
159
154
150
148
147
145
143
139
137
135
132
127
122
119
117
116
115
116
119
123
130
138
147
157
167
177
185
191
195
197
196
194
190
185
180
174
166
158
152
144
136
129
122
117
113
108
105
102
97
92
87
82
77
72
66
62
56
54
51
46
44
47
51
54
58
65
72
81
88
100
114
126
137
150
165
179
192
206
218
229
237
241
246
248
248
248
246
242
237
231
226
219
211
202
195
187
177
167
157
150
144
139
134
129
128
210
198
182
168
154
141
130
122
115
106
99
95
93
91
88
88
91
93
96
98
102
105
109
113
115
118
123
125
125
126
127
128
128
127
126
124
119
116
113
107
102
98
94
91
89
88
89
92
94
97
103
107
113
115
116
118
120
119
117
117
115
112
108
105
102
97
94
93
91
88
86
85
84
84
84
85
87
92
97
106
115
124
134
142
150
159
168
175
180
184
185
184
180
177
173
168
163
158
154
149
146
145
144
144
145
147
150
155
159
166
172
179
186
192
199
206
212
217
222
225
227
228
227
223
218
212
205
198
192
186
180
177
177
177
178
181
185
188
192
196
198
198
196
191
186
181
176
171
166
160
157
153
149
147
146
145
143
139
137
136
136
134
130
127
124
123
123
123
123
126
129
135
143
149
157
167
175
181
187
190
190
190
189
185
181
176
171
165
159
154
148
142
136
130
126
122
117
115
113
108
103
97
93
88
83
78
73
68
65
62
58
55
56
60
63
66
71
77
84
93
103
115
126
136
147
160
174
186
198
209
219
227
232
237
239
239
239
237
233
228
223
218
212
205
198
191
185
177
168
160
154
149
144
139
135
134
202
191
177
162
149
137
127
119
113
105
97
94
91
87
85
85
86
88
91
94
98
102
106
111
114
118
123
125
126
129
132
133
134
134
133
132
128
126
123
118
115
112
107
105
103
103
103
104
105
108
113
117
121
123
125
125
125
123
122
121
117
113
108
105
102
97
94
94
93
92
92
92
92
92
94
95
97
103
108
115
122
129
139
148
157
165
173
180
184
187
188
187
184
179
175
169
164
159
154
149
146
143
140
139
139
140
143
146
149
154
159
164
170
176
182
190
196
201
206
210
213
216
216
213
210
206
201
196
191
186
180
177
177
177
177
178
179
181
185
187
188
188
186
182
179
175
170
165
159
154
150
148
147
146
145
143
140
137
136
136
136
135
134
132
129
128
128
128
129
132
135
139
146
153
160
168
175
179
183
185
186
185
184
180
177
173
169
165
160
155
150
146
142
138
134
129
126
125
123
118
113
108
105
102
96
91
86
81
76
73
70
66
65
67
72
74
77
82
88
95
105
115
126
136
146
157
169
180
191
200
209
217
223
227
229
229
229
229
226
222
216
211
206
201
196
189
181
176
169
163
158
153
149
144
140
138
197
188
175
160
147
136
126
118
113
105
97
92
88
85
84
84
84
85
87
91
94
98
104
109
113
117
123
126
129
133
136
138
138
138
138
138
136
135
132
128
125
121
117
115
113
113
113
113
115
117
121
124
127
129
132
132
128
126
125
122
117
113
108
105
102
97
94
94
94
94
95
96
97
98
102
104
107
112
117
122
129
136
145
154
163
170
177
184
188
190
190
188
185
180
175
169
165
159
154
148
144
140
137
136
134
134
135
136
139
144
147
151
156
161
168
175
181
187
192
197
200
204
206
206
205
201
199
196
190
186
180
177
177
177
177
177
177
178
179
180
180
180
179
176
174
170
165
160
155
150
147
146
146
146
145
142
139
139
139
139
138
137
136
135
134
134
134
134
135
137
140
144
149
156
163
169
174
177
179
180
180
180
178
176
173
170
168
166
163
158
153
150
148
146
142
138
136
135
132
127
123
118
115
113
108
103
97
92
87
84
82
78
75
76
80
83
85
88
92
99
107
116
126
136
146
156
166
176
186
195
202
210
216
219
221
222
222
221
219
216
211
207
202
198
194
188
181
176
171
166
160
156
153
149
145
142
196
188
175
160
147
136
126
118
113
105
97
92
87
84
83
82
82
83
85
87
91
96
101
107
113
117
123
127
132
136
139
142
144
144
144
144
144
142
139
136
133
129
125
122
119
118
118
119
121
123
125
128
132
134
135
135
132
127
125
122
117
113
108
105
102
97
94
94
94
95
98
101
103
105
108
112
115
119
124
129
136
143
150
158
167
174
181
187
191
194
194
190
186
181
175
169
165
159
154
148
144
139
136
133
129
128
128
128
130
134
137
140
145
149
155
161
168
175
180
186
190
195
198
200
200
199
198
196
190
186
181
178
177
177
177
177
177
177
177
177
177
177
175
171
169
166
161
157
154
149
146
146
146
146
145
144
144
144
144
143
142
140
139
138
138
137
138
138
140
142
145
149
153
158
164
169
173
176
177
177
176
175
174
171
169
168
167
167
165
160
156
154
154
152
149
147
146
144
140
137
134
128
126
123
118
113
108
103
97
95
94
91
86
85
87
90
92
95
98
104
111
117
126
136
146
154
163
171
180
189
197
204
209
212
215
216
216
215
212
210
208
204
200
196
192
188
184
178
174
170
165
160
158
154
149
146
197
188
176
161
147
136
126
118
113
105
96
91
86
83
81
78
77
80
82
84
88
93
98
106
113
117
124
129
135
139
143
146
148
148
148
148
148
147
145
142
138
135
132
128
124
123
123
123
124
125
126
130
132
133
133
133
131
127
124
121
116
112
107
104
101
96
94
94
95
98
102
105
108
111
114
118
122
127
132
137
143
149
155
163
170
177
185
190
195
197
196
192
188
184
177
170
165
159
154
148
144
138
134
129
126
125
123
123
124
126
129
133
136
140
145
150
157
165
170
176
181
187
191
195
197
198
198
196
191
187
184
179
177
177
177
177
177
177
177
177
177
177
175
170
167
165
160
157
154
150
147
146
146
146
146
146
146
146
146
146
145
144
144
143
142
141
142
144
144
146
149
153
156
160
165
168
170
173
174
174
173
171
169
168
167
167
167
167
166
164
160
159
159
158
157
156
154
152
148
146
144
139
136
133
128
123
118
113
108
105
104
101
97
95
95
97
98
101
104
108
114
119
126
136
144
151
159
168
177
185
192
199
204
207
209
211
211
210
209
207
205
201
199
196
191
188
185
180
176
174
170
166
163
159
154
149
201
190
177
164
150
137
126
117
111
104
95
88
84
81
77
74
74
75
77
81
85
91
97
105
113
118
125
132
137
142
146
149
152
154
154
154
154
152
149
146
143
139
136
133
129
126
125
125
125
125
126
127
128
128
128
128
126
124
121
118
114
109
105
103
98
95
94
94
96
101
105
108
112
115
118
123
128
133
138
143
148
154
160
167
174
181
188
194
197
198
197
193
189
184
177
169
164
159
154
148
144
138
134
128
125
122
119
118
118
119
122
126
129
133
138
143
149
155
161
168
175
180
185
190
194
196
197
195
191
188
186
181
178
177
177
177
177
177
177
177
177
177
175
171
168
166
164
160
156
153
150
148
147
146
146
146
146
146
146
146
146
146
146
146
145
145
145
146
146
148
152
155
158
163
166
167
168
169
170
170
169
168
166
165
164
164
165
166
167
166
165
164
164
164
164
163
160
158
157
156
153
148
145
142
138
134
128
123
118
115
112
108
106
105
105
105
106
107
109
112
116
122
127
136
144
149
157
166
174
181
188
195
199
202
205
206
207
207
206
204
201
199
198
195
191
188
186
181
178
176
174
170
167
164
159
154
203
190
178
166
153
138
126
116
108
102
94
86
81
77
73
71
71
73
74
77
83
88
95
105
113
118
126
134
140
145
149
153
155
157
158
158
157
155
153
149
146
143
139
136
133
129
126
125
125
125
125
125
124
123
123
123
121
119
116
114
111
106
103
100
96
94
94
95
98
103
107
111
115
118
123
128
133
137
142
147
153
158
164
170
177
184
190
195
198
198
196
191
187
181
175
169
163
157
153
148
144
138
134
128
123
119
116
115
115
116
117
119
123
127
130
136
143
149
155
163
169
175
181
187
190
192
195
195
190
188
187
184
179
177
177
177
177
177
177
177
177
177
176
174
170
168
166
164
160
156
154
152
150
149
148
147
146
146
146
146
146
146
146
146
146
146
146
146
146
149
153
156
159
164
167
167
167
167
167
167
166
165
163
160
159
159
161
165
167
167
167
167
167
168
169
169
167
165
164
163
159
156
153
149
146
142
137
132
127
124
119
116
115
113
113
112
112
113
113
115
119
123
128
135
142
148
156
164
170
177
185
190
195
198
200
202
204
204
202
200
199
198
197
194
190
188
187
185
181
179
177
174
170
167
163
157
203
190
178
166
153
138
126
115
106
98
91
84
77
73
70
67
67
70
71
75
80
86
95
105
113
119
126
135
143
149
153
156
158
160
163
163
160
157
155
153
149
146
142
138
135
132
127
125
125
124
123
122
121
119
117
116
115
113
111
108
105
102
98
96
95
94
94
96
101
104
108
113
117
122
127
132
136
140
145
150
155
160
167
173
179
185
190
194
197
197
194
189
184
178
173
167
160
155
150
146
142
138
134
128
123
118
115
115
115
115
115
116
118
122
125
130
137
144
150
158
164
170
177
184
187
189
191
192
190
188
188
185
180
177
177
177
177
177
177
177
177
177
177
176
174
171
169
167
164
160
158
156
154
154
152
150
148
147
146
146
146
146
146
146
146
146
146
146
146
149
153
156
158
163
166
167
167
167
167
166
164
160
158
157
156
156
158
163
166
167
167
168
169
171
173
174
173
171
169
168
166
163
160
156
153
149
144
139
135
131
127
123
121
119
117
116
115
115
116
118
122
125
128
134
140
146
153
160
167
174
180
185
190
195
197
199
200
200
199
198
198
198
196
192
189
188
188
187
186
184
180
177
174
170
166
160
201
189
176
163
150
137
125
115
105
95
87
81
75
70
66
64
64
65
68
72
77
85
95
105
115
122
129
137
145
152
156
159
163
165
166
166
164
160
157
155
152
148
144
139
136
133
128
125
123
121
119
117
115
113
111
108
106
105
104
102
98
96
95
94
94
94
94
97
102
106
109
114
119
124
129
135
139
143
147
153
157
163
169
175
180
185
188
191
194
194
190
185
180
175
169
164
158
154
149
144
140
137
133
128
123
119
116
115
115
115
115
115
116
118
122
127
133
139
146
153
160
167
174
180
186
188
189
189
189
188
188
185
180
177
177
177
177
177
177
177
177
177
177
177
177
175
174
171
168
166
163
160
157
156
155
154
152
148
146
146
146
146
146
146
146
146
146
146
146
148
152
155
157
160
164
166
167
166
165
163
160
157
156
156
156
156
157
160
165
167
168
170
173
175
176
177
176
175
175
173
171
168
166
163
159
154
149
144
139
136
133
128
125
123
121
118
116
115
117
121
124
125
128
134
138
144
150
156
164
169
175
180
185
190
194
196
197
198
198
198
198
197
194
190
188
188
188
188
188
187
185
181
177
174
169
164
194
184
169
156
145
133
123
113
103
93
84
77
71
66
63
61
61
63
65
70
76
84
95
105
115
125
133
139
147
154
159
164
166
167
167
167
166
164
160
157
154
148
144
139
136
133
128
123
119
116
114
112
108
106
104
102
98
97
96
95
93
92
92
93
94
94
94
97
103
107
112
116
122
127
132
137
142
146
150
154
159
164
169
175
179
184
187
188
190
189
185
180
175
170
164
160
156
152
148
144
139
136
133
128
125
121
117
115
115
115
115
115
115
116
119
124
129
136
143
149
156
164
170
177
184
187
188
188
188
188
188
185
180
177
177
177
177
177
177
177
177
178
179
180
180
180
178
176
173
170
167
164
160
157
156
156
153
148
146
146
146
146
145
144
144
144
144
144
145
147
149
153
155
157
160
163
164
163
160
158
157
156
156
156
156
156
156
159
164
167
169
173
176
177
177
178
179
180
179
177
175
173
170
167
163
157
153
147
143
139
136
132
127
125
124
121
117
115
117
121
124
125
128
133
138
143
147
153
159
164
170
175
180
185
189
192
194
195
196
196
195
194
191
189
188
188
188
188
188
188
187
185
180
177
173
167
183
173
159
147
136
126
116
106
97
88
81
74
67
63
60
57
57
60
63
67
74
84
95
105
115
125
135
143
149
156
163
166
168
168
168
167
167
166
163
158
154
148
144
139
135
132
126
122
116
112
108
105
102
98
95
94
93
92
91
88
87
87
88
91
93
94
95
98
104
109
114
119
124
129
135
140
144
148
152
155
159
165
169
173
177
180
184
185
185
184
180
175
170
164
159
155
152
149
146
142
138
136
133
128
125
123
119
116
115
115
115
115
115
115
117
122
127
133
139
146
153
160
167
174
180
184
187
188
188
188
187
184
179
177
177
177
177
177
177
177
178
181
184
185
185
185
184
180
177
174
170
167
163
158
156
155
152
148
146
146
145
144
142
140
139
139
139
140
143
145
147
150
154
156
157
158
159
158
157
156
156
156
156
156
156
156
156
159
164
167
170
174
177
177
178
181
184
185
184
181
178
176
173
169
165
160
155
150
146
142
138
133
128
125
124
121
117
115
116
118
122
124
127
132
136
140
145
149
154
159
164
170
175
180
184
187
189
190
191
191
191
190
189
188
188
188
188
188
188
188
188
187
184
179
175
169
167
159
147
136
126
116
106
98
91
83
76
70
65
60
56
54
54
57
62
66
74
84
95
105
115
126
136
145
152
158
164
167
170
172
170
168
167
167
164
159
154
148
144
138
134
129
124
119
114
108
103
98
96
92
88
87
86
86
86
85
84
84
85
88
92
95
98
102
106
112
116
122
126
132
137
142
145
148
153
156
159
164
167
170
174
177
179
180
179
177
174
169
164
159
154
150
148
146
143
139
137
136
134
129
126
124
121
117
115
115
115
115
115
115
116
119
124
129
137
144
150
157
165
171
176
180
184
185
185
185
184
181
178
177
176
176
176
177
177
177
179
184
187
188
188
188
187
185
181
177
173
169
165
160
157
154
150
147
145
144
142
140
138
137
136
136
136
137
139
143
145
148
152
155
156
156
156
156
156
156
156
156
156
156
156
156
156
159
164
167
170
175
177
178
181
185
187
188
187
185
181
178
175
171
167
163
157
152
147
142
137
132
127
124
122
118
116
115
115
116
118
122
125
129
133
137
142
146
149
154
159
164
170
175
178
181
184
186
187
188
188
188
188
188
188
188
188
188
188
188
188
188
185
180
175
169
152
144
135
125
116
106
98
91
84
77
71
66
61
57
54
53
53
56
61
66
74
84
95
105
115
126
136
146
154
160
165
169
173
175
174
170
168
167
164
159
154
148
144
138
134
128
123
117
112
105
99
94
91
87
83
82
82
82
82
82
83
84
85
88
92
96
101
105
109
114
119
123
128
134
138
143
146
149
154
156
158
163
166
168
170
173
175
175
173
170
167
164
159
154
149
145
144
142
139
137
136
136
135
132
127
125
123
119
116
115
115
115
115
115
115
118
123
128
135
142
148
156
163
168
173
177
179
180
180
180
179
178
176
175
173
172
173
175
176
177
180
185
188
188
188
188
188
187
185
180
176
171
166
162
157
152
148
144
142
140
137
135
134
133
133
133
134
135
137
139
143
146
150
154
156
156
156
156
156
156
156
156
155
155
155
156
156
159
164
167
170
175
177
179
184
187
188
188
188
187
184
179
176
173
169
164
158
152
146
140
135
129
125
122
118
116
114
113
113
114
116
118
122
125
129
133
138
142
145
149
154
159
164
169
173
176
179
181
184
185
185
185
185
185
185
186
187
188
188
188
188
188
185
180
175
169
134
127
119
113
105
97
91
84
77
71
66
62
57
54
53
53
53
56
61
66
74
84
95
105
115
126
136
146
156
163
167
171
175
177
176
173
169
167
164
159
154
148
144
138
134
128
123
116
109
103
96
91
87
83
78
76
76
76
76
78
82
85
87
91
94
98
104
108
112
117
122
125
129
134
139
144
146
149
153
156
157
160
163
165
167
169
169
169
167
164
160
156
153
149
144
140
138
138
137
136
136
136
136
134
129
126
124
122
119
117
116
115
115
115
116
119
123
128
134
140
147
154
160
166
171
175
177
177
177
177
176
175
173
171
169
168
169
171
174
176
179
184
187
188
188
188
188
188
187
184
178
173
167
160
155
150
145
140
137
135
132
129
128
128
128
128
129
133
135
137
140
144
149
154
156
156
156
156
156
156
156
156
154
152
154
156
156
159
164
167
170
175
177
180
185
188
188
188
188
188
185
180
176
173
168
163
156
150
144
138
132
127
122
118
115
113
111
109
109
111
113
114
118
121
124
128
133
136
139
144
149
154
159
164
167
170
174
176
178
180
180
180
180
180
180
181
184
185
186
187
188
187
184
179
175
169
114
109
103
98
93
87
82
77
71
67
63
60
55
53
53
53
53
56
61
66
74
84
95
105
115
126
136
146
156
164
168
172
176
177
176
173
169
167
164
159
154
148
144
138
134
128
123
115
108
103
95
88
85
82
76
74
73
73
74
78
82
86
91
94
98
103
108
113
116
119
124
128
133
136
140
144
146
148
152
155
156
157
158
160
163
164
164
163
160
158
154
149
146
143
139
136
134
134
135
136
136
136
136
135
133
129
126
124
123
121
119
118
118
118
119
122
125
128
134
139
146
154
159
164
169
173
175
176
176
175
173
171
169
168
167
167
167
168
171
175
178
181
186
188
188
188
188
188
188
185
179
173
166
158
153
147
142
137
133
129
127
126
125
125
125
125
126
129
134
136
139
144
149
154
156
156
156
156
156
156
156
156
154
152
154
156
156
159
164
167
170
175
177
180
185
188
188
188
188
187
184
179
175
171
166
160
154
148
142
136
129
124
119
115
112
109
106
104
103
105
107
109
113
116
119
123
127
129
134
139
144
149
153
156
160
164
168
171
173
175
175
176
177
177
177
178
179
180
181
184
185
184
181
178
175
169
95
92
88
85
82
78
75
71
67
64
61
57
54
53
53
53
54
57
62
67
75
84
95
105
115
126
136
146
156
164
168
171
175
176
174
170
168
166
163
158
154
148
144
138
134
127
121
115
108
102
95
87
84
81
76
74
73
74
77
82
86
89
93
98
103
108
113
118
121
124
128
133
135
138
142
145
146
147
149
152
154
155
156
157
158
159
159
157
155
153
149
144
140
137
135
132
129
129
132
134
135
136
136
136
135
133
129
126
125
124
123
123
123
123
123
124
126
129
134
139
146
154
158
163
167
169
171
173
173
171
169
168
166
165
164
164
165
166
169
173
176
179
184
187
188
188
188
188
187
184
177
171
165
157
149
144
139
133
129
125
123
123
123
123
123
124
125
128
133
137
140
145
150
154
156
157
158
158
157
156
156
156
155
155
155
156
156
159
164
167
170
175
177
179
184
187
188
188
188
186
181
178
175
169
165
159
154
147
140
134
127
122
116
112
108
104
101
98
97
98
101
104
108
112
114
118
122
124
128
133
139
143
146
149
154
159
163
166
168
170
171
173
174
175
175
175
176
177
178
179
180
179
178
176
173
168
77
76
75
74
73
72
70
66
64
63
61
56
54
53
53
54
56
60
65
70
77
85
95
105
116
126
136
146
156
164
167
169
173
173
170
168
167
165
160
156
152
148
144
138
133
126
119
113
107
102
95
88
85
82
78
76
76
78
82
87
91
95
99
104
108
113
118
122
125
128
133
135
137
140
144
146
146
146
147
148
150
152
153
154
154
154
154
152
150
147
144
139
135
132
129
127
126
126
127
129
133
135
136
136
136
135
133
129
127
126
125
125
125
125
125
125
127
132
136
140
147
153
157
160
165
167
168
169
169
168
166
165
163
160
159
159
160
164
167
170
174
177
181
186
188
188
188
187
185
180
175
169
163
156
147
140
135
129
125
122
119
118
118
118
120
123
125
128
134
138
143
147
152
155
157
160
163
163
160
157
156
156
156
156
156
156
156
159
164
167
170
175
177
178
181
186
188
188
187
184
179
177
174
169
164
158
152
146
138
132
125
118
113
108
103
98
96
93
93
94
96
98
102
106
109
113
116
119
123
128
133
137
140
144
149
154
158
160
164
166
168
169
170
170
170
171
173
174
175
175
175
175
175
173
170
166
64
65
66
66
66
66
65
64
63
63
61
58
56
56
56
57
60
63
67
74
81
88
98
108
118
128
137
146
156
163
166
168
169
169
168
167
166
163
158
154
150
146
142
137
132
125
118
113
107
103
96
91
87
84
82
82
82
84
88
92
97
102
106
112
115
118
123
127
129
133
135
136
138
142
145
146
146
146
146
146
147
148
149
149
149
149
148
147
145
143
139
134
129
127
126
125
125
125
125
126
129
133
135
136
136
136
135
134
132
129
128
128
127
126
126
127
130
134
138
143
148
154
156
159
164
167
167
167
166
165
163
160
158
157
156
156
157
160
164
167
170
174
178
183
185
185
185
184
180
177
173
167
160
153
146
138
132
127
122
118
116
115
115
116
119
123
126
129
135
140
145
150
154
157
160
164
166
166
164
160
157
156
156
156
156
156
156
159
164
167
170
175
177
177
179
183
185
185
184
181
178
176
173
168
163
156
150
144
137
129
123
116
109
104
98
94
91
88
88
91
92
94
98
102
105
108
112
115
118
123
128
133
136
140
145
149
153
156
160
164
166
167
167
167
167
168
169
169
169
169
169
169
169
169
167
163
56
58
62
63
63
63
63
63
63
63
63
62
61
61
62
63
65
67
71
78
86
94
103
113
123
132
139
147
154
160
165
167
167
167
167
166
164
159
156
152
148
144
140
135
129
124
117
113
107
103
98
94
91
88
87
87
88
91
95
99
104
109
114
118
122
125
129
132
134
136
137
138
140
144
146
146
146
146
146
146
146
146
146
146
146
146
145
143
140
138
135
129
126
125
125
125
125
125
125
125
126
129
134
136
136
136
136
136
135
134
133
133
132
129
129
132
134
136
139
144
148
154
156
158
163
166
166
165
163
160
158
156
154
154
154
154
154
156
159
164
167
170
175
178
180
180
180
179
177
174
169
164
156
149
143
136
129
124
119
116
115
115
115
117
121
125
127
132
137
143
147
152
156
160
164
166
167
167
166
163
158
156
156
156
156
156
156
159
164
167
170
175
177
177
178
179
180
180
179
178
176
174
170
166
160
155
149
144
136
128
122
115
107
101
96
91
87
85
85
86
88
91
94
98
103
106
109
113
116
119
124
129
133
137
142
146
150
154
157
160
163
164
164
164
164
164
165
165
165
166
165
165
165
164
163
159
54
56
61
64
65
66
66
66
66
66
66
66
66
66
67
70
72
74
78
84
91
98
107
116
126
135
142
148
154
159
164
167
167
166
165
163
160
156
153
149
146
142
137
132
127
123
117
113
108
104
101
96
94
92
92
93
95
98
103
108
113
117
122
126
129
132
135
137
138
139
140
142
144
145
146
146
146
146
146
146
146
146
146
146
145
144
142
139
137
135
132
127
125
125
125
125
125
125
125
125
125
128
133
136
136
136
136
136
136
136
136
136
135
134
134
135
137
138
140
144
149
154
156
157
160
163
163
160
158
156
154
152
150
149
148
148
150
152
155
159
163
166
170
173
175
175
175
174
173
169
164
159
152
145
139
133
127
122
117
115
115
115
116
119
123
126
129
135
140
145
150
154
158
163
166
167
167
167
167
164
159
156
156
156
156
156
157
160
165
167
170
175
177
177
177
177
177
177
177
177
175
171
168
164
159
154
148
142
135
126
119
113
106
98
93
88
85
84
84
84
85
88
92
96
101
104
108
113
115
118
123
126
129
135
140
144
148
152
155
157
158
159
159
159
159
159
159
159
160
162
160
159
159
159
157
154
54
58
64
67
70
72
73
74
74
74
74
74
74
74
74
76
77
81
86
91
97
104
112
119
128
136
144
148
154
158
163
166
166
164
160
158
156
153
149
146
143
139
135
129
125
121
117
113
108
105
103
99
97
97
97
98
102
106
112
116
122
125
129
134
136
138
140
142
144
144
144
145
146
146
146
146
146
146
146
146
146
146
146
146
144
140
138
137
136
134
129
126
125
125
125
125
125
125
125
125
126
129
134
136
136
136
136
136
136
136
136
136
136
137
138
139
140
142
144
146
150
154
156
156
157
158
158
157
155
153
150
148
146
144
144
144
145
147
150
154
157
160
164
167
169
169
169
167
166
163
158
153
146
139
134
129
124
119
116
115
115
116
118
122
125
129
133
137
143
147
152
155
159
164
167
167
167
167
167
164
159
156
156
156
156
156
158
163
166
167
170
175
177
177
177
177
177
177
177
176
173
169
166
163
157
152
146
140
134
126
118
113
105
97
92
87
84
84
84
84
84
87
92
95
98
103
107
113
115
118
123
125
128
134
138
144
147
149
153
155
156
156
156
156
156
156
156
156
157
157
156
154
154
154
152
149
58
65
71
74
76
77
80
81
81
81
81
81
82
82
83
84
85
88
93
98
103
109
117
124
132
138
144
150
154
157
160
163
163
160
157
155
153
149
146
143
139
136
132
127
123
119
116
113
108
105
104
103
103
103
103
105
109
114
119
124
129
134
138
142
144
146
147
147
147
146
146
146
146
146
146
146
146
146
146
146
146
146
146
146
144
139
136
136
136
134
129
126
125
125
125
125
125
125
125
126
129
133
135
136
136
136
136
137
138
139
139
139
139
140
142
144
144
145
147
149
153
155
156
156
156
156
156
155
153
149
146
144
142
140
139
139
140
143
145
149
152
155
158
160
163
164
163
160
157
155
150
145
139
134
129
125
121
117
115
115
115
117
121
124
127
132
136
140
144
148
153
156
159
164
167
167
167
167
166
163
158
156
156
156
156
156
159
164
167
167
170
174
177
177
177
177
177
176
175
173
170
167
164
159
155
150
144
139
133
126
118
113
105
97
92
87
84
84
84
84
84
87
92
95
98
103
107
113
115
118
123
125
128
134
138
142
145
147
149
153
155
156
156
156
156
155
154
154
154
154
152
150
149
148
148
146
67
74
82
84
84
85
86
87
87
87
87
87
87
88
91
92
94
97
101
105
109
115
122
129
135
140
146
152
155
156
157
158
158
157
155
153
149
146
143
139
136
133
129
125
121
117
115
113
108
105
105
105
106
107
109
112
117
122
127
132
137
142
146
148
150
152
153
152
150
148
147
146
146
146
146
146
146
146
146
146
146
146
146
146
144
140
137
136
136
135
133
129
126
125
125
125
125
126
127
129
133
135
136
136
136
136
137
139
142
143
144
144
144
144
145
146
147
148
150
153
155
156
156
156
156
156
156
154
150
146
143
140
138
136
134
134
136
138
140
143
146
149
152
154
156
156
156
153
149
146
143
139
134
129
125
122
118
116
115
115
116
119
123
126
129
134
138
142
145
149
154
156
159
164
167
167
167
166
164
160
157
156
156
156
156
156
159
164
167
167
169
173
176
177
177
176
175
173
171
169
167
164
160
156
153
148
144
138
133
126
118
113
105
97
92
87
84
84
84
84
85
88
92
96
101
104
108
113
115
118
123
125
128
133
137
140
144
146
147
149
152
153
154
154
153
152
150
149
149
149
148
147
146
145
144
142
79
85
92
94
95
95
95
95
95
95
95
95
95
95
97
98
102
105
108
112
117
122
128
133
139
143
148
153
156
156
156
156
156
155
153
149
147
144
140
136
133
129
125
122
118
116
115
112
108
105
105
106
108
111
114
118
123
129
135
140
145
149
153
156
157
157
157
155
154
152
150
148
147
146
146
146
146
146
146
146
146
146
146
146
145
143
140
138
137
136
135
133
129
128
128
128
128
129
132
134
135
136
136
136
136
137
139
143
145
146
146
146
147
148
148
149
150
152
154
156
157
158
158
157
156
156
155
152
148
144
140
136
134
132
129
129
132
134
135
137
140
143
146
146
146
146
146
145
143
139
136
133
129
125
122
118
116
115
115
116
118
122
125
127
132
136
140
144
146
149
154
156
158
162
164
164
164
163
160
157
156
156
156
156
156
156
159
164
167
167
168
170
173
174
174
173
171
169
168
166
164
160
157
154
150
147
144
138
133
125
118
113
106
98
93
88
85
84
84
84
86
90
94
97
102
106
109
113
115
118
123
125
128
133
136
138
142
145
146
147
148
149
149
149
149
148
147
146
146
146
145
144
144
142
140
138
94
98
103
105
105
105
105
105
105
105
105
105
105
105
105
106
108
112
115
118
123
128
133
137
142
146
150
154
156
156
156
156
155
153
149
147
145
142
138
134
129
126
123
119
116
115
114
111
107
106
107
109
112
115
118
123
129
136
142
147
153
156
159
163
164
163
160
158
157
155
154
152
148
146
146
146
146
146
146
146
146
146
146
146
146
145
144
142
140
138
137
136
134
134
133
133
134
134
135
136
136
136
136
137
138
140
143
145
146
146
147
148
150
152
154
154
154
156
158
159
160
163
163
160
157
156
154
150
146
142
137
133
129
127
126
126
127
128
129
132
135
137
138
139
139
139
138
137
135
133
129
127
124
121
118
116
115
115
115
117
121
124
126
129
134
138
142
145
146
149
153
156
157
158
159
159
159
158
157
156
156
155
155
155
156
156
158
163
166
167
167
168
169
170
169
169
168
166
165
163
160
157
155
152
148
145
142
137
132
125
118
113
107
101
96
91
86
84
84
85
88
92
95
98
103
107
111
114
116
119
123
125
128
133
136
137
140
144
146
146
146
146
146
146
146
146
146
146
146
145
143
140
139
138
137
136
107
112
115
115
115
115
115
115
115
115
115
115
114
113
113
115
116
118
121
124
128
133
136
140
144
148
152
155
156
156
156
156
154
150
147
145
143
139
136
132
127
125
121
117
115
115
113
109
107
108
111
113
115
118
123
128
135
142
148
154
159
163
165
166
167
166
165
163
160
157
156
154
150
147
146
146
146
146
146
146
146
146
146
146
146
146
146
145
144
142
140
139
138
138
137
137
138
138
139
139
139
139
139
140
142
144
145
146
146
147
149
152
154
155
157
158
159
160
163
164
165
166
166
163
158
156
153
148
143
139
133
129
125
123
123
123
123
123
125
127
129
132
133
134
134
133
132
129
128
127
124
122
119
117
116
115
115
115
116
119
123
125
127
132
135
138
143
146
146
148
152
154
155
156
156
156
156
156
155
154
154
152
151
153
155
156
157
160
165
167
167
167
167
167
166
165
164
163
160
158
156
154
152
149
146
143
139
135
129
124
117
113
107
102
97
92
88
85
85
87
91
94
96
101
105
109
113
116
118
122
124
125
128
133
136
136
138
142
145
146
146
146
146
146
146
146
146
146
146
144
140
137
136
136
136
136
120
124
125
126
126
126
126
126
125
125
123
123
121
119
119
121
123
124
127
129
133
136
139
143
146
149
154
156
156
156
156
155
152
148
146
144
140
137
134
129
126
123
119
116
115
114
111
107
107
111
114
115
117
122
127
133
139
146
153
159
164
167
169
169
170
169
167
166
163
158
156
155
152
148
146
146
146
146
146
146
146
146
146
146
146
146
146
146
146
145
144
144
143
142
140
140
142
143
144
144
144
144
144
144
145
146
146
146
147
149
153
155
157
158
160
163
164
165
167
169
169
168
167
165
160
156
152
146
140
135
129
125
122
119
118
118
118
119
121
123
125
127
128
128
128
128
126
124
123
122
119
117
116
115
115
115
115
115
117
121
124
125
128
133
136
138
142
145
146
147
148
150
152
153
154
154
154
153
152
150
149
148
148
149
153
155
156
158
162
165
166
167
166
165
163
160
159
157
155
154
152
150
148
146
143
139
137
133
128
123
117
113
107
103
97
94
91
88
88
91
93
95
98
103
107
111
115
118
122
124
125
126
129
134
136
136
137
139
143
145
146
146
146
146
146
146
146
146
146
144
140
137
136
136
136
136
134
136
136
136
136
136
136
136
135
133
129
128
127
126
126
127
128
129
132
134
136
139
143
145
147
150
154
156
156
156
155
153
149
147
146
144
139
136
133
128
125
123
118
115
115
113
109
107
109
113
115
116
119
124
129
136
143
149
156
163
167
170
173
174
174
173
169
167
164
159
156
155
152
148
146
146
146
146
146
146
146
147
148
149
149
149
148
147
146
146
146
146
146
145
144
144
145
146
146
146
146
146
146
146
146
146
146
147
149
153
155
157
160
163
165
167
169
169
171
173
173
170
168
166
163
156
150
144
138
132
127
122
118
116
115
115
115
116
117
119
121
123
124
124
123
123
122
119
118
117
116
115
115
115
115
115
115
115
118
122
125
125
128
133
136
137
139
142
144
145
146
147
148
148
148
148
148
148
148
147
146
146
146
147
149
153
155
157
158
160
163
164
163
160
158
156
154
153
150
148
147
145
144
142
139
137
135
132
127
123
117
113
107
103
97
94
93
92
92
93
95
98
102
105
109
113
117
121
124
125
126
129
133
135
136
136
136
138
141
145
146
146
146
146
146
146
146
146
146
145
143
139
137
136
136
135
146
146
146
146
146
146
145
144
142
139
136
134
133
133
133
133
133
134
136
138
140
143
145
147
149
153
155
156
156
156
154
150
147
146
145
142
138
136
133
128
125
123
118
115
115
113
110
109
112
114
115
117
122
126
132
138
146
153
159
165
169
173
176
177
177
174
169
167
164
159
156
154
150
147
146
146
146
146
146
146
146
148
152
153
154
153
152
150
149
149
149
149
149
149
148
148
149
149
149
149
148
147
146
146
146
146
147
149
153
155
157
160
164
167
169
171
173
175
175
176
176
174
170
167
164
156
148
142
136
129
123
118
114
113
113
113
113
114
115
116
117
119
121
121
119
118
117
116
115
115
115
115
115
115
115
115
115
115
118
122
125
125
127
132
135
136
137
138
140
142
143
144
144
144
144
144
144
144
144
145
146
146
146
146
147
150
154
156
156
157
158
159
157
155
154
152
150
147
145
144
142
140
138
138
136
135
133
129
126
123
117
113
107
103
98
95
94
94
94
94
96
101
105
108
112
115
119
123
125
126
129
133
135
136
136
136
136
138
143
145
146
146
147
148
149
149
149
148
147
146
145
142
138
136
135
133
156
156
156
156
156
156
153
150
147
145
142
139
137
136
136
136
136
137
139
142
144
145
147
149
153
155
156
156
156
155
152
148
146
146
144
140
137
136
133
128
125
123
118
115
115
114
113
113
114
115
115
118
123
128
134
140
147
156
163
166
169
174
177
177
176
173
169
166
163
158
155
152
148
146
146
146
146
146
146
146
146
148
152
155
156
156
155
154
154
154
154
154
154
154
154
154
154
154
154
153
152
150
149
149
149
149
150
153
155
157
160
164
167
170
173
175
176
178
179
179
178
176
173
169
164
156
147
139
133
125
119
114
110
108
108
108
109
112
114
115
115
116
117
117
116
115
115
115
115
115
115
115
115
115
115
115
115
115
117
121
124
125
126
129
132
134
135
136
137
138
138
138
138
138
138
139
139
139
140
142
144
145
146
146
146
148
152
155
156
156
155
154
153
150
148
146
144
142
140
138
137
135
134
134
133
132
129
126
124
121
117
113
108
104
101
96
94
94
94
95
98
103
107
111
115
118
122
125
127
129
133
135
136
136
136
136
137
140
144
146
147
148
150
152
154
154
154
152
150
148
147
144
140
137
134
129
164
164
164
164
164
163
159
155
152
149
146
143
139
137
136
136
137
139
143
145
146
147
149
153
155
156
156
156
156
154
150
147
146
146
144
139
136
136
133
128
125
123
118
115
115
115
115
115
115
115
116
119
124
129
136
142
148
156
164
167
170
174
177
176
174
170
168
165
160
157
154
150
147
146
146
146
146
146
146
146
146
147
149
152
154
155
156
156
156
156
156
156
156
156
156
156
156
156
156
156
155
154
154
154
154
154
154
155
157
160
164
166
169
173
176
178
179
181
184
184
181
178
175
169
164
156
146
137
129
122
116
112
107
105
105
105
106
109
113
115
115
115
115
115
115
115
115
115
115
115
115
115
115
115
115
115
115
115
116
118
122
124
125
126
127
129
132
133
133
134
134
134
134
134
134
135
136
136
137
138
140
144
146
146
146
147
149
153
155
154
152
150
148
146
143
140
138
136
134
133
132
129
128
128
128
127
126
125
123
119
116
113
108
105
103
98
95
94
95
98
102
105
108
113
117
121
124
127
131
134
135
136
136
136
136
137
139
143
145
147
149
152
154
156
157
157
157
156
154
152
149
146
142
137
132
127
169
169
169
169
167
166
163
159
156
152
148
145
142
138
136
136
138
142
145
146
147
149
153
155
156
156
156
156
156
154
149
146
146
146
143
139
136
136
133
128
125
123
118
115
115
115
115
115
115
116
118
122
127
132
138
144
150
157
164
167
169
173
174
173
170
168
166
163
158
155
152
148
146
145
144
144
144
144
144
144
145
146
147
148
150
152
153
154
154
154
155
156
156
156
156
156
156
156
156
156
156
156
156
156
156
156
156
157
160
164
166
168
171
175
178
181
184
186
187
187
185
180
176
171
165
156
146
136
126
119
114
109
105
103
103
104
105
108
113
115
115
115
115
115
115
115
115
115
115
115
115
115
115
115
115
115
115
115
115
116
118
121
123
123
124
126
127
128
128
128
128
128
128
128
129
133
135
136
136
136
139
144
146
146
146
146
148
150
152
150
148
147
145
143
139
135
132
129
128
127
125
124
125
125
125
125
125
125
123
118
115
113
109
106
104
102
98
97
98
102
104
106
109
113
117
123
126
129
134
136
136
136
136
137
138
140
143
145
147
149
153
156
158
159
160
162
160
159
158
156
152
148
143
137
129
125
175
175
174
173
170
168
166
163
158
154
149
146
143
138
136
136
139
143
146
146
148
152
155
156
156
156
156
156
156
154
149
146
146
145
142
138
136
136
133
128
125
123
119
116
115
115
115
116
117
119
122
125
129
135
140
146
152
158
164
167
168
169
169
169
168
167
165
160
157
154
150
147
145
143
140
139
138
138
138
140
142
144
144
145
147
148
149
149
149
150
152
154
154
155
156
156
156
156
156
156
156
156
156
156
156
157
158
160
164
166
168
170
174
177
181
185
187
188
188
188
187
184
179
173
166
156
146
136
126
117
112
106
102
99
99
103
105
108
113
115
116
117
118
118
118
117
116
115
115
115
115
115
115
115
114
113
113
113
113
114
116
117
118
119
121
123
123
123
123
123
123
123
125
125
126
129
133
135
136
137
140
144
146
147
148
149
150
151
149
147
146
145
143
139
134
129
127
124
123
122
119
119
121
123
123
124
125
125
123
118
115
114
111
107
105
104
103
102
103
104
105
107
111
114
118
123
127
132
135
136
136
137
138
140
142
144
145
147
149
153
156
160
163
164
165
166
165
164
162
158
154
148
143
136
128
122
177
177
177
175
172
168
166
163
158
154
148
145
142
138
136
136
139
143
146
146
149
153
156
156
156
156
156
156
156
154
149
146
146
144
140
137
136
136
133
128
125
124
122
119
118
118
118
119
121
123
125
129
134
139
143
148
154
159
164
167
167
167
167
167
167
166
163
158
156
154
149
146
144
140
137
136
134
134
134
135
137
138
140
142
144
145
146
146
146
147
148
149
150
152
154
155
156
156
156
156
156
156
156
157
158
160
163
165
166
168
170
174
176
179
184
187
188
189
190
190
188
186
181
175
167
157
146
136
126
116
109
104
98
95
97
102
105
108
113
116
118
121
122
123
122
121
118
116
115
115
115
115
115
114
112
109
108
108
109
111
113
113
113
115
117
117
117
117
117
117
118
119
121
123
125
126
129
134
137
139
143
146
148
150
152
154
154
153
150
147
146
144
140
135
129
125
122
119
118
117
116
116
117
118
119
122
124
125
123
118
115
115
113
109
106
105
105
105
105
105
105
108
112
115
118
123
128
133
136
136
136
138
142
144
145
146
147
149
153
156
160
164
166
168
169
169
169
167
165
160
154
148
142
135
126
118
175
176
175
173
170
167
165
160
156
152
148
144
140
137
136
136
138
142
145
146
149
154
156
156
156
156
156
156
156
154
149
146
146
144
139
136
136
136
133
128
125
125
124
123
123
123
123
123
125
127
129
134
139
143
146
150
154
159
164
167
167
167
167
167
167
165
160
157
156
154
149
145
142
138
135
133
129
128
128
129
132
134
136
138
140
142
143
144
144
144
145
146
147
148
150
152
154
155
156
156
156
156
157
160
163
165
166
167
168
170
174
176
177
180
185
188
188
190
194
194
190
187
184
177
167
157
146
136
126
116
108
103
97
95
97
102
105
108
113
117
121
124
125
125
125
124
122
119
117
116
115
115
114
112
108
106
105
105
106
107
107
108
109
111
113
113
113
113
113
113
115
116
117
119
123
125
128
134
138
142
146
149
152
154
155
156
156
155
152
148
146
144
138
134
128
123
119
116
115
113
113
113
115
115
116
119
123
125
123
119
116
115
114
111
107
105
105
105
105
105
105
108
112
115
118
123
127
132
135
136
136
139
143
146
146
147
149
153
156
160
164
167
169
171
173
174
173
170
167
163
156
147
139
132
123
114
171
172
171
169
168
166
163
158
154
150
146
142
138
136
136
136
137
140
144
146
149
154
156
156
156
156
156
156
156
154
149
146
146
144
139
136
136
136
133
128
125
125
125
125
125
125
126
127
129
132
135
139
144
147
150
153
156
160
165
167
167
167
167
167
167
164
159
156
156
154
148
144
140
137
134
129
126
125
125
126
127
129
132
134
135
137
138
138
139
140
142
143
144
144
146
148
150
153
155
156
156
156
158
163
166
167
167
167
169
173
176
177
177
180
185
188
188
190
195
195
190
188
185
177
167
157
146
136
126
116
108
103
97
95
97
102
106
109
114
119
123
126
127
128
127
126
124
123
121
117
115
115
113
109
106
105
105
104
103
103
103
104
106
107
107
107
107
108
108
109
112
114
115
118
123
126
129
135
140
145
149
153
156
158
159
159
158
157
154
150
147
144
138
134
128
123
118
115
112
109
108
110
113
115
115
118
123
125
124
122
118
116
115
113
109
106
105
105
105
105
105
107
111
114
117
121
125
129
134
136
136
139
143
146
146
148
152
155
158
163
166
169
173
175
176
177
176
173
169
164
156
146
137
128
118
109
168
168
167
166
165
163
159
155
152
147
143
139
137
135
135
135
136
139
144
146
149
154
156
157
158
158
157
156
156
154
149
146
146
144
139
136
136
136
133
128
125
125
125
125
126
127
129
132
135
137
140
144
149
153
155
158
160
164
166
167
167
167
167
167
167
164
159
156
156
154
148
144
139
135
132
127
125
123
123
123
123
124
126
128
129
132
133
134
134
136
138
138
139
140
142
144
146
149
153
155
156
156
159
164
167
167
167
167
170
174
177
177
177
180
185
188
188
190
194
194
190
188
185
177
167
157
146
136
126
116
108
103
98
96
98
103
107
112
116
121
125
129
132
133
132
129
126
125
122
118
115
114
111
107
105
104
103
101
98
97
98
101
102
103
103
103
103
104
105
106
108
112
115
118
123
127
132
137
143
147
152
156
159
163
164
164
163
160
156
153
149
144
139
134
128
123
117
113
109
106
106
108
113
115
116
119
123
125
125
124
122
118
116
114
112
108
106
105
105
105
105
106
108
112
115
119
123
127
132
135
136
138
142
145
146
149
154
157
160
165
168
171
175
177
177
177
177
174
169
164
156
146
136
126
115
106
164
164
164
163
160
157
154
150
147
143
139
136
134
132
131
133
135
139
144
147
150
154
157
160
163
163
160
157
156
154
150
147
146
144
139
136
136
136
133
128
125
125
126
127
129
132
135
137
140
143
146
149
154
157
160
163
165
166
167
167
167
167
167
167
167
165
160
157
156
154
148
144
139
134
129
126
123
120
118
118
118
119
122
123
125
127
128
128
129
132
133
134
134
136
138
140
143
146
149
153
155
156
159
164
167
167
167
167
170
174
177
177
177
179
184
187
188
189
190
190
189
187
184
177
167
157
146
136
126
116
108
105
102
100
102
105
109
114
119
124
128
133
135
136
135
132
127
125
123
118
115
113
109
106
104
102
98
96
95
94
95
96
97
97
97
97
98
102
104
105
106
109
113
117
123
128
134
138
144
150
155
159
164
166
167
167
166
164
160
156
152
146
140
135
129
124
118
114
110
108
108
110
113
116
118
122
124
125
125
125
124
122
118
116
114
111
107
105
105
105
105
105
106
108
112
116
121
125
129
133
135
137
140
144
146
149
154
158
163
166
169
173
176
177
177
177
177
174
169
164
156
146
135
124
113
103
159
159
159
157
155
152
149
145
142
139
135
132
129
127
127
129
134
138
144
148
152
156
160
164
166
166
164
160
157
155
152
148
146
144
139
136
136
135
132
127
125
126
129
132
134
136
139
142
145
149
153
156
160
163
165
166
168
169
169
169
168
167
167
167
167
166
163
158
156
154
150
145
140
135
129
126
123
118
115
115
115
116
117
119
121
123
123
125
126
127
128
128
129
132
134
136
139
143
146
149
153
155
158
163
166
167
167
167
169
173
175
176
177
178
181
185
187
188
188
188
188
186
181
175
167
157
146
136
126
116
109
106
104
104
104
107
112
116
122
126
132
135
136
136
136
134
129
126
123
118
114
111
107
104
102
98
95
94
94
94
94
94
94
94
94
94
95
98
102
104
105
108
113
117
123
128
134
140
146
152
158
163
166
168
169
169
168
166
164
159
155
149
144
139
133
126
119
115
113
113
113
113
115
118
122
124
126
127
128
127
126
124
121
117
115
112
108
105
105
104
104
104
105
106
109
114
118
122
125
129
134
136
139
144
147
150
154
159
164
168
171
175
177
177
177
177
176
173
168
162
154
144
132
120
108
97
154
154
154
152
149
146
143
140
137
133
129
127
126
125
125
128
134
138
144
148
154
158
163
166
167
167
166
164
160
157
154
149
146
144
139
136
136
134
129
126
125
127
132
135
137
139
143
146
149
154
159
163
166
168
169
170
171
173
174
173
170
168
167
167
167
167
165
160
157
155
152
147
142
137
132
126
122
117
115
114
113
113
114
116
117
118
119
121
123
123
125
125
126
127
129
133
136
140
144
147
150
154
157
160
165
167
167
167
168
169
171
173
175
176
178
181
184
186
187
188
187
184
179
173
166
156
146
136
126
117
112
107
105
105
105
108
113
117
123
128
133
136
136
136
136
135
131
126
123
117
113
109
105
102
98
95
93
92
92
92
92
92
92
92
93
94
94
95
98
103
105
108
113
117
123
128
135
142
148
154
160
165
168
170
173
173
171
169
167
164
159
154
149
143
136
129
123
118
116
115
115
116
118
122
125
127
129
132
133
132
129
126
123
119
116
113
108
105
104
102
100
101
103
105
107
112
115
119
123
128
133
136
139
144
148
152
156
160
165
169
173
176
177
177
177
177
175
171
166
158
149
139
128
116
105
93
148
148
147
146
143
140
137
135
132
129
126
125
125
125
125
128
134
139
144
150
155
160
165
168
169
169
168
166
163
158
154
149
146
144
139
136
135
132
127
125
125
128
133
136
138
142
146
149
154
159
164
168
171
173
174
175
175
176
177
176
173
169
167
167
167
167
166
163
158
156
153
148
144
138
133
126
119
116
114
112
109
109
111
113
114
115
116
117
118
119
121
123
124
125
126
129
134
138
142
145
148
152
155
158
163
166
167
167
167
167
168
169
171
173
175
177
179
181
184
185
184
180
176
170
163
154
146
136
126
118
113
108
105
105
105
108
113
117
123
128
133
136
136
136
136
134
129
125
121
117
113
107
103
98
95
93
91
88
87
87
87
87
87
88
91
93
94
94
97
103
106
109
113
118
123
128
136
143
149
156
163
166
169
173
176
176
175
173
169
166
163
157
152
146
139
134
128
123
119
118
118
119
123
127
129
132
134
135
136
135
133
129
125
122
117
113
108
105
103
98
96
97
99
103
106
109
113
118
123
128
133
137
140
144
149
154
158
163
166
169
174
177
177
177
177
176
173
168
163
156
146
136
125
114
102
89
143
142
140
138
136
134
132
129
127
125
123
123
124
125
126
129
135
140
146
153
159
164
168
171
173
173
170
168
164
159
154
149
146
143
139
136
134
129
126
125
125
128
133
137
140
145
149
154
159
164
169
173
175
176
177
177
177
177
177
177
175
171
168
167
167
167
167
164
159
156
154
148
144
138
133
126
118
115
113
109
106
106
107
109
112
114
115
115
115
116
117
119
122
124
125
127
132
136
140
144
147
150
154
157
160
164
166
167
167
167
167
167
168
169
171
173
175
177
179
179
178
176
173
167
159
150
143
135
126
118
113
108
105
105
106
109
113
117
123
128
133
136
136
136
136
133
128
123
119
115
111
106
101
96
94
91
87
85
84
84
84
84
84
85
88
92
94
95
98
103
107
111
115
119
123
128
136
144
149
156
163
166
169
174
177
177
177
175
171
168
165
160
155
149
144
139
133
129
126
124
124
126
129
132
135
137
138
139
139
138
136
133
128
124
119
114
109
106
103
97
94
95
97
103
105
108
113
117
123
128
134
138
143
146
150
155
160
165
167
170
175
177
177
177
176
174
170
166
159
153
144
133
122
109
97
85
136
135
134
132
129
128
126
124
123
121
119
120
123
125
127
132
137
143
149
156
164
169
173
175
176
176
174
170
166
160
155
150
146
142
138
135
132
127
125
125
125
128
134
138
143
147
152
157
163
168
173
176
177
177
177
177
177
177
177
177
176
173
169
167
167
167
167
164
159
156
154
148
144
138
133
126
118
115
113
108
105
105
105
106
108
111
113
114
115
115
115
116
119
123
125
126
129
134
138
142
146
149
154
156
157
160
163
164
164
164
164
164
165
166
168
169
171
173
175
175
173
171
168
163
156
147
139
133
125
118
113
108
105
105
107
111
114
118
123
127
132
135
136
136
135
132
127
123
118
113
109
104
98
95
92
88
85
84
84
84
84
84
84
84
87
92
94
96
101
104
108
113
117
121
125
128
136
143
148
154
160
165
169
174
177
177
177
176
174
170
167
164
159
154
149
144
139
135
132
129
129
132
135
137
140
143
144
144
144
142
139
136
132
127
122
116
112
107
103
98
95
95
98
103
105
108
113
118
124
129
135
140
145
149
153
158
163
166
168
171
175
177
177
176
174
170
167
163
156
148
139
128
118
106
95
84
128
128
128
126
124
123
122
119
118
117
116
118
123
126
129
135
140
146
153
160
167
173
177
179
180
179
177
173
168
163
157
152
146
140
137
134
129
126
125
125
125
128
134
138
144
148
154
159
165
171
175
177
178
179
179
178
177
177
177
177
176
173
169
167
167
167
167
164
159
156
154
148
144
138
133
126
119
116
113
108
105
105
105
105
106
107
109
113
115
115
115
115
118
123
125
125
128
133
137
140
144
148
152
155
156
157
158
159
159
159
159
159
160
163
164
165
167
169
169
169
168
166
163
159
153
145
137
129
124
117
113
108
105
105
108
112
115
118
123
126
129
134
136
135
133
129
125
121
117
113
107
103
97
94
92
87
84
84
84
84
84
84
84
85
88
92
94
97
102
106
109
113
117
122
125
128
135
142
148
154
159
164
169
173
176
177
177
177
176
173
169
166
163
158
153
149
144
140
138
137
137
138
140
143
146
148
148
148
148
146
143
139
135
129
124
119
114
109
105
102
99
99
102
104
106
109
114
119
126
132
137
143
147
152
156
160
165
167
169
173
176
177
176
174
170
168
165
160
154
146
136
126
116
105
95
84
125
123
123
122
119
118
117
116
115
115
116
119
123
127
132
137
143
149
156
164
170
176
180
184
185
183
179
175
169
164
158
153
146
139
135
132
127
125
125
125
125
128
133
138
144
148
154
159
166
173
176
177
179
183
183
179
177
177
177
177
175
171
168
167
167
167
167
164
159
156
154
148
144
138
134
127
122
117
113
108
105
105
105
105
105
105
108
113
115
115
115
115
118
123
125
125
128
133
136
139
144
147
149
153
155
156
156
156
156
156
156
156
157
158
159
160
163
164
165
164
163
160
158
154
149
143
135
128
123
117
113
108
105
105
108
113
115
118
123
125
127
131
133
132
129
126
123
119
115
111
107
102
97
94
90
86
84
84
84
84
84
84
84
86
90
93
95
98
103
107
111
114
117
122
125
128
134
140
146
152
157
163
167
170
174
176
177
177
177
174
169
167
165
160
156
153
149
145
144
143
144
144
146
149
152
154
154
154
152
149
146
143
138
133
127
122
116
112
108
105
103
103
105
107
109
113
118
123
129
135
140
146
150
155
160
164
167
169
171
175
177
176
174
170
168
166
163
158
152
145
136
126
115
105
95
84
121
119
118
117
116
115
115
115
115
115
117
121
125
129
135
140
146
153
160
167
174
180
184
187
188
186
181
176
171
165
158
152
146
139
134
129
126
124
124
124
125
127
132
138
144
148
154
159
166
173
176
177
179
183
183
179
177
177
177
177
175
170
167
167
167
167
166
163
158
156
153
148
144
138
133
128
123
117
113
108
105
105
105
105
105
105
108
113
115
115
115
116
119
123
125
126
129
134
136
139
144
146
147
149
153
155
156
156
156
156
156
156
156
156
156
157
158
159
159
159
158
156
153
149
144
139
133
127
122
117
113
108
105
105
108
113
115
118
123
125
126
127
128
127
126
125
123
118
113
109
105
101
96
92
88
85
84
84
84
84
84
84
84
87
92
94
96
101
104
108
112
115
117
121
124
127
132
137
143
149
154
159
164
167
170
173
175
176
176
173
169
167
166
163
158
155
153
149
147
147
148
150
152
154
156
158
159
158
156
153
149
146
142
136
129
124
119
115
112
109
108
108
109
112
115
119
124
129
135
140
146
153
156
160
164
168
171
173
175
176
177
175
171
168
167
165
160
155
149
143
135
126
115
105
95
84
117
116
115
113
113
113
113
113
114
115
118
123
127
133
139
144
149
156
164
170
177
184
187
188
188
187
184
178
173
166
157
150
144
138
132
127
124
122
120
122
123
125
129
136
142
148
154
159
165
171
175
177
178
179
179
178
177
177
177
176
173
169
167
167
167
167
165
160
157
155
152
148
144
138
132
127
123
117
113
109
106
105
105
105
106
107
109
113
115
115
115
117
121
124
125
127
132
135
136
139
144
146
146
147
149
152
153
154
154
154
154
154
155
156
156
156
156
156
155
154
154
152
148
144
139
135
129
124
119
115
111
107
105
105
108
113
115
118
123
125
125
125
125
125
125
124
121
117
113
108
103
98
95
92
87
84
84
84
84
84
84
84
85
88
92
94
97
102
105
108
113
115
116
119
123
126
129
135
140
145
150
155
160
165
168
169
171
173
173
170
168
167
167
164
159
156
155
153
150
150
152
154
156
158
160
163
164
163
159
156
153
149
145
139
134
128
123
119
116
114
113
114
115
118
122
127
132
137
143
148
153
159
164
167
170
173
175
176
177
177
177
175
170
167
167
164
159
154
147
140
134
125
115
105
95
84
115
114
112
109
108
108
108
110
113
116
119
124
129
136
142
147
153
160
167
173
179
185
188
188
188
188
185
179
173
166
157
148
142
136
129
125
122
118
117
117
119
123
128
134
140
146
152
158
164
169
173
176
177
177
177
177
177
177
176
174
170
168
167
167
167
166
163
158
156
154
150
146
142
136
129
126
123
118
115
112
109
108
108
108
109
111
113
114
115
115
116
119
123
125
126
129
134
136
137
140
144
146
146
146
147
148
149
149
149
149
149
150
152
154
155
155
154
154
152
150
149
147
144
139
136
132
127
122
117
113
109
106
105
105
108
113
115
118
123
125
125
125
125
125
125
123
119
116
113
107
103
97
94
92
88
85
84
84
84
84
84
84
86
90
93
95
98
103
105
108
113
115
115
118
123
125
127
132
137
143
147
153
158
163
166
167
168
169
169
168
167
167
167
164
159
156
156
155
154
154
155
156
158
162
165
166
167
166
164
159
156
152
147
143
138
133
128
124
122
119
118
119
122
126
129
135
140
145
150
155
160
166
170
173
175
176
177
177
177
177
177
175
170
167
167
164
159
154
146
139
134
125
115
105
95
85
115
113
109
106
105
105
105
108
113
117
122
126
132
138
144
149
156
163
169
175
180
185
188
188
188
187
184
177
171
165
156
147
140
134
128
123
119
116
115
115
117
122
126
132
137
143
149
156
163
167
170
174
176
177
177
176
175
175
173
170
168
167
167
167
167
165
160
157
156
154
148
144
140
134
128
125
123
118
115
114
113
113
113
113
113
114
115
115
116
117
119
122
124
126
129
133
135
136
138
142
145
146
146
146
146
146
146
146
146
146
146
147
148
150
152
152
150
149
148
147
145
143
139
136
133
128
124
119
115
111
107
105
105
105
108
113
115
118
123
125
125
125
125
125
125
123
118
115
113
107
103
98
95
93
90
86
84
84
84
84
84
85
88
92
94
96
101
104
106
109
113
115
115
117
121
124
126
129
135
140
145
150
155
159
164
166
167
167
167
167
167
167
167
164
159
156
156
156
156
156
156
157
160
165
167
167
167
167
166
163
158
154
150
146
142
137
133
129
127
126
126
126
129
133
137
143
148
153
158
163
168
174
177
179
180
180
180
179
178
177
177
175
170
167
167
164
159
154
147
140
134
125
115
105
96
88
115
113
109
106
105
105
105
108
113
117
123
128
133
138
144
150
157
164
169
175
179
184
187
188
188
186
181
176
169
164
156
147
139
133
127
122
117
115
115
115
116
119
124
129
135
140
146
153
159
164
167
170
173
174
174
173
171
170
169
168
167
167
167
167
166
163
158
156
155
152
148
144
138
134
128
125
123
119
116
115
115
115
115
115
115
115
115
116
118
121
123
124
125
127
132
135
136
136
138
142
145
146
146
146
146
146
146
146
146
146
146
146
147
148
149
148
147
146
146
145
143
139
136
133
129
125
122
117
113
109
106
105
105
105
108
113
115
118
123
125
125
125
125
125
125
123
118
115
113
108
104
101
96
94
92
88
85
84
84
84
84
86
90
93
94
97
102
105
107
111
114
115
115
116
120
124
125
127
132
137
143
147
152
156
160
164
166
167
167
167
167
167
166
163
158
156
156
156
156
156
156
158
163
166
167
167
167
167
166
163
158
155
152
148
144
140
136
134
134
133
133
134
136
140
145
150
155
160
166
171
176
180
184
185
185
185
185
184
181
178
177
175
170
167
167
164
159
154
148
142
135
126
116
107
99
91
115
114
111
107
105
105
105
108
113
117
123
128
134
138
145
151
157
163
168
173
177
180
184
185
185
183
179
175
169
163
156
146
138
132
125
119
116
115
115
115
115
117
122
127
132
137
143
149
154
159
163
166
168
169
169
169
168
167
167
167
167
167
167
166
164
160
157
156
154
150
147
144
138
134
129
126
124
122
119
117
116
115
115
116
117
118
118
119
122
124
125
125
126
129
134
136
136
136
137
139
142
144
144
145
146
146
146
146
146
146
146
146
148
151
149
147
146
146
146
144
140
137
134
129
126
123
119
116
113
108
105
105
105
105
108
113
115
118
123
125
125
125
125
125
125
123
118
115
113
108
105
102
97
94
93
90
86
84
84
84
85
88
92
94
95
98
103
106
109
113
115
115
115
117
122
124
125
126
129
135
140
145
150
154
157
160
164
166
167
167
166
165
163
160
157
156
156
156
156
156
156
158
162
165
166
167
167
166
164
160
157
156
153
148
146
143
140
139
138
138
138
140
143
147
153
158
163
168
174
179
184
187
189
190
190
189
188
187
184
179
177
175
170
167
167
164
159
154
148
143
136
126
118
111
103
95
117
116
113
109
106
105
105
108
113
117
123
128
134
138
144
150
155
159
164
169
174
177
179
180
180
179
177
173
167
160
154
146
137
129
124
118
115
115
115
115
115
116
119
124
129
135
139
144
149
154
157
160
163
164
165
165
164
164
164
165
166
165
164
163
160
157
156
156
154
149
146
144
139
135
132
127
125
124
123
121
119
118
118
119
121
122
123
123
124
125
125
125
127
131
134
136
136
136
136
137
138
139
140
142
143
144
144
145
146
146
146
147
150
153
152
148
146
146
145
142
138
135
132
127
125
121
117
114
111
107
105
105
105
106
109
113
115
118
123
125
125
125
125
125
125
123
118
115
113
109
106
103
98
95
94
92
88
85
84
85
87
91
93
94
96
101
104
107
111
114
115
116
117
119
123
125
125
125
128
134
138
144
148
154
156
157
160
163
165
165
163
160
158
157
156
156
156
156
156
156
156
157
158
160
163
164
164
163
160
157
156
156
153
149
146
145
144
144
144
144
144
145
149
154
159
164
169
175
180
185
189
192
194
195
194
191
189
188
185
180
177
174
170
167
167
164
159
154
148
144
137
129
122
114
106
98
122
118
115
112
108
106
105
108
113
117
123
128
133
138
144
148
152
156
160
164
169
173
175
176
177
176
174
170
165
159
154
146
137
129
124
118
115
115
115
115
115
115
117
122
127
132
136
139
144
148
152
154
156
158
159
159
159
159
159
160
162
160
159
158
157
156
156
155
152
148
146
144
139
136
134
129
126
125
125
125
123
123
123
123
124
125
125
125
125
125
125
125
126
128
132
134
135
136
136
136
136
136
137
138
138
139
140
143
145
146
146
147
151
154
152
148
146
146
144
140
137
134
129
126
123
119
116
113
109
106
105
105
105
107
111
114
116
119
123
125
125
125
125
125
125
123
118
115
114
111
107
104
101
96
94
93
91
88
87
88
91
93
94
95
98
103
106
109
113
116
117
119
121
123
124
125
125
126
129
134
138
144
148
154
156
156
157
159
162
160
158
157
156
156
156
156
156
156
156
156
156
156
156
157
158
159
159
158
157
156
156
155
152
148
146
146
146
146
146
146
147
149
153
158
164
169
175
180
185
189
194
196
197
198
197
194
190
187
184
179
176
173
169
167
166
163
158
154
150
144
138
132
125
116
108
102
127
123
118
115
112
108
107
109
113
117
122
126
132
137
142
146
149
153
156
160
164
168
171
173
174
173
170
168
164
159
154
146
138
132
125
119
116
115
115
115
115
115
116
118
123
128
132
135
139
143
146
148
150
152
154
154
154
155
156
157
157
157
156
156
156
156
156
154
150
147
146
144
139
136
135
133
129
128
128
128
128
128
127
126
125
125
125
125
125
125
125
125
125
126
127
129
132
133
133
133
133
133
133
134
135
136
137
139
143
145
146
147
149
151
149
147
146
145
142
138
135
132
127
124
121
117
115
113
108
105
105
105
105
108
113
115
117
121
124
125
125
125
125
125
125
123
118
115
115
112
108
105
103
98
95
94
93
92
92
92
93
94
95
98
102
105
108
112
115
118
121
123
124
125
125
126
127
129
133
136
139
144
148
154
156
156
156
157
158
157
156
156
156
156
156
156
156
156
156
156
156
156
156
155
154
154
154
154
154
154
153
152
149
147
146
146
146
146
146
146
148
152
156
160
167
173
178
184
188
192
196
198
198
198
197
194
190
186
181
178
175
171
168
167
165
160
157
155
151
145
138
133
126
118
112
106
134
129
123
118
115
112
110
112
114
116
119
124
129
135
139
142
145
149
152
155
159
163
166
168
169
169
168
166
163
158
154
146
139
133
127
122
117
115
115
115
115
115
115
116
118
123
127
129
133
137
140
142
144
146
148
148
150
152
153
154
154
154
155
156
156
156
155
152
148
146
146
144
139
136
136
135
134
133
133
133
133
133
132
129
128
127
126
125
125
125
125
125
125
125
125
126
127
128
128
128
128
128
128
129
132
134
135
137
140
144
146
146
147
147
147
146
145
143
139
136
133
129
125
122
118
116
114
111
107
105
105
105
106
109
113
116
119
123
125
125
125
125
125
125
125
123
118
115
115
112
108
105
104
101
96
94
94
94
94
94
94
95
98
102
105
108
112
115
118
122
124
126
127
128
128
129
132
134
135
137
140
144
149
154
156
156
157
158
159
158
157
156
156
156
156
156
156
156
155
154
154
154
153
152
150
149
148
148
149
149
149
148
147
146
146
146
146
146
146
147
150
154
158
163
169
175
179
185
189
193
197
198
198
197
195
191
188
184
179
176
173
169
166
165
162
158
156
154
149
144
138
134
127
121
115
107
141
135
128
122
117
115
114
114
115
115
118
123
127
132
135
137
140
143
146
149
153
156
160
163
165
166
167
165
160
157
153
147
140
134
128
123
119
116
115
115
115
115
115
115
116
118
122
124
128
132
134
136
138
140
142
144
144
146
148
148
149
150
152
153
154
153
152
149
147
146
146
144
140
137
136
136
136
136
136
136
136
136
135
134
133
131
127
125
125
125
124
123
123
123
123
123
123
123
123
123
123
123
123
125
127
129
133
135
138
142
145
146
146
146
146
145
143
139
136
133
129
126
123
119
116
115
113
109
106
105
105
105
107
111
114
117
121
124
125
125
125
125
125
125
125
122
118
115
114
111
107
105
105
103
98
95
94
94
94
94
95
98
102
105
108
112
115
118
122
125
127
129
132
133
134
134
135
137
138
140
143
146
150
154
156
157
160
163
164
163
160
157
156
156
156
156
156
155
153
150
149
149
148
148
146
144
144
144
145
146
146
146
146
146
146
146
146
146
146
147
151
155
158
163
168
173
178
184
188
191
195
197
197
195
191
189
186
181
177
174
170
167
164
160
158
157
155
152
148
144
138
134
128
123
115
108
146
140
133
125
119
116
115
115
115
115
117
121
125
127
129
133
136
138
140
144
147
150
154
158
160
163
164
162
158
156
154
148
142
136
129
125
121
117
115
115
115
115
115
115
115
116
117
119
122
125
127
129
132
134
136
138
139
140
143
144
144
146
148
148
149
149
148
147
146
146
146
145
143
139
137
136
136
136
136
136
136
136
136
136
135
133
128
125
124
123
121
119
118
117
117
116
115
116
117
117
117
118
119
121
123
125
128
132
135
138
142
144
145
145
144
142
139
136
133
129
125
123
121
117
115
114
111
107
105
105
105
106
109
113
116
119
123
125
125
125
125
125
125
125
124
121
117
115
113
109
106
105
105
104
102
98
95
94
94
95
98
102
104
107
111
115
118
122
125
129
132
135
137
138
138
138
139
140
142
144
146
149
153
155
157
160
164
166
167
166
163
158
156
156
156
156
155
153
149
147
146
146
144
144
142
140
139
140
142
144
144
145
146
146
146
146
146
146
146
147
149
153
156
160
166
171
176
181
186
189
191
194
194
191
188
186
183
178
174
170
167
164
160
157
156
155
153
149
147
144
138
133
128
123
115
108
151
144
135
127
122
117
115
114
114
114
116
118
122
124
126
129
132
134
136
139
143
146
149
153
156
158
159
158
157
156
154
148
144
138
132
127
123
119
116
115
115
115
114
113
113
113
114
116
117
119
122
124
126
128
129
132
134
136
138
138
140
142
144
145
146
146
146
146
146
146
146
146
145
143
139
137
136
136
136
136
136
136
136
136
135
132
127
124
122
119
116
114
113
113
111
109
108
109
111
113
113
113
114
116
119
121
124
127
129
133
137
140
142
142
140
138
136
133
128
125
122
119
117
115
114
112
108
106
105
105
105
107
111
114
117
121
124
125
126
126
126
125
125
125
123
119
116
114
111
107
105
105
105
105
104
102
98
97
97
98
102
104
106
109
114
118
123
126
129
133
137
140
142
144
144
144
144
144
146
148
150
153
155
157
160
164
166
167
167
167
165
160
157
156
156
155
153
149
147
146
145
143
140
139
138
137
136
137
138
139
140
143
145
146
146
146
146
146
146
146
147
149
153
158
163
168
173
178
183
186
188
190
190
188
185
181
178
175
170
167
164
160
157
155
154
152
149
147
145
142
137
132
126
121
115
108
153
146
136
128
123
117
114
112
110
112
114
116
118
121
123
125
127
129
133
136
139
143
146
150
154
156
156
156
156
156
154
148
144
138
134
129
125
121
117
115
115
114
112
109
108
109
111
113
113
115
117
119
122
123
124
127
129
132
133
134
136
138
140
142
144
145
146
146
146
146
146
146
146
145
143
139
137
136
136
136
136
136
136
136
134
129
125
122
118
115
112
109
107
106
105
103
103
103
104
105
106
107
109
112
114
116
119
122
125
129
133
136
138
138
136
134
132
128
124
121
118
116
114
113
111
108
106
105
105
105
105
108
113
115
118
123
125
125
127
129
127
125
125
124
121
117
115
112
108
106
105
105
105
105
105
104
103
102
102
103
104
106
108
113
118
122
126
131
135
139
142
145
147
148
148
148
148
149
150
153
154
156
157
160
164
166
167
167
167
167
166
163
158
156
155
153
149
147
145
144
142
139
137
135
134
134
134
135
136
136
137
139
143
145
146
146
146
146
146
146
146
147
149
154
159
164
169
174
178
181
184
185
185
184
180
177
174
170
167
164
160
156
154
152
150
148
147
145
143
139
135
129
124
119
113
108
151
144
135
127
121
116
112
108
107
108
112
114
116
117
119
122
125
126
129
133
136
140
144
148
152
155
156
156
156
156
154
148
144
140
136
132
127
123
118
115
115
113
109
106
105
106
107
108
109
111
113
115
117
118
119
122
125
127
128
129
132
134
136
138
140
144
146
146
146
146
146
146
146
146
145
143
139
137
136
136
136
136
136
135
132
127
123
119
115
112
108
104
101
98
97
97
97
97
97
97
98
101
104
106
109
112
114
118
122
125
128
132
133
133
132
129
127
123
119
117
115
113
111
109
107
106
105
105
105
105
106
109
113
116
119
123
125
126
129
131
128
125
125
123
119
116
113
109
106
105
105
105
105
105
105
105
105
105
105
106
107
109
113
118
122
125
129
135
139
143
146
149
152
154
154
154
154
154
155
157
159
159
160
164
166
167
167
167
167
167
166
163
158
155
153
149
147
145
143
140
138
136
134
132
129
128
129
133
135
136
136
137
139
143
145
145
144
144
144
144
144
144
145
149
154
159
164
169
173
175
177
179
179
178
176
173
170
166
163
159
156
153
150
148
147
145
144
142
139
136
132
127
123
117
113
108
146
140
132
124
118
113
108
106
105
106
108
112
114
115
116
119
123
125
126
129
134
138
142
146
150
154
156
156
156
156
154
149
145
142
138
133
128
123
119
116
115
113
108
105
105
105
105
105
106
107
109
112
114
115
116
118
121
123
125
126
127
129
133
136
138
142
145
146
146
146
146
146
146
146
146
145
142
138
136
136
136
136
135
133
129
125
121
116
112
108
103
98
96
93
92
92
92
92
92
92
93
96
98
101
104
106
109
113
118
121
124
126
128
128
126
124
122
118
115
113
111
109
107
106
105
105
105
105
105
105
107
111
114
117
121
124
125
127
132
132
128
125
125
123
118
115
111
107
105
105
105
105
105
105
105
105
105
106
107
109
111
113
116
121
125
129
133
139
143
146
149
153
156
158
159
159
159
159
160
163
164
164
165
166
167
167
167
167
167
166
164
159
156
153
149
146
144
142
139
136
134
132
129
127
126
125
126
129
133
135
136
136
137
139
142
142
140
139
139
139
139
139
140
144
149
153
158
163
167
169
171
174
175
173
171
168
164
160
158
155
152
149
147
145
144
142
140
138
136
133
129
125
121
117
113
108
141
134
127
119
113
108
106
105
105
105
106
108
112
114
115
118
123
125
125
128
133
137
140
144
148
152
155
156
156
156
153
149
146
143
138
134
128
125
121
117
115
113
109
106
105
105
105
105
105
105
106
108
112
114
115
116
117
119
123
125
125
126
129
134
137
140
144
146
146
146
146
146
146
146
146
146
143
138
136
136
136
135
133
129
125
122
118
113
108
102
97
93
91
88
87
86
86
86
87
87
88
91
94
96
98
102
105
108
113
116
119
122
123
123
122
119
116
114
112
109
107
106
105
105
105
105
105
105
105
106
109
113
115
118
123
125
126
129
134
133
128
125
125
122
117
113
109
106
105
105
105
105
105
106
107
108
108
109
111
113
114
116
119
123
127
132
137
142
146
149
153
156
159
163
164
164
164
164
165
166
167
167
167
167
167
167
167
167
166
164
160
156
153
149
146
143
140
137
135
132
129
127
126
125
125
125
125
126
129
134
136
136
136
137
138
138
137
136
136
136
135
135
136
139
143
146
150
155
160
163
166
168
169
167
165
163
160
156
153
150
148
146
144
142
140
138
137
135
133
129
126
123
119
116
113
108
133
127
121
114
108
105
103
102
102
103
104
106
109
113
115
118
123
125
125
128
133
136
139
144
147
149
153
155
156
155
152
148
145
142
138
133
128
125
122
118
115
114
111
107
105
105
105
105
105
105
105
106
109
113
115
115
115
117
122
124
125
125
128
133
136
139
144
146
146
146
146
146
146
146
146
145
142
138
136
136
135
133
129
125
122
118
113
108
102
97
92
88
86
84
82
82
82
82
84
84
85
87
91
94
95
98
103
106
108
112
115
117
117
117
116
114
112
109
107
106
105
105
105
105
105
105
105
105
105
107
111
114
116
119
123
125
127
132
135
133
128
125
124
121
117
113
108
105
105
105
105
106
107
109
111
112
113
113
114
115
116
118
122
125
128
133
138
144
148
152
155
157
161
165
167
167
167
167
167
167
167
167
167
167
167
167
167
166
163
159
156
153
149
145
142
138
135
132
129
127
126
125
125
125
125
125
125
125
128
133
136
136
136
136
136
136
136
136
135
134
132
131
132
135
137
140
144
149
154
157
160
163
163
160
159
158
156
153
149
146
144
142
140
138
136
134
133
132
129
126
124
121
117
115
112
108
124
119
114
108
104
101
98
97
97
99
103
105
108
113
116
119
123
125
126
129
134
136
139
144
146
147
149
152
153
152
149
146
143
139
136
132
127
125
123
118
115
115
113
109
106
105
105
105
105
105
105
106
109
113
115
115
115
117
120
124
125
125
128
133
136
139
144
146
146
146
146
146
146
146
146
144
140
137
136
135
133
129
125
122
118
113
108
103
97
92
87
84
82
80
77
76
76
78
82
84
84
85
88
92
94
96
101
104
106
108
112
114
114
113
112
109
107
106
105
105
105
105
105
105
105
105
105
105
105
108
113
115
117
121
124
125
128
133
135
133
128
125
123
119
116
113
108
105
105
105
106
108
111
113
114
115
115
115
115
115
117
121
124
125
128
134
138
144
148
152
155
157
159
163
166
167
167
167
167
167
167
167
167
167
167
166
165
163
159
155
152
147
143
139
136
133
129
127
124
123
123
123
123
123
124
125
125
125
128
133
136
136
136
136
136
136
136
136
134
130
127
127
127
129
133
136
139
144
149
153
155
157
158
157
156
154
152
149
146
143
140
138
136
134
132
129
128
127
125
123
121
118
116
114
111
107
115
112
107
102
98
96
95
94
95
97
103
106
109
113
117
121
124
126
129
133
135
136
139
144
146
146
147
148
148
148
146
143
139
137
134
129
126
125
122
118
115
115
114
112
108
106
105
105
105
106
107
109
112
114
115
116
117
119
122
124
125
125
128
133
136
139
144
146
146
146
146
146
146
146
146
144
139
136
136
134
129
126
123
119
114
109
104
98
93
88
84
81
77
75
74
73
74
76
82
84
84
84
87
92
94
96
100
104
105
106
108
111
111
109
107
106
105
105
105
105
105
105
105
105
105
105
105
105
106
109
113
116
119
123
125
125
128
133
135
132
127
125
123
118
115
113
109
106
105
106
108
112
114
115
115
115
116
117
118
118
119
123
125
125
128
133
138
142
146
149
153
155
157
159
163
165
166
167
167
167
167
166
165
164
164
163
160
157
154
149
145
140
136
133
129
126
123
121
119
118
118
118
118
119
122
124
125
126
129
134
136
136
136
136
136
136
136
136
133
128
126
125
125
126
129
133
136
140
145
148
150
153
154
154
152
150
148
146
143
139
136
134
132
129
127
125
123
123
121
119
117
116
115
113
109
106
105
103
99
96
93
92
92
93
94
97
103
107
111
115
119
123
126
129
133
135
136
137
140
144
146
146
146
146
146
145
143
139
137
135
132
127
125
124
121
117
115
115
115
114
112
109
108
108
108
109
111
113
114
116
117
119
121
123
124
125
125
125
128
133
136
139
144
146
146
146
146
146
146
146
146
143
139
136
135
132
127
125
121
116
112
106
101
96
91
86
82
77
74
73
73
73
74
77
82
84
84
85
88
92
94
96
101
104
105
105
106
107
107
106
105
105
105
105
105
105
105
105
105
105
105
105
105
106
108
112
114
117
121
124
125
125
127
131
132
129
126
125
122
118
115
114
111
107
106
108
112
114
115
116
117
118
119
121
122
123
123
124
125
125
127
132
136
139
142
145
149
152
154
155
158
160
163
164
164
164
164
163
160
159
158
156
154
152
147
142
137
132
128
125
122
118
116
115
114
115
115
115
115
116
119
123
125
127
132
135
136
136
137
138
138
137
136
136
134
129
126
125
125
125
126
129
134
138
142
145
147
148
149
149
148
147
146
144
140
137
134
130
127
125
123
121
119
118
117
116
115
114
113
111
107
105
95
94
92
91
88
87
88
91
94
97
103
108
113
118
122
125
129
133
135
136
137
139
143
145
146
146
146
146
145
143
139
137
135
133
129
126
125
123
119
116
115
115
115
115
114
113
113
113
113
113
114
115
116
118
121
123
124
125
125
125
125
126
129
134
137
140
144
146
146
146
146
146
146
146
145
142
138
136
134
129
126
123
119
114
109
104
98
93
88
85
82
76
73
73
73
74
77
81
83
84
85
87
91
93
95
98
103
105
105
105
105
105
105
105
105
105
105
105
105
105
105
105
105
105
105
105
106
108
112
114
115
118
122
125
125
125
126
127
127
126
125
124
121
117
115
115
113
110
109
112
114
115
116
118
121
123
123
124
125
125
125
125
125
125
126
129
132
135
137
140
143
146
148
150
152
154
156
156
156
156
156
156
154
154
152
148
146
144
138
134
128
124
119
116
114
112
109
108
109
111
113
114
115
115
118
123
125
128
133
136
136
137
139
142
142
140
138
137
135
133
129
127
126
125
126
129
134
137
140
144
146
146
146
146
146
146
145
142
138
135
132
127
125
122
119
117
115
113
113
113
112
111
109
107
106
105
87
86
85
84
84
84
85
88
92
97
103
109
115
121
125
129
133
135
137
138
140
143
145
146
146
146
146
146
144
140
137
136
134
129
126
125
125
123
118
115
115
115
115
115
115
115
115
115
115
115
115
116
118
122
124
125
125
125
125
125
126
129
133
135
138
142
145
146
146
146
146
146
146
146
144
140
137
136
133
128
125
123
118
113
108
103
97
92
87
84
82
77
74
73
74
77
81
83
84
85
87
91
93
95
98
102
104
105
105
105
105
105
105
105
105
105
105
105
105
105
105
105
105
105
105
106
108
112
114
115
115
118
123
125
125
125
125
125
125
125
125
123
119
116
115
115
114
113
113
114
115
115
117
121
124
125
125
125
125
125
125
125
125
125
125
126
127
129
132
134
135
138
142
144
145
146
146
146
146
146
146
146
146
146
144
140
137
134
128
123
118
115
112
107
105
105
103
103
105
107
109
112
114
115
118
123
125
128
133
136
137
139
143
145
145
144
142
139
137
136
134
132
129
128
129
133
135
136
139
144
146
146
146
146
146
146
144
140
137
134
129
125
122
118
115
113
111
109
108
108
108
107
106
105
105
105
81
80
78
78
80
82
84
87
92
97
105
112
118
124
128
133
136
138
140
142
144
145
146
146
146
146
146
145
142
138
136
135
132
127
125
125
125
123
118
115
115
115
115
115
115
115
115
115
115
116
117
119
122
124
125
125
125
126
127
128
129
133
135
136
139
143
146
146
146
146
146
146
146
145
142
138
136
136
133
128
125
123
118
113
108
103
98
93
88
85
83
81
77
76
77
81
83
85
86
88
91
93
94
96
101
104
105
105
105
105
105
105
105
105
105
105
105
105
105
105
105
105
105
106
107
109
112
114
115
115
115
118
123
125
125
125
125
125
125
124
123
121
117
115
115
114
114
114
115
115
115
115
118
122
125
125
125
125
125
124
123
123
123
123
123
123
123
123
125
126
126
129
134
136
136
136
137
138
139
138
137
136
136
136
135
132
127
123
118
113
108
105
103
99
97
97
97
98
102
104
106
109
113
115
118
123
126
129
134
136
138
142
145
146
146
146
145
143
140
139
138
136
134
134
134
135
136
137
140
144
146
146
146
146
146
146
144
139
135
132
127
123
119
115
112
109
107
106
105
105
105
105
105
105
105
105
74
73
72
73
75
78
82
87
93
98
106
114
121
127
132
136
139
142
144
145
146
146
146
146
146
146
146
144
140
137
136
134
129
126
125
125
125
123
119
116
115
115
115
115
115
115
115
115
116
118
121
123
124
125
126
127
128
129
132
133
134
135
136
136
139
144
146
146
146
146
146
146
145
143
139
137
136
136
133
128
125
123
119
114
109
105
101
96
91
87
85
84
82
82
82
84
86
88
90
92
93
95
96
99
103
105
105
105
105
105
105
105
105
105
105
105
105
105
105
105
105
106
107
109
111
113
114
115
115
115
115
118
122
125
125
124
123
123
122
121
119
117
115
114
113
112
110
112
114
115
115
115
118
122
125
125
125
124
123
121
119
118
118
117
117
117
117
116
116
117
119
122
125
126
126
126
129
132
133
132
129
126
126
126
125
123
118
113
108
103
99
95
94
92
92
92
93
94
98
102
105
108
113
116
119
123
127
132
135
137
140
144
146
146
146
146
146
146
144
144
143
140
139
138
138
139
139
140
143
145
146
146
146
146
146
145
142
138
134
129
126
123
118
113
109
106
105
105
105
105
105
105
105
105
105
106
64
65
67
70
73
76
82
87
94
102
108
116
123
129
135
139
143
145
146
146
146
146
146
146
146
146
146
144
140
137
136
134
129
126
125
125
125
124
122
119
118
118
118
118
117
116
115
116
118
122
124
125
125
125
127
131
133
134
135
136
136
136
136
136
139
144
146
146
146
146
145
144
142
139
137
136
136
136
133
128
125
124
121
116
112
108
104
98
94
91
88
87
86
86
87
88
90
92
93
94
95
98
101
103
104
105
105
105
105
105
105
105
105
105
105
105
105
105
105
105
106
108
111
113
114
115
115
115
115
115
115
117
121
122
122
121
119
118
117
117
115
113
113
111
109
107
107
108
112
114
115
115
117
121
122
123
122
121
119
117
116
115
114
113
113
113
111
109
109
111
113
115
115
116
116
118
122
125
125
125
122
118
116
115
115
113
108
103
97
94
91
88
85
84
85
86
88
91
94
98
103
107
113
117
121
124
128
133
136
138
142
145
146
147
148
149
149
149
148
148
147
145
144
144
144
144
144
144
145
146
146
146
146
146
146
144
140
137
133
128
125
123
117
113
108
105
105
105
105
105
105
105
105
105
105
107
57
60
63
67
71
76
82
88
95
104
112
118
126
133
138
143
145
146
146
146
146
146
146
146
146
146
146
145
143
139
137
135
133
129
126
125
125
125
124
123
123
123
123
122
121
119
118
119
122
124
125
125
125
126
129
134
136
136
136
136
136
136
136
136
139
144
146
146
146
145
143
140
138
137
136
136
136
136
134
129
126
125
123
119
115
111
106
102
98
94
92
92
92
92
92
92
93
94
95
96
98
102
104
105
105
105
105
105
105
105
105
105
105
105
105
105
105
105
105
105
107
111
114
115
115
115
115
115
115
115
115
116
117
118
117
117
115
113
113
113
111
109
108
107
106
105
105
106
108
111
113
114
116
117
118
118
118
117
116
115
114
113
111
109
108
107
105
103
103
104
105
105
106
107
109
112
114
115
116
115
114
112
108
106
105
103
97
93
88
85
84
81
78
76
78
81
84
88
93
97
103
107
113
117
122
125
128
133
136
139
143
146
147
149
152
154
154
154
154
154
152
150
148
148
147
146
146
146
146
146
146
146
146
146
146
144
139
136
133
128
125
123
117
113
108
105
105
105
105
105
105
105
105
105
106
109
52
56
61
66
71
76
84
91
98
106
115
122
129
136
142
145
146
146
146
146
146
146
146
146
146
146
146
146
145
143
140
138
136
133
129
127
126
125
125
125
125
125
125
125
124
123
123
123
124
125
125
125
125
127
132
135
136
136
136
136
136
136
136
136
139
144
146
145
144
142
139
137
136
136
136
136
136
136
135
132
127
125
124
122
118
114
109
105
102
98
96
95
94
94
94
95
96
97
98
101
103
104
105
105
105
105
105
105
105
105
105
105
105
105
105
105
105
105
105
106
109
113
115
115
115
115
115
115
115
115
115
115
115
115
114
113
111
109
108
107
107
105
103
103
102
103
104
105
106
107
109
112
114
115
115
115
115
115
114
113
111
109
107
105
103
101
98
97
96
96
96
97
98
101
103
105
106
107
108
107
106
104
102
98
95
93
88
84
81
77
76
74
72
73
74
77
82
87
92
97
103
107
113
117
123
125
128
133
136
139
144
147
149
153
155
157
158
159
159
159
157
155
154
152
150
148
147
146
146
146
146
146
146
146
146
144
139
136
133
128
125
123
118
113
109
106
105
105
105
105
105
105
105
106
108
112
48
54
61
66
72
77
85
94
102
108
116
125
132
138
143
146
146
146
146
146
146
146
146
146
147
148
148
148
147
146
144
142
139
136
134
132
129
126
125
125
125
125
125
125
125
125
125
125
125
125
125
125
126
129
134
136
136
136
136
136
136
136
136
136
139
144
145
143
140
138
137
136
136
135
134
134
135
136
136
134
129
126
125
124
121
116
112
108
105
103
101
98
97
97
97
98
101
102
103
104
105
105
105
105
105
105
105
105
105
105
105
105
105
105
105
105
105
105
105
107
111
114
115
115
115
115
115
115
115
115
115
114
113
113
111
109
107
105
103
103
102
101
98
97
97
98
101
102
103
104
106
108
111
112
113
113
113
112
111
109
107
105
103
101
98
96
94
92
91
89
91
92
93
96
97
97
99
101
102
101
99
97
96
92
88
86
82
78
75
72
70
67
68
71
73
76
82
86
92
97
103
107
113
117
123
125
128
133
137
140
144
148
152
155
157
160
163
164
164
164
163
160
158
156
154
152
149
147
146
146
146
146
146
146
146
144
139
136
134
129
126
123
119
115
112
109
108
107
106
105
106
107
108
109
112
115
46
54
61
67
74
81
88
97
105
112
119
127
135
140
144
146
147
148
149
149
149
149
149
149
150
152
153
152
150
149
148
146
143
140
138
136
133
129
127
126
125
125
125
125
125
125
125
125
125
125
125
125
127
132
135
136
136
136
136
136
136
136
136
137
140
143
143
139
137
136
136
135
134
132
129
129
132
134
135
135
132
127
125
125
123
119
115
112
108
106
104
103
102
102
102
103
104
105
105
105
105
105
104
104
104
105
105
105
105
105
105
105
105
105
105
105
105
105
106
109
113
115
115
115
115
115
115
115
115
114
113
111
109
108
107
105
103
101
98
97
97
96
95
94
94
95
96
97
98
101
103
105
107
108
108
108
108
108
107
106
104
102
98
96
95
93
91
88
86
85
86
87
88
91
92
94
95
96
97
96
95
94
91
87
84
81
77
74
72
68
65
64
66
71
73
76
82
87
92
97
103
108
113
118
123
126
129
134
138
142
145
148
153
156
158
163
166
167
167
167
166
165
163
159
157
155
152
148
146
146
146
146
146
146
146
143
139
136
135
132
127
124
122
118
115
113
113
112
109
108
109
112
113
113
115
118
48
54
63
71
78
86
93
101
108
115
124
132
137
142
145
147
149
152
153
154
154
154
154
154
154
155
156
155
154
154
153
150
148
146
143
140
137
135
132
129
126
125
125
125
125
125
125
125
125
125
125
125
128
133
136
136
136
136
136
136
136
137
138
140
143
143
140
137
136
136
135
133
129
127
126
126
127
129
133
135
133
128
125
125
124
121
117
114
111
107
105
105
105
105
105
105
105
105
105
104
103
102
101
100
101
102
103
104
105
105
105
105
105
105
105
105
105
106
108
112
114
115
115
115
115
114
113
113
112
111
109
107
106
105
103
101
98
96
95
94
92
92
92
92
92
93
94
94
95
96
98
101
103
104
105
105
105
105
104
103
101
98
95
94
93
91
87
85
84
84
84
84
85
86
88
91
93
94
94
94
93
91
87
85
82
77
74
73
71
66
64
64
67
71
74
78
83
88
93
98
104
109
114
119
123
127
132
135
138
143
146
149
154
157
160
165
167
167
168
168
168
167
166
163
158
156
153
149
146
146
146
146
146
146
145
142
138
136
136
133
128
125
124
122
119
118
117
117
116
115
116
117
117
118
119
122
52
58
67
76
84
91
98
106
113
119
126
134
140
144
146
148
152
155
156
156
156
156
156
156
156
157
158
159
159
159
158
156
154
152
149
145
142
139
136
133
129
126
125
125
125
125
125
125
125
125
125
126
129
134
136
136
136
137
138
139
139
140
142
144
145
144
139
136
136
136
134
129
126
125
125
125
125
126
129
132
131
127
125
125
125
122
117
115
112
108
105
105
105
105
105
105
105
104
103
101
98
97
96
96
96
97
98
102
104
105
105
105
105
105
105
106
107
109
112
114
115
115
115
115
114
112
109
108
108
107
106
105
105
103
99
96
95
94
92
90
88
87
87
87
88
90
92
92
93
94
95
96
98
101
102
102
102
102
101
98
96
95
94
94
93
89
86
84
84
84
84
84
84
84
85
88
92
94
94
93
91
87
85
84
82
76
73
73
71
68
66
67
70
73
77
82
87
92
97
102
108
112
116
121
125
128
133
136
139
144
146
149
154
158
163
166
167
168
170
172
170
168
167
164
159
156
154
149
146
146
146
146
146
146
144
140
137
136
136
134
130
127
126
125
123
123
123
123
123
123
123
123
123
123
124
127
58
65
75
84
91
98
105
112
118
123
129
136
142
145
146
149
153
156
156
156
156
156
156
157
158
160
163
164
165
165
164
163
159
156
153
149
146
143
139
136
133
129
126
125
125
125
125
125
125
125
125
127
132
135
136
136
137
139
142
143
144
144
145
146
146
144
139
136
136
136
133
128
125
125
125
125
125
125
126
127
127
126
125
125
124
121
117
115
112
108
105
105
105
105
104
103
102
101
98
96
95
94
94
94
94
94
95
98
102
104
105
105
105
105
106
108
111
113
114
115
115
115
115
115
113
109
106
105
105
105
105
105
104
101
96
94
94
92
89
86
85
84
84
84
85
86
87
88
91
93
94
94
95
96
97
97
97
97
96
95
94
94
94
94
93
91
87
85
84
84
84
84
84
84
85
88
92
94
94
92
88
85
84
84
82
77
74
73
73
72
71
72
73
77
82
87
92
97
102
106
111
115
119
123
125
128
133
136
139
144
146
149
154
159
164
167
167
169
173
175
173
169
167
164
159
156
153
149
146
146
146
146
146
145
142
138
136
136
136
135
134
132
129
128
128
128
128
128
128
128
128
128
128
128
129
132
67
75
85
93
99
105
112
118
123
128
134
139
144
146
146
149
154
156
156
156
156
156
156
158
162
165
166
167
169
169
169
167
164
160
158
154
149
146
143
139
136
133
129
126
125
125
125
125
125
125
125
128
133
136
136
137
139
143
145
146
146
146
146
146
146
144
139
136
136
136
133
128
125
125
125
125
125
125
125
125
125
125
125
125
123
119
116
114
111
107
105
104
103
102
101
98
97
96
95
94
94
94
94
94
94
94
94
95
98
103
105
105
105
105
107
111
114
115
115
115
115
115
115
115
113
108
105
105
105
105
105
105
103
98
95
94
94
92
88
85
84
84
84
84
84
84
84
85
87
91
93
94
94
94
94
94
94
94
94
94
94
94
94
94
94
93
91
88
87
86
85
85
86
87
88
91
93
94
94
92
87
84
84
84
83
81
77
76
76
76
76
76
78
82
87
92
97
102
105
109
114
118
122
124
126
129
134
136
139
143
146
149
154
158
163
166
167
169
173
174
173
169
167
164
159
155
152
148
146
146
146
145
144
142
139
137
136
136
136
136
136
135
134
134
134
135
136
136
136
136
135
134
134
134
134
136
77
85
95
103
108
114
119
124
129
134
138
143
145
146
146
149
154
156
156
156
156
156
157
160
165
167
168
170
173
174
173
171
168
165
163
159
154
149
146
142
138
135
133
129
126
125
125
125
125
125
125
128
133
136
136
138
142
145
146
146
146
146
146
146
146
144
139
136
136
136
134
129
126
125
125
125
125
125
125
125
125
125
125
124
121
117
114
112
108
106
104
102
98
97
96
95
94
94
94
93
92
92
92
92
92
93
94
94
96
101
104
105
105
106
109
113
115
115
115
115
115
115
115
115
113
108
105
105
105
105
105
105
103
98
95
94
94
93
91
88
86
85
84
84
84
84
84
84
86
89
93
94
94
94
94
94
94
95
96
97
97
97
96
95
94
94
94
92
92
90
88
88
90
92
92
93
94
94
94
92
88
85
84
84
84
83
82
82
82
82
82
82
84
87
92
97
102
105
108
113
118
122
124
125
127
132
135
136
138
142
145
148
152
156
160
165
167
168
169
169
169
168
166
163
158
154
150
147
146
145
144
142
140
138
137
136
136
136
136
136
136
136
137
138
140
142
143
144
144
143
142
140
139
138
139
140
87
95
105
113
118
123
127
132
136
139
143
145
146
146
146
149
154
156
156
156
156
157
160
164
166
168
170
174
176
177
176
175
173
169
166
163
157
153
148
144
140
137
135
132
127
125
125
125
125
125
125
128
133
136
136
139
144
146
146
146
146
146
146
146
146
144
140
137
136
136
135
133
129
127
126
125
125
125
125
125
125
125
124
122
118
115
112
108
106
104
102
98
95
94
94
94
94
93
92
90
88
87
87
87
88
90
92
93
95
98
102
104
105
106
110
114
115
115
115
115
115
115
115
115
113
109
106
105
105
105
105
105
104
102
98
95
94
94
94
92
91
88
87
87
87
87
87
87
88
91
93
94
94
94
95
96
97
98
101
102
102
102
101
98
97
97
96
95
94
94
92
92
94
94
94
94
94
94
94
93
91
88
87
87
87
87
86
86
86
86
87
88
91
93
97
102
105
108
113
118
122
124
125
126
129
134
136
136
137
140
144
147
150
154
158
162
165
166
167
167
167
166
163
159
156
152
148
145
144
142
140
138
137
136
136
135
135
135
136
136
136
137
139
142
145
147
148
148
148
148
148
146
144
144
144
144
98
106
115
122
127
132
136
139
142
144
146
146
146
147
148
150
154
156
156
156
156
158
163
166
168
170
174
176
177
177
177
177
175
171
168
164
159
154
150
146
142
138
136
133
128
125
125
125
125
125
125
128
133
136
137
140
144
146
146
146
146
146
146
146
146
145
142
138
136
136
136
135
134
132
129
128
127
126
125
125
125
124
122
118
115
112
108
106
104
102
98
95
94
94
93
92
92
90
88
86
85
84
84
84
85
86
88
91
93
95
98
102
104
106
109
113
115
115
115
115
115
115
115
115
114
112
108
106
105
105
105
105
105
104
102
98
97
97
97
96
94
93
92
92
92
92
92
92
92
94
94
95
96
97
98
101
103
103
104
105
105
105
104
103
103
102
101
98
97
97
97
97
97
97
96
95
94
94
94
94
93
92
92
92
92
92
92
92
92
92
93
94
96
98
102
105
108
112
116
121
124
125
126
129
133
135
136
136
136
138
142
145
148
152
156
158
160
163
164
164
164
163
159
155
152
149
145
142
140
138
137
135
134
133
133
132
131
132
134
135
136
138
142
146
149
152
154
154
154
154
154
152
150
148
148
149
108
115
124
129
135
139
142
145
147
148
149
149
149
150
152
154
155
156
156
156
157
160
165
167
169
173
176
177
177
177
177
177
176
173
169
165
160
156
152
148
144
139
136
134
129
126
125
125
125
125
125
128
133
136
138
142
145
146
146
146
146
146
146
146
146
146
144
139
136
136
136
136
136
135
134
133
131
127
125
125
125
123
119
116
113
109
106
104
102
98
95
94
93
92
90
88
87
86
85
84
84
84
84
84
84
84
85
87
91
93
95
98
103
105
108
113
115
115
115
115
115
115
115
115
115
114
112
109
107
106
105
105
105
105
104
103
103
103
103
101
99
97
97
97
97
96
95
95
96
97
97
99
101
103
104
106
107
107
108
108
108
108
108
107
107
106
104
103
102
102
102
102
102
102
101
98
96
95
94
94
94
94
94
94
94
94
95
96
97
97
98
101
102
104
106
109
112
115
119
123
125
125
127
132
135
136
136
136
136
137
139
143
146
149
152
154
155
157
159
159
158
156
153
150
147
144
140
138
136
134
133
132
129
128
128
127
127
127
130
134
136
139
144
148
152
156
158
159
159
159
158
156
154
154
154
154
116
123
131
137
142
146
148
150
152
153
154
154
154
154
155
156
156
156
156
156
158
163
166
168
171
175
177
177
177
177
177
177
177
174
169
166
163
158
154
148
144
139
136
135
132
127
125
125
125
125
125
128
133
136
139
143
146
146
146
146
146
146
146
146
146
146
144
140
137
136
136
136
136
136
136
136
133
128
125
125
124
121
117
114
111
107
104
102
98
95
94
94
92
88
86
85
84
84
84
84
84
84
84
84
84
84
84
85
87
91
94
96
101
104
108
113
115
115
116
117
117
116
115
115
115
115
114
113
111
109
108
108
108
108
108
107
107
107
107
107
106
105
103
103
103
101
99
99
101
103
103
105
107
108
109
112
113
113
113
113
113
113
113
112
111
109
108
107
106
105
105
105
105
105
104
103
101
98
96
95
94
94
94
94
95
96
98
101
102
102
103
104
106
108
111
113
114
117
121
124
125
125
128
133
135
136
136
136
136
136
137
139
142
145
147
148
150
152
154
154
152
150
147
145
142
139
135
134
132
129
128
127
126
125
125
125
125
125
127
132
135
139
144
148
154
158
162
164
164
164
163
160
158
157
156
156
120
128
136
143
148
152
153
154
155
156
156
156
156
156
156
156
156
156
156
157
160
165
167
169
173
176
177
177
177
177
177
177
177
175
170
167
164
159
154
148
144
139
136
136
133
128
125
125
125
125
125
128
133
136
139
144
146
146
146
146
146
146
146
146
146
146
145
143
139
137
136
136
136
136
136
136
133
128
125
124
122
118
116
113
109
106
103
98
95
94
94
93
90
86
84
84
84
84
84
84
84
84
84
84
84
84
84
84
85
88
92
95
98
103
107
113
115
115
117
121
121
118
116
115
115
115
115
115
114
113
113
113
113
113
113
113
113
113
113
113
113
111
109
108
107
107
106
106
107
108
109
112
113
115
116
117
118
118
118
117
117
117
116
115
114
113
113
111
109
108
108
108
108
107
106
105
104
103
101
98
95
94
95
96
98
101
103
104
105
105
106
107
109
112
114
115
115
118
122
125
125
125
127
131
133
133
133
133
133
134
135
136
138
140
142
144
144
146
146
146
145
144
142
139
136
133
129
128
127
126
125
123
123
123
123
123
123
124
126
129
134
138
144
148
154
159
164
167
167
167
166
165
163
160
159
159
125
132
139
146
152
155
156
156
156
156
156
156
156
156
156
156
156
157
158
160
164
166
168
171
175
177
177
178
179
179
178
177
177
175
170
167
164
159
154
148
144
139
136
136
133
128
125
125
125
125
126
129
134
136
139
144
146
146
146
146
146
146
146
146
146
146
146
145
143
139
137
136
136
136
136
136
133
128
125
123
119
116
114
111
107
105
102
97
94
94
94
92
88
85
84
84
84
84
84
84
84
84
84
84
84
84
84
84
84
86
90
94
97
103
107
113
115
115
118
122
124
121
117
115
115
115
115
115
115
115
115
115
115
116
117
117
117
117
117
118
118
117
116
115
113
113
113
113
113
114
115
117
119
122
123
125
125
125
125
124
123
121
119
117
116
115
115
114
113
113
113
113
112
111
108
106
105
105
104
102
98
97
98
101
103
104
105
105
106
107
109
111
113
114
115
115
115
118
122
125
125
125
126
127
128
128
128
128
128
129
132
133
134
134
136
138
138
139
139
138
137
136
135
133
129
127
125
123
123
123
121
119
118
118
118
118
119
122
125
128
134
138
144
148
154
160
165
167
167
167
167
167
166
165
164
164
125
133
140
147
152
155
156
156
156
156
156
156
156
156
156
157
158
160
163
165
166
168
170
174
176
177
178
181
184
184
181
178
177
175
170
167
164
159
154
148
144
139
136
136
133
128
125
125
125
125
127
132
135
137
140
144
146
147
148
148
148
147
146
146
146
146
146
146
145
143
139
137
136
136
136
136
133
128
125
123
118
115
113
109
106
104
101
96
94
94
94
92
87
84
84
84
84
84
84
84
84
84
84
84
84
84
84
84
84
85
88
92
97
103
107
113
115
115
118
123
124
121
117
115
115
115
115
115
115
115
115
115
116
118
121
123
123
123
124
125
125
123
123
121
119
118
118
118
118
119
122
125
126
127
129
132
133
133
132
129
127
125
123
121
117
115
115
115
115
115
115
115
115
114
112
108
106
105
105
104
103
102
103
104
105
105
105
106
108
111
113
114
115
115
115
115
115
117
121
124
125
125
125
125
125
125
125
125
125
126
127
128
128
128
129
132
133
134
133
132
129
128
128
127
124
123
121
119
118
118
117
116
115
115
115
115
116
119
123
127
132
138
144
149
155
161
166
167
167
167
167
167
167
167
167
167
120
128
137
145
149
153
155
156
156
156
156
156
156
157
158
160
163
165
166
167
167
169
173
176
177
178
181
185
187
187
184
179
177
175
170
166
163
158
154
148
144
139
136
136
133
128
125
125
125
126
129
134
136
138
142
145
147
149
152
153
152
150
148
147
146
146
146
146
146
145
143
139
137
136
136
136
133
128
125
123
118
115
113
108
105
103
98
95
94
94
94
92
87
84
84
84
84
84
84
84
84
84
84
84
84
84
84
84
84
85
88
92
97
103
107
113
115
115
118
122
123
119
116
115
115
114
113
113
113
114
115
115
117
121
124
126
127
128
129
132
132
129
128
127
126
126
126
126
126
126
129
132
134
135
137
138
138
138
136
134
131
127
125
122
118
115
115
115
115
115
115
115
115
115
114
112
108
106
105
105
105
105
105
105
105
105
105
107
111
114
115
115
115
115
115
115
115
116
118
122
124
125
125
125
125
125
125
125
125
125
125
125
125
125
126
127
128
128
128
126
124
123
123
122
119
118
117
116
115
115
115
115
115
115
115
115
115
117
121
125
129
137
144
148
154
160
165
167
167
167
167
167
167
167
167
167
116
123
133
141
146
149
153
155
156
156
156
156
157
159
163
165
166
167
167
167
168
171
175
177
178
181
185
187
188
188
186
181
178
175
171
166
162
157
154
148
144
139
136
136
133
128
125
125
126
129
133
135
137
140
144
147
149
153
155
156
155
154
152
149
147
146
146
146
146
146
145
143
139
137
136
136
133
128
125
123
118
115
113
108
105
102
97
94
94
94
94
92
87
84
84
84
84
84
84
84
84
84
84
84
84
84
84
84
84
86
90
94
97
103
107
113
115
115
117
122
121
117
115
115
114
112
109
108
109
112
114
115
118
123
126
129
132
134
135
137
138
137
135
134
133
133
133
133
133
134
136
138
140
142
143
144
143
142
139
136
133
128
125
123
118
115
115
115
115
115
115
115
115
115
115
114
112
108
106
105
105
105
105
105
105
105
105
107
111
112
113
113
113
113
113
113
114
115
116
118
121
123
124
125
125
125
125
125
125
125
125
125
125
124
123
123
123
123
123
122
119
118
118
117
116
115
115
115
115
115
115
115
115
115
115
115
115
116
119
124
128
136
144
148
154
159
164
167
167
167
167
167
167
167
167
167
108
116
126
135
142
145
149
152
154
155
156
156
158
161
165
167
167
167
167
168
170
174
176
177
179
184
187
188
188
188
187
185
181
177
173
168
163
158
154
148
144
139
136
136
133
128
126
126
129
133
135
137
139
143
146
149
153
155
156
156
156
156
155
153
149
147
146
146
146
146
146
145
142
138
136
136
133
128
125
123
118
115
113
108
105
102
97
94
94
94
93
90
86
84
84
84
84
84
84
84
84
84
84
84
84
84
84
85
86
88
92
95
98
103
108
113
115
115
117
119
118
116
115
114
112
108
106
105
106
109
113
115
118
123
127
132
136
138
140
142
144
144
142
140
138
138
138
138
138
140
142
144
144
145
146
146
146
145
142
138
134
128
125
122
118
115
115
115
115
115
115
115
115
115
115
115
114
112
108
106
105
105
105
105
105
105
105
106
107
108
108
108
108
108
108
109
112
114
115
116
117
119
122
124
125
125
125
125
125
125
125
124
123
121
119
118
118
118
118
117
116
115
115
114
113
113
113
113
113
113
113
113
114
115
115
115
115
116
119
124
128
136
144
148
154
159
164
167
167
167
167
167
167
167
167
167
98
106
117
126
134
139
144
147
150
153
155
156
157
159
164
166
167
167
167
169
173
176
177
178
181
186
188
188
188
188
188
187
184
179
175
169
164
159
154
148
144
139
136
136
134
130
128
129
133
135
136
138
142
146
149
153
155
157
158
158
157
156
156
155
152
148
146
146
146
146
146
146
143
139
136
136
133
128
125
123
118
115
113
108
105
102
97
94
94
93
91
87
85
84
84
84
84
84
84
84
84
84
84
85
86
87
87
88
90
92
94
98
102
105
109
113
115
115
116
116
116
115
114
112
108
106
105
105
105
107
111
114
118
123
128
134
138
142
144
146
148
148
147
145
144
144
144
144
144
144
146
147
148
148
149
148
147
146
143
138
134
128
124
121
117
115
114
114
114
115
115
115
115
115
115
115
115
114
112
108
106
105
105
105
105
105
105
105
105
105
105
105
105
105
105
106
108
112
114
115
115
116
118
122
124
125
125
125
125
125
125
123
120
117
116
115
115
115
115
115
115
115
114
112
109
108
108
108
108
108
108
109
111
113
114
115
115
117
121
125
129
137
144
148
154
159
164
167
167
167
167
167
167
167
167
167
88
98
110
118
126
133
138
142
145
149
152
154
155
157
160
165
167
167
167
169
174
177
177
179
184
187
188
189
190
190
190
189
186
181
176
171
165
159
154
148
144
139
136
136
135
134
133
134
135
136
137
140
144
148
152
156
158
160
163
163
160
158
157
156
154
150
147
146
146
146
146
146
143
139
136
136
133
128
125
123
118
115
113
108
105
102
97
94
93
91
87
85
84
84
84
84
84
84
84
84
84
84
85
87
90
92
92
92
93
95
98
102
105
108
112
114
116
117
117
116
115
114
112
108
105
103
102
102
103
105
109
113
118
124
129
135
140
144
147
149
152
153
152
150
148
148
148
148
148
148
149
150
152
153
153
152
148
146
143
138
133
128
123
119
115
113
112
110
112
114
115
115
115
115
115
115
115
115
114
111
107
105
105
105
105
105
105
105
105
105
105
105
105
105
105
105
106
109
113
115
115
115
116
119
123
125
125
125
125
125
125
123
119
116
115
115
115
115
115
115
115
115
113
109
106
105
105
105
105
105
105
106
107
109
113
115
115
118
123
127
132
138
144
148
154
159
164
167
167
167
167
167
167
167
167
167
79
92
104
112
119
126
132
136
139
144
147
150
153
155
158
163
166
167
167
169
173
176
177
180
185
188
189
191
194
195
194
191
188
184
179
173
166
159
154
148
144
139
136
136
136
136
136
136
136
136
138
142
146
150
154
158
162
165
166
166
165
162
158
156
155
152
148
146
146
146
146
145
142
138
136
136
134
129
126
123
118
115
113
108
105
102
97
94
92
88
85
84
83
82
81
81
81
82
83
84
84
84
86
90
93
94
94
94
95
98
102
105
108
112
114
116
118
121
121
117
115
113
109
105
102
98
97
97
99
103
108
113
118
125
132
137
142
146
149
153
155
156
155
154
154
154
154
154
154
154
154
154
155
156
155
152
148
145
142
137
132
126
121
116
112
109
107
107
109
113
115
115
115
116
117
117
116
115
115
113
109
106
105
105
105
105
105
105
105
105
105
105
105
105
105
105
106
109
113
115
115
115
116
119
123
125
125
125
125
125
125
124
122
119
117
116
115
115
115
115
115
115
113
109
106
105
105
105
105
105
105
105
105
108
113
115
115
118
123
128
134
138
144
148
154
159
164
167
167
167
166
165
164
164
164
165
71
83
95
105
112
118
124
129
134
139
143
146
149
153
156
159
163
165
166
168
170
174
176
179
184
187
190
194
197
198
197
195
191
187
181
175
168
160
155
149
144
139
136
136
136
136
136
136
136
137
140
144
148
152
156
160
165
167
167
167
167
165
160
157
156
153
149
146
146
146
146
144
140
137
136
136
135
132
127
123
119
116
113
108
105
102
97
94
92
87
84
83
81
77
76
76
76
77
81
83
84
84
87
92
94
94
95
96
98
102
105
108
112
114
116
118
122
124
122
118
115
113
108
103
98
95
94
94
96
101
107
113
118
125
133
138
144
148
152
155
156
156
156
156
156
156
156
156
156
156
156
156
156
155
153
149
147
144
140
135
129
123
118
113
108
106
105
105
108
113
115
115
116
118
121
121
118
116
115
114
111
107
105
105
105
105
105
105
105
105
105
105
105
105
106
107
109
112
114
115
115
116
118
122
124
125
125
125
125
125
125
125
124
123
121
119
117
116
115
115
115
115
114
112
108
106
105
105
105
105
105
105
105
108
113
115
116
119
124
129
134
139
144
148
154
158
163
166
166
165
163
160
159
159
159
160
65
75
87
97
106
113
118
124
129
135
139
143
146
150
154
157
158
160
164
166
168
170
174
177
181
186
190
195
198
198
198
197
194
189
184
177
170
164
156
150
145
140
137
136
136
136
136
136
136
138
142
145
148
154
158
163
166
167
167
167
167
166
163
158
156
153
149
146
146
146
145
142
138
136
136
136
136
133
128
125
121
117
113
109
106
102
97
94
92
87
83
81
77
74
73
73
73
74
77
81
83
84
87
92
94
95
98
101
103
105
108
112
115
117
119
122
124
125
123
119
116
113
107
103
97
94
94
94
95
99
105
111
117
125
133
138
144
150
154
156
157
158
159
158
157
156
156
156
156
156
156
156
155
153
149
147
145
142
137
132
125
119
114
109
106
105
105
105
108
113
115
116
118
122
124
124
122
118
116
115
113
109
106
105
105
105
105
105
105
105
106
107
108
108
109
112
113
115
116
117
118
119
122
124
125
125
125
125
125
125
125
125
125
125
124
123
121
119
118
117
116
115
115
114
112
109
107
106
105
105
105
105
106
109
113
115
117
122
126
132
136
140
144
148
154
157
160
163
163
160
158
157
156
156
156
157
57
68
81
92
101
108
115
121
127
132
136
140
144
148
152
155
156
157
160
164
166
168
171
175
179
184
189
194
197
198
198
198
195
190
185
179
173
166
158
153
147
143
138
136
136
136
136
136
136
139
143
146
149
154
159
164
167
167
167
167
167
167
164
159
155
152
148
146
146
145
143
139
137
136
136
136
136
133
128
125
123
119
115
111
107
103
98
95
92
86
82
77
74
73
73
73
73
73
74
77
82
84
87
92
95
98
102
104
106
108
112
115
118
121
123
125
125
125
124
121
117
113
107
103
97
94
94
94
94
97
103
109
116
125
133
139
146
152
155
157
160
163
164
162
158
156
156
156
156
156
156
155
153
149
147
145
143
138
133
128
122
116
112
107
105
105
105
105
108
113
115
117
121
124
125
125
124
121
117
115
114
111
107
105
105
105
105
106
107
108
109
111
113
113
114
116
117
118
119
122
123
123
125
125
125
125
125
125
125
125
125
125
125
125
125
125
124
123
123
121
119
117
116
115
114
113
111
109
107
106
105
106
108
112
114
116
119
123
128
133
138
142
145
149
154
156
157
158
158
157
156
154
154
154
154
154
50
62
76
87
97
105
112
118
124
129
134
138
144
147
149
153
155
156
157
160
164
166
169
173
177
181
187
192
196
198
198
198
196
191
186
180
174
167
159
154
148
144
139
136
136
136
136
136
136
139
143
146
149
154
159
164
167
167
167
167
167
166
163
158
154
150
147
146
145
143
139
137
136
136
136
136
136
134
129
126
124
121
117
113
109
105
101
96
92
87
82
76
73
73
73
73
73
73
73
76
82
85
88
92
96
101
105
107
109
113
116
119
122
125
127
128
128
127
126
123
119
113
108
103
97
94
94
94
94
97
103
109
116
125
134
140
147
153
156
158
163
166
167
165
160
157
156
156
156
156
155
153
149
147
145
143
138
133
128
123
118
113
108
105
103
103
104
105
108
113
115
118
122
125
125
125
125
123
119
116
115
113
109
106
105
106
107
109
111
113
113
115
117
118
119
122
123
124
125
127
128
128
128
128
128
128
128
128
128
127
126
125
125
125
125
125
125
125
125
124
123
121
119
118
117
116
114
113
111
109
108
109
112
114
115
117
121
125
129
134
138
144
146
149
153
156
156
156
156
155
153
150
149
148
148
149
46
58
72
84
95
103
109
116
123
128
134
138
142
145
147
149
153
155
156
157
160
164
167
170
174
179
184
189
194
197
198
198
197
193
187
180
175
167
159
154
148
144
139
136
136
136
136
136
136
138
142
145
149
154
159
164
167
167
167
167
167
165
160
156
152
148
146
145
143
139
137
136
136
136
136
136
136
135
132
127
125
123
119
115
112
108
104
98
93
88
83
77
74
73
73
73
73
73
73
76
82
86
91
94
98
104
108
111
114
118
121
124
127
129
132
133
133
132
129
125
121
115
109
103
97
94
94
94
95
99
105
112
117
126
135
142
148
154
156
159
164
167
167
166
162
158
156
156
156
155
153
149
147
145
143
138
133
128
123
118
113
108
105
102
99
99
103
105
108
113
115
118
123
125
125
125
125
124
121
117
115
114
112
109
108
109
111
113
114
116
117
119
122
123
125
127
128
129
132
133
134
134
134
133
133
133
133
133
133
132
129
127
126
125
125
125
125
125
125
125
125
125
123
123
121
119
117
116
115
113
113
113
114
115
116
119
123
127
132
136
140
144
146
148
152
155
155
154
154
152
149
147
146
144
144
144
44
56
71
83
94
101
107
115
123
128
133
137
141
145
146
147
150
154
156
156
157
160
164
167
170
175
180
185
190
195
197
197
195
191
186
180
174
167
159
154
148
144
139
136
136
136
136
136
136
137
140
144
148
154
158
163
166
167
167
167
166
163
158
154
150
147
145
143
139
137
136
136
136
136
136
136
136
136
134
129
126
124
122
118
115
111
106
101
96
91
85
80
75
73
73
73
73
73
74
77
82
87
92
97
102
106
111
115
118
122
125
128
132
135
137
138
138
136
133
129
124
118
112
105
99
95
94
94
96
101
107
113
119
126
136
143
148
154
156
159
164
167
167
165
160
157
156
156
155
153
149
147
145
143
138
133
128
123
118
113
108
105
102
98
95
97
101
104
108
113
115
118
123
125
125
125
125
125
122
118
115
115
114
113
113
113
114
116
117
119
122
125
127
129
133
135
136
137
138
139
138
138
138
137
136
136
136
136
136
135
134
132
129
126
126
127
128
128
128
128
128
128
128
127
125
123
122
119
118
117
116
115
116
117
119
122
125
129
134
138
142
145
146
147
149
152
152
150
149
148
146
144
142
140
139
139
41
53
67
81
92
98
106
115
123
128
134
138
143
145
147
148
151
154
156
156
156
157
160
164
167
171
176
181
187
191
194
194
191
189
185
179
173
166
159
154
148
144
139
136
136
135
135
135
136
136
139
144
148
152
156
159
164
166
167
166
164
159
156
152
148
145
143
139
137
136
136
136
136
136
136
136
136
136
135
133
129
126
124
122
118
114
109
104
98
93
88
83
77
74
73
73
73
74
77
81
84
88
95
101
105
109
114
118
122
125
129
133
136
139
142
143
142
140
137
133
128
122
115
108
103
99
97
97
99
104
109
115
122
129
137
144
148
154
157
160
165
167
167
164
159
156
156
155
153
149
147
145
143
139
134
129
124
119
114
109
105
102
98
95
94
95
98
103
107
113
115
118
123
125
125
125
125
125
123
118
115
115
115
115
115
116
117
119
122
125
129
133
135
137
139
143
145
146
146
146
144
144
142
140
138
137
136
136
136
136
136
135
133
129
129
132
133
133
133
133
134
134
133
132
129
128
126
124
123
122
119
118
119
121
123
125
129
133
136
139
144
146
146
146
147
148
148
147
146
145
143
140
138
137
136
136
39
52
65
78
90
97
105
115
123
128
134
140
144
147
149
152
154
155
156
156
156
156
157
160
164
168
173
178
183
187
189
190
188
187
184
177
171
165
159
154
148
143
138
136
135
133
131
132
134
135
138
142
146
149
153
156
159
163
164
163
159
156
153
149
145
142
139
137
135
134
133
133
133
133
134
135
136
136
136
135
133
129
126
124
122
118
113
108
103
97
92
87
82
78
76
76
76
77
81
84
87
92
98
104
108
113
118
122
125
129
133
137
140
143
145
146
145
144
142
138
133
125
118
113
108
104
103
103
103
107
112
118
125
132
138
144
150
154
158
163
166
167
167
164
159
156
156
154
150
147
145
143
139
135
129
125
121
116
112
106
102
98
95
94
94
94
97
103
107
113
115
118
123
125
125
125
125
125
123
119
116
115
115
116
117
119
122
124
128
133
136
139
143
145
147
149
152
154
154
152
150
148
146
144
142
138
136
136
136
136
136
136
135
134
134
135
136
136
136
137
138
138
138
138
136
134
132
129
128
126
124
123
123
125
127
129
133
135
137
140
144
146
146
146
146
146
146
146
145
143
139
137
136
136
136
136
38
51
63
77
90
98
106
115
123
129
136
142
146
149
153
155
156
156
156
156
156
156
156
157
160
164
169
174
178
181
184
185
185
184
180
174
168
163
157
152
146
140
137
135
133
129
127
127
129
133
136
139
143
146
149
152
155
157
158
156
154
152
148
144
140
138
136
134
132
129
128
128
128
128
129
132
134
135
136
136
135
133
129
127
125
122
118
113
108
102
97
92
87
84
82
82
82
83
85
88
92
97
103
108
113
118
122
125
129
133
137
142
144
146
148
149
148
148
146
142
136
129
123
118
113
109
107
106
107
110
115
122
129
135
140
146
152
156
160
165
167
167
167
164
159
156
156
154
149
146
144
140
136
132
127
122
118
113
108
102
98
95
94
94
94
94
97
103
107
113
115
118
123
125
125
125
125
125
124
122
119
118
118
119
122
124
127
129
134
138
143
146
149
153
156
157
158
159
159
158
156
153
149
147
144
140
137
136
136
136
136
136
136
136
136
136
136
137
138
140
142
144
144
144
142
140
137
135
134
132
129
128
128
129
132
134
135
136
138
142
145
146
146
146
146
145
144
144
142
139
137
136
136
136
136
136
36
48
62
77
92
102
109
117
125
133
139
145
149
153
156
158
158
157
156
156
156
156
156
156
157
160
164
169
173
176
178
180
180
178
175
170
166
160
155
150
144
139
135
133
129
126
125
125
126
129
132
135
139
142
145
147
150
152
152
150
148
146
143
139
135
134
132
129
127
126
125
125
125
125
126
127
129
133
135
136
136
135
134
132
129
125
122
118
113
108
103
98
95
91
88
87
87
88
91
93
97
102
108
112
116
121
125
129
133
136
140
144
147
149
152
153
153
152
149
145
139
133
128
123
118
114
112
110
112
114
119
126
133
139
144
149
155
159
164
166
167
167
167
164
159
156
155
152
148
145
142
138
134
129
124
119
114
109
104
98
95
94
94
94
94
94
97
103
107
113
116
119
123
125
125
125
125
125
125
124
123
123
123
124
127
129
133
136
139
144
149
153
156
160
163
165
166
166
165
164
163
159
154
149
146
142
138
136
136
136
136
136
136
136
136
136
137
139
142
144
146
148
148
148
147
145
143
140
138
136
134
133
133
134
135
136
136
136
138
142
143
144
144
144
143
142
140
139
138
137
136
136
136
136
136
136
36
47
62
77
92
104
113
122
129
136
143
149
154
158
160
163
163
160
158
157
156
156
156
156
156
157
160
164
168
171
173
175
175
173
170
167
163
158
153
147
143
137
133
129
126
124
123
123
124
126
127
129
133
137
140
142
144
145
145
144
142
139
136
133
129
128
127
126
125
125
125
125
125
125
125
125
126
129
134
136
136
136
136
135
133
129
125
122
118
113
108
105
102
98
95
95
95
95
96
98
103
108
112
115
119
123
127
132
136
139
143
146
149
153
155
156
156
155
152
147
143
138
133
127
122
119
117
116
117
120
125
130
137
144
149
154
159
164
166
167
167
167
167
164
159
156
154
150
147
144
140
136
132
127
122
116
112
107
103
97
94
94
93
94
94
94
97
103
108
113
117
121
124
125
125
125
125
125
125
125
125
126
127
129
132
135
139
142
145
149
154
159
163
166
168
171
173
173
171
169
167
163
157
153
148
144
139
136
136
136
135
135
135
136
136
136
138
142
145
147
149
152
153
153
152
150
147
145
143
140
138
137
136
136
136
136
136
136
137
138
139
139
139
139
138
138
137
136
136
136
136
136
136
136
136
136
36
48
63
78
93
105
115
125
133
139
146
153
159
163
165
166
166
165
163
160
157
156
155
154
154
154
156
160
163
166
168
169
169
169
167
164
159
155
150
145
140
135
129
126
124
122
119
119
121
123
123
125
128
132
134
135
136
136
136
136
135
133
129
127
124
123
123
123
123
124
125
125
125
125
125
125
125
127
132
135
136
136
136
136
135
133
129
127
123
118
115
112
108
106
104
103
103
103
103
105
108
112
115
118
122
125
129
134
138
142
145
148
152
155
156
156
156
156
154
150
146
142
136
130
127
124
123
123
124
127
132
137
143
149
154
159
164
167
169
169
169
168
167
165
160
157
154
150
147
144
139
134
129
124
119
114
109
105
101
96
94
93
92
93
94
95
98
104
109
114
119
123
126
127
128
128
128
128
128
128
128
129
132
135
137
140
144
147
150
154
159
164
167
170
173
175
176
176
175
173
170
166
160
154
149
144
139
136
136
136
135
133
135
136
136
137
140
144
147
149
153
155
156
156
155
154
152
149
146
144
142
140
139
138
137
136
136
136
136
136
136
136
136
135
134
134
133
133
133
133
134
135
136
136
136
136
38
51
66
81
94
105
116
126
135
143
149
156
163
167
169
169
169
168
166
163
158
156
154
150
149
150
153
156
158
160
163
164
165
164
163
160
156
152
147
143
137
132
127
125
122
118
116
116
117
118
119
122
124
126
128
128
128
128
127
126
126
125
123
122
119
118
118
118
119
121
122
123
123
124
125
125
125
126
129
134
136
136
136
136
136
135
134
132
129
125
122
118
115
113
111
109
108
108
109
112
114
116
119
122
124
127
132
135
138
142
145
148
152
155
156
156
156
156
155
152
148
144
139
135
132
129
128
128
129
133
139
144
149
154
159
164
168
171
174
175
173
171
169
167
163
158
155
152
148
144
139
134
129
124
118
113
108
104
100
96
94
94
93
94
94
96
101
106
112
116
121
125
129
132
133
134
134
134
134
134
134
136
138
140
143
145
149
153
155
159
164
167
170
174
177
179
180
179
178
176
173
168
163
156
150
145
140
137
136
136
135
135
135
136
137
139
143
146
149
153
156
158
159
159
158
157
155
153
149
147
145
144
144
142
139
137
136
136
136
136
136
135
134
132
129
128
128
128
128
128
129
133
135
136
136
137
41
54
68
83
95
107
118
128
137
146
153
160
166
170
173
174
173
170
168
164
159
156
154
149
147
147
149
152
154
156
158
159
159
159
158
156
153
149
145
140
135
129
126
123
119
116
115
115
115
115
116
117
119
122
123
123
123
123
121
119
118
118
117
117
116
115
115
115
116
117
118
118
119
121
123
124
125
125
128
133
136
136
137
138
139
138
138
136
134
132
129
125
122
119
117
116
115
115
116
117
119
121
123
124
125
128
133
136
137
140
144
146
149
153
155
156
156
156
156
154
149
146
143
139
136
134
134
134
136
139
144
149
155
160
166
170
174
177
179
179
177
175
173
170
166
160
157
154
150
145
140
136
132
125
119
114
109
105
101
96
94
94
94
94
95
98
104
109
114
119
124
129
133
137
138
138
138
138
138
139
140
142
144
145
147
150
154
157
160
164
167
170
174
176
179
183
185
184
181
178
175
169
164
158
153
147
143
138
136
136
136
136
136
137
139
143
146
149
153
156
159
163
164
164
163
160
157
155
152
148
146
146
146
145
142
138
136
136
136
135
134
132
129
127
125
124
123
125
125
125
126
129
134
136
137
139
47
58
72
86
99
112
123
132
140
148
156
164
169
174
176
177
176
174
170
166
160
157
154
149
146
146
147
148
150
153
155
156
156
156
156
154
150
147
144
138
134
128
125
121
117
115
114
113
113
113
113
114
116
117
117
117
117
117
115
114
113
113
113
113
113
114
115
115
115
115
115
115
116
117
119
122
124
125
127
132
135
136
138
142
143
143
142
140
138
137
135
132
129
126
125
125
123
123
123
123
123
124
125
125
125
127
131
134
135
138
142
144
146
149
152
154
155
156
156
154
150
147
145
143
140
139
138
140
143
146
150
157
163
168
173
177
181
184
185
184
181
179
177
173
168
164
160
156
152
147
143
138
133
127
122
116
112
107
103
97
94
94
94
95
98
102
106
112
118
123
128
133
138
142
144
144
144
144
144
144
146
148
148
150
153
155
159
163
165
167
170
174
176
178
181
186
188
187
184
179
175
171
166
160
154
149
144
140
137
136
136
136
137
139
143
146
149
153
156
160
164
166
167
167
166
163
158
156
153
149
146
146
146
145
142
138
136
136
135
133
129
127
125
123
121
119
119
121
123
124
125
128
133
136
138
142
57
65
78
91
104
116
126
136
144
153
160
167
173
176
177
177
177
176
173
168
163
158
154
149
146
146
146
146
147
150
154
156
156
156
156
154
149
146
144
138
134
128
123
119
116
115
113
109
108
108
109
111
113
113
113
113
113
112
109
108
107
107
108
108
109
112
114
115
115
115
115
115
115
115
116
118
122
124
126
129
134
136
139
143
146
146
145
144
144
142
140
138
136
134
133
132
129
127
126
125
125
125
125
125
125
126
127
129
132
135
137
140
143
146
148
150
153
155
156
155
152
148
146
146
144
144
144
145
149
153
158
164
170
175
180
185
188
190
190
189
187
184
180
176
171
167
163
158
154
150
145
140
135
129
124
119
113
108
103
98
95
94
95
98
102
105
109
115
122
128
133
139
144
147
148
148
148
149
149
150
152
154
154
155
158
160
164
166
167
169
173
176
177
179
184
187
188
188
186
181
177
173
168
163
157
150
146
143
140
138
137
138
140
143
146
149
153
155
158
163
166
167
167
167
166
163
158
156
153
149
146
146
145
143
139
137
136
135
133
129
125
123
121
119
117
116
116
117
119
122
125
128
133
137
140
144
67
75
86
97
109
121
130
139
148
156
164
170
175
178
179
180
179
177
175
169
164
159
154
150
147
146
146
146
146
149
154
156
156
156
156
154
149
146
144
138
134
128
123
118
115
114
111
107
105
105
106
107
108
108
108
108
108
107
105
103
103
103
104
105
106
108
112
114
115
115
115
115
115
115
115
116
118
122
125
127
132
135
138
143
146
146
146
146
146
145
144
144
142
140
138
136
134
132
129
126
125
125
125
125
125
125
125
126
127
129
132
135
139
142
144
146
149
152
154
155
154
150
149
149
148
148
149
150
154
159
164
170
176
181
187
191
194
196
196
194
191
188
185
180
175
170
166
160
156
152
147
143
137
132
127
122
115
109
105
102
98
97
98
102
105
108
113
118
125
133
138
144
148
152
154
154
154
156
156
157
158
159
159
160
163
165
166
167
168
171
175
177
177
180
185
188
188
188
187
184
179
175
171
166
160
154
149
146
144
143
141
143
144
146
149
153
155
157
160
165
167
167
167
166
164
160
157
155
152
148
146
145
143
139
137
136
135
133
129
125
122
119
117
116
115
115
115
115
116
119
123
128
134
138
142
146
80
87
96
106
116
127
136
145
153
160
167
173
177
181
184
185
183
179
175
169
165
159
156
152
148
146
146
146
146
149
154
156
156
156
156
154
149
146
144
138
134
128
123
118
115
113
109
106
105
105
105
105
105
105
105
105
104
103
101
98
97
98
101
103
104
106
108
112
114
115
115
115
115
115
115
115
116
119
123
126
129
134
138
142
145
146
147
148
149
149
148
148
146
144
142
139
137
135
132
127
125
125
124
123
123
123
123
123
123
124
127
129
133
137
140
143
146
148
150
153
155
154
154
154
154
154
154
157
160
164
170
177
184
189
194
198
200
200
200
199
196
191
188
184
178
174
168
164
159
155
150
145
140
135
129
124
118
113
108
105
103
102
103
104
107
112
116
122
129
136
142
147
152
156
158
159
160
163
164
164
164
164
164
165
166
167
167
167
169
173
176
177
177
180
185
188
188
188
188
186
181
177
173
168
164
159
154
150
149
148
147
148
149
150
153
156
158
160
164
166
167
167
166
164
160
157
155
153
149
147
145
143
139
137
136
135
133
129
126
123
119
116
115
114
113
113
113
114
115
118
123
128
134
138
144
148
96
102
109
116
126
136
143
150
158
164
170
176
180
185
187
187
185
180
175
171
166
160
157
154
150
147
146
146
147
150
154
156
156
156
156
154
149
146
144
139
134
129
124
119
116
113
109
106
105
105
105
105
105
105
105
104
102
98
96
95
94
95
96
98
102
104
106
108
112
114
115
115
115
115
115
115
115
117
121
124
128
133
137
140
144
146
148
152
153
154
153
152
150
148
146
143
139
136
133
128
125
124
122
119
118
118
117
117
118
119
122
124
128
133
136
139
143
146
147
150
154
156
156
156
156
157
159
163
166
170
176
184
190
195
200
204
205
206
205
204
200
196
191
187
181
176
171
167
163
157
153
147
143
137
132
126
121
116
112
107
105
105
105
106
109
113
118
125
132
138
144
150
155
159
163
164
165
166
167
167
167
167
167
167
167
167
167
167
169
173
176
177
177
180
185
188
188
188
188
187
185
180
176
171
168
164
160
157
155
154
154
154
154
155
158
160
163
165
166
167
167
166
164
160
157
155
153
149
146
144
142
139
137
136
135
133
129
126
124
121
117
115
115
113
110
108
110
113
115
118
123
128
134
139
144
150
110
116
122
128
136
144
150
157
164
170
175
180
184
187
188
188
186
181
177
173
168
163
158
156
153
150
149
149
150
153
155
156
156
156
156
154
150
147
144
140
136
132
126
122
117
114
111
107
105
105
105
105
105
105
105
103
98
95
94
94
94
94
94
95
98
103
105
106
108
111
112
113
113
113
113
113
114
116
118
122
127
132
135
139
144
146
149
153
156
156
156
155
154
152
149
146
142
138
134
129
126
123
119
116
115
115
113
113
113
114
116
119
123
128
133
136
140
144
146
148
152
155
156
156
156
158
163
167
170
175
181
188
194
199
204
207
208
208
208
207
204
199
194
189
184
178
174
169
164
159
154
150
145
140
134
128
123
117
113
109
106
105
105
107
111
114
118
125
133
138
146
152
157
163
166
167
168
169
169
169
168
167
167
167
167
167
167
167
168
170
174
176
177
180
185
188
188
188
188
188
187
185
180
176
174
170
167
164
160
159
159
159
159
160
163
165
166
167
167
167
166
164
160
157
155
153
149
146
143
140
138
137
136
135
133
129
126
125
123
119
116
115
115
113
110
108
110
113
115
118
123
128
134
140
146
153
127
130
134
139
146
153
158
164
169
175
180
184
187
188
188
188
187
184
179
175
169
165
160
157
155
154
154
154
154
155
156
156
156
156
156
155
152
148
145
142
138
133
128
123
118
115
113
109
107
106
105
105
105
105
105
102
97
94
94
94
94
94
94
94
96
101
104
105
106
107
108
108
108
108
108
109
112
114
116
119
124
129
134
138
144
146
149
154
156
156
156
156
156
155
152
148
144
140
136
132
127
123
118
115
114
112
109
108
108
109
112
114
118
123
128
133
137
142
145
147
150
154
156
156
157
160
165
169
173
178
185
191
197
202
206
208
210
210
209
208
205
200
196
190
185
179
175
169
165
159
155
152
147
142
136
129
123
118
114
111
107
105
105
108
112
115
118
125
133
139
146
154
159
164
167
168
170
173
174
173
171
170
169
168
167
167
167
167
167
168
171
175
177
180
185
188
188
189
190
190
190
188
185
181
179
176
173
170
168
167
167
167
166
166
166
167
167
167
167
167
165
160
157
155
153
149
145
142
139
137
136
135
134
132
129
126
125
125
123
118
115
115
115
114
113
113
113
114
115
118
123
128
135
142
148
156
144
145
147
151
155
160
164
170
175
180
184
187
188
188
188
188
188
185
180
175
170
166
163
158
156
156
156
156
156
156
156
156
156
156
156
156
153
149
146
143
138
134
128
123
119
116
114
113
111
109
107
106
105
105
105
102
97
94
94
94
94
94
94
94
95
98
102
104
105
105
105
105
105
105
105
106
108
112
115
118
123
128
134
138
144
147
150
154
156
156
157
158
157
156
154
150
146
143
138
134
128
123
118
115
113
109
106
105
105
106
107
109
113
118
123
129
135
139
143
146
148
152
155
156
158
163
166
169
175
180
187
194
199
204
207
210
214
214
210
208
205
200
196
190
184
178
174
169
164
159
155
152
147
142
137
131
124
118
115
112
108
105
105
108
112
115
118
125
132
138
146
154
159
164
167
169
173
176
177
176
175
174
173
169
167
167
167
167
167
167
169
173
176
180
185
188
189
191
194
195
194
192
190
188
185
181
179
177
175
175
175
174
173
171
170
169
168
167
167
166
163
158
155
153
149
144
140
138
136
134
133
132
129
127
126
125
125
125
123
119
116
115
115
115
115
115
115
115
116
119
124
129
137
144
150
157
159
159
161
164
166
168
170
175
180
184
187
188
188
188
188
188
188
185
180
175
170
167
165
160
157
156
156
156
156
156
156
156
156
156
156
156
154
149
146
144
138
134
128
125
121
117
115
115
114
113
111
109
107
106
105
103
98
95
94
94
93
92
92
92
93
95
98
101
103
104
105
105
105
105
105
105
106
109
113
117
122
126
132
138
144
148
152
155
157
158
160
162
160
158
156
153
149
145
140
135
129
124
119
116
113
108
105
105
105
105
105
106
109
114
119
125
132
136
140
144
147
150
154
156
158
163
166
170
175
180
187
194
200
205
208
210
214
214
210
207
204
199
194
188
181
176
171
167
163
157
153
149
145
140
135
129
123
118
115
112
108
105
105
107
111
114
118
123
129
137
145
152
158
164
167
170
174
177
177
177
177
177
174
169
167
167
167
167
167
167
168
171
175
180
185
189
191
195
197
198
197
196
196
194
191
189
187
185
181
180
180
179
177
175
175
173
170
168
167
165
160
156
153
149
144
139
136
134
132
129
128
127
126
125
125
125
125
125
124
122
119
117
116
115
115
115
115
116
118
122
127
132
138
146
152
158
175
175
176
176
175
175
177
181
184
187
188
188
188
188
188
188
188
185
180
175
171
168
166
164
160
159
159
159
159
159
158
157
156
156
156
156
154
149
146
143
138
134
128
125
123
119
117
116
115
115
114
113
111
108
106
104
101
96
94
93
91
88
87
88
91
93
95
96
98
101
102
102
103
104
105
105
105
107
111
115
119
124
129
136
142
148
153
156
158
162
165
166
165
163
160
156
152
147
143
137
132
127
122
117
113
108
105
105
104
104
104
105
107
112
116
122
129
134
138
142
145
148
152
155
157
160
165
169
175
180
186
192
198
204
207
208
210
210
208
205
201
196
190
185
179
173
168
164
159
154
149
146
142
138
134
128
123
118
114
111
107
105
105
106
108
112
116
122
127
135
143
149
156
163
166
169
174
177
177
177
177
176
173
169
167
167
167
167
167
167
167
170
175
180
185
190
194
197
199
200
200
200
200
200
198
196
194
191
188
186
185
184
180
178
177
176
173
169
166
163
158
154
150
145
140
136
133
129
127
126
125
125
125
125
125
125
125
125
125
124
123
121
119
118
118
118
118
119
122
125
128
134
140
147
154
160
190
188
187
185
181
181
184
186
187
188
188
188
188
188
188
188
187
184
179
176
173
169
167
166
165
164
164
164
164
164
163
160
158
157
156
156
153
148
145
142
138
134
129
126
124
123
121
119
117
116
115
115
114
111
107
105
102
97
94
92
88
85
84
85
87
91
93
94
95
96
97
97
98
102
104
105
105
106
109
113
118
123
128
134
140
147
153
157
160
165
167
167
167
166
164
159
155
150
145
140
135
129
124
119
114
109
106
105
103
100
102
104
106
109
114
119
126
132
136
139
143
146
149
153
156
158
163
168
173
178
184
189
195
200
204
206
207
206
204
201
197
191
185
180
175
169
164
159
154
149
146
143
139
136
132
126
122
117
113
109
106
105
105
105
106
109
114
119
125
133
139
147
154
160
165
169
173
176
177
177
176
174
170
168
167
167
167
167
167
167
167
170
175
180
186
190
196
199
201
204
206
206
206
206
204
202
199
197
194
191
189
187
184
179
177
177
174
169
165
160
156
152
147
143
137
133
129
126
125
123
123
123
124
125
125
125
125
125
125
125
125
124
123
123
123
123
123
123
124
126
129
136
142
148
156
163
204
200
196
192
189
188
188
188
188
188
188
188
188
188
188
187
185
181
178
176
173
169
167
167
167
167
167
167
167
167
166
165
162
158
156
155
152
148
144
140
137
135
132
127
125
125
124
123
121
119
117
116
115
113
109
106
102
97
94
92
87
84
84
84
85
88
92
94
94
94
94
94
95
98
103
105
105
105
108
113
117
123
128
134
139
146
154
158
163
166
167
167
167
167
166
164
159
154
149
144
139
134
128
123
118
112
107
105
103
98
98
102
105
108
113
117
123
128
133
136
140
144
147
150
154
157
160
166
171
176
181
187
192
197
200
202
203
201
199
197
193
187
180
175
170
164
159
154
149
145
142
139
136
133
128
124
119
115
111
107
105
105
105
105
105
107
112
116
122
129
137
145
152
158
164
167
170
174
176
176
174
170
168
167
167
166
165
164
164
165
166
169
175
180
186
190
196
201
205
208
210
211
211
211
209
207
204
201
198
195
191
188
185
180
177
176
173
169
164
159
154
150
145
140
135
129
126
124
122
119
118
119
121
123
124
125
125
125
125
125
125
125
125
125
125
125
125
125
125
127
132
138
144
149
156
164
216
211
206
201
198
195
192
190
189
188
188
188
188
187
186
184
181
178
176
174
170
168
167
167
167
168
169
169
169
168
167
167
165
160
157
154
150
147
144
139
136
136
133
128
125
125
125
125
124
123
121
118
116
114
111
107
103
98
95
92
88
85
84
84
84
87
92
94
94
94
94
94
95
97
102
105
105
105
108
113
117
122
127
134
139
146
154
159
164
167
168
169
169
169
168
166
164
159
154
149
144
139
133
128
122
115
109
106
102
97
95
98
103
107
112
116
121
125
129
134
138
142
145
148
152
156
159
165
169
174
179
184
189
194
196
198
199
197
194
191
187
181
175
170
164
159
154
149
144
140
137
135
132
129
125
121
117
113
109
106
104
103
102
102
103
105
108
113
118
126
134
142
149
156
163
166
168
170
173
173
170
168
167
167
166
164
160
159
159
160
164
168
174
179
186
191
198
204
208
211
215
216
216
216
215
211
208
205
201
198
194
190
185
180
177
175
171
167
163
157
153
147
143
137
132
127
124
122
118
116
115
116
117
119
122
124
125
125
125
125
125
125
125
125
125
125
125
125
126
129
134
138
144
149
156
164
227
221
215
209
204
199
196
194
190
188
188
187
186
184
181
179
177
175
173
170
168
167
167
168
169
171
173
174
173
171
169
168
166
163
158
154
149
146
144
139
136
136
133
128
125
125
125
125
125
125
124
121
117
115
113
108
104
101
96
94
91
87
85
84
85
88
92
94
94
94
94
95
96
99
103
105
105
105
108
113
116
119
126
133
139
146
154
159
164
168
170
173
174
173
171
169
167
164
159
154
149
144
138
133
125
118
112
107
103
97
95
96
101
105
109
114
119
123
128
133
137
140
144
147
150
154
159
164
168
171
176
181
186
190
192
194
194
192
189
185
180
175
170
164
159
154
149
144
139
136
133
129
127
125
122
118
116
113
108
105
103
99
97
97
98
102
105
109
115
122
129
138
147
154
160
165
167
168
169
169
168
167
166
165
163
160
157
156
156
157
160
166
171
178
185
191
198
205
210
215
218
219
219
219
218
216
211
208
204
200
196
190
186
180
176
173
168
164
159
155
150
145
140
135
129
125
122
118
116
115
115
115
115
116
119
123
125
125
125
125
125
125
125
125
125
125
125
125
127
132
135
139
144
149
156
163
237
230
222
215
208
202
198
195
191
188
187
185
181
179
176
175
173
171
169
168
167
167
167
169
173
175
176
177
176
175
173
169
167
164
159
154
149
146
143
139
136
135
132
127
125
125
125
125
125
125
125
123
119
116
113
109
106
103
98
95
93
91
88
87
88
91
94
94
95
96
97
98
101
103
104
105
105
105
108
113
115
118
125
132
138
146
154
159
165
169
173
176
177
176
175
173
170
167
164
159
154
149
143
136
129
122
115
109
104
98
95
95
98
103
107
112
116
122
126
132
135
139
144
146
149
154
159
164
167
170
175
179
184
187
189
190
189
187
184
180
175
170
164
159
154
149
144
139
136
133
129
126
125
123
119
116
115
113
108
105
102
97
95
94
95
98
103
108
114
119
127
136
145
152
158
163
166
167
167
167
167
166
164
160
158
157
155
154
154
156
158
163
169
177
184
190
198
205
211
216
219
219
219
219
219
218
215
210
206
200
196
190
185
180
175
171
166
160
156
152
147
143
137
132
127
123
119
116
115
115
115
115
115
115
118
123
125
125
125
125
125
125
125
125
125
125
125
125
128
133
136
139
144
148
154
160
244
237
227
218
210
205
200
196
191
187
185
181
177
174
171
169
168
166
165
165
166
167
167
169
174
177
177
177
177
177
174
170
167
164
159
154
148
145
142
138
135
133
129
126
125
125
125
125
125
125
125
124
121
117
114
111
107
104
102
98
95
94
92
92
93
94
96
97
98
101
102
103
104
105
105
105
105
105
108
113
115
118
124
129
137
145
152
158
165
169
174
177
177
177
177
176
174
170
167
164
159
153
146
139
133
125
117
112
106
101
96
95
97
102
106
109
114
119
124
129
134
138
144
147
150
154
159
164
167
170
175
178
181
184
185
185
184
181
179
175
170
166
160
155
150
145
140
137
134
129
126
125
125
123
118
115
115
113
108
105
103
98
95
94
94
97
103
107
113
118
126
135
143
149
155
160
165
167
167
167
166
164
160
157
156
154
152
150
150
153
156
160
167
174
181
189
197
204
210
216
219
219
219
219
219
219
216
211
206
200
196
190
184
178
173
168
163
158
153
149
144
139
135
129
125
121
117
115
114
114
114
115
115
115
117
121
124
125
125
125
125
125
125
125
125
125
125
125
127
132
135
138
143
147
153
158
247
239
229
219
211
206
200
196
190
186
181
177
174
170
166
165
163
160
159
160
164
166
167
169
173
176
177
177
177
177
174
170
167
164
159
154
148
143
139
136
133
129
126
125
125
125
125
125
125
125
125
125
122
118
115
113
109
106
104
102
98
97
97
97
97
99
101
103
103
105
107
107
107
106
105
105
105
105
108
112
115
118
123
128
136
144
150
157
164
169
174
177
177
177
177
177
176
173
169
166
163
156
149
143
135
126
119
113
107
103
97
95
97
102
105
108
113
118
123
128
134
138
144
148
152
156
160
165
168
171
175
177
178
179
180
180
179
178
175
171
167
163
158
153
148
144
139
136
133
128
125
125
125
123
119
117
116
113
109
106
104
102
98
95
95
97
103
107
113
118
126
134
140
147
154
158
163
166
167
166
164
160
157
155
153
150
148
147
147
149
153
158
164
170
178
188
196
202
208
215
218
219
219
219
219
219
216
211
206
200
194
188
181
176
170
164
159
155
150
145
140
136
132
127
123
119
116
114
112
110
112
114
115
115
116
119
123
125
125
125
125
125
125
125
125
125
125
125
126
129
133
136
140
145
150
156
244
237
228
219
211
206
200
196
190
184
179
174
170
165
160
159
158
157
156
157
160
164
166
168
170
174
176
177
177
176
173
169
166
163
157
152
146
140
136
133
129
126
125
125
125
125
125
125
125
125
125
125
123
118
115
114
112
109
107
105
103
103
103
103
105
106
107
108
108
109
112
113
111
109
108
108
107
106
107
111
114
117
122
127
135
142
148
156
163
168
173
176
177
177
177
177
177
175
171
168
164
158
152
145
136
128
122
115
108
103
97
95
97
102
105
108
113
117
123
128
134
138
144
148
154
158
163
167
170
174
176
177
177
177
177
177
177
176
173
169
165
160
155
150
147
144
139
136
133
128
126
125
125
124
123
121
118
115
112
108
106
104
102
98
97
99
103
107
113
118
126
133
139
146
152
156
159
163
164
163
160
157
155
153
149
146
144
144
144
146
149
154
160
168
177
186
194
200
206
212
217
219
219
219
219
219
216
211
206
199
192
186
179
173
167
160
156
152
147
143
138
134
129
125
121
117
115
113
109
107
109
113
115
115
115
118
123
125
125
125
125
125
125
125
125
125
125
125
125
126
129
134
138
143
148
154
237
232
226
218
211
206
200
194
188
181
176
171
166
160
156
154
154
154
154
154
156
160
164
166
168
170
174
176
176
174
170
167
164
159
154
148
143
137
133
128
125
123
123
123
123
123
124
125
125
125
125
125
123
119
116
115
115
113
112
109
108
108
108
109
111
113
115
115
115
116
117
117
115
113
113
112
111
108
107
109
113
116
119
125
133
139
146
153
160
166
170
174
176
177
177
177
177
176
173
169
164
159
154
146
137
129
123
115
108
103
98
95
97
102
105
108
113
117
123
128
134
138
144
150
155
160
165
169
173
176
177
177
177
177
177
177
176
174
170
167
163
158
154
149
146
144
139
136
134
130
128
128
127
126
125
124
122
118
115
112
109
107
105
103
103
103
105
108
113
118
126
133
138
144
150
154
157
158
159
158
157
155
153
149
146
143
140
139
140
143
146
150
157
166
174
181
190
198
204
210
216
219
219
219
219
218
215
209
204
198
190
184
177
170
164
158
153
149
144
139
136
132
127
123
119
116
114
111
107
106
108
113
115
115
115
118
123
125
125
125
125
125
125
125
125
125
125
125
125
125
127
132
136
140
146
152
230
226
221
216
209
204
198
192
186
179
174
168
163
158
153
150
149
149
149
150
153
156
160
164
166
168
170
173
173
170
167
164
159
154
149
144
139
133
128
124
121
119
118
117
118
119
121
123
124
125
125
125
124
122
119
118
118
117
117
116
115
115
116
116
117
119
121
123
123
123
123
122
119
117
116
115
114
112
109
108
113
115
118
123
129
136
143
149
156
163
167
170
174
176
177
177
177
176
173
169
165
159
154
146
138
132
125
116
109
105
102
99
99
103
105
108
113
117
123
128
134
139
146
152
157
163
167
171
175
177
177
177
177
177
177
177
175
171
168
165
160
157
154
149
146
144
139
136
135
134
133
133
132
129
128
127
125
122
119
116
114
112
109
107
106
105
106
109
113
118
126
133
138
144
148
154
156
156
156
156
155
153
149
146
143
139
137
136
137
139
143
148
155
163
170
178
188
196
202
208
215
218
219
219
219
217
212
207
202
196
189
181
174
167
160
155
150
145
140
136
133
129
125
121
117
115
113
109
106
105
108
113
115
115
115
118
123
125
125
125
125
125
125
125
125
125
124
124
124
125
126
129
134
138
143
149
225
220
216
211
206
200
195
189
184
177
171
166
160
155
150
147
146
146
146
147
149
153
156
160
164
166
167
169
169
167
164
159
154
149
144
139
133
128
123
119
116
114
113
113
115
116
117
119
122
124
125
125
125
124
123
123
123
123
123
123
123
125
125
126
126
126
127
128
128
128
128
127
124
122
118
116
115
114
111
109
112
114
117
122
127
134
140
146
153
159
164
167
170
173
175
176
176
174
170
168
164
159
154
146
139
133
125
117
112
107
104
103
103
104
106
109
113
118
123
128
134
139
146
154
159
164
169
173
176
177
177
177
177
177
177
177
175
170
167
164
159
156
152
148
146
144
139
136
136
136
136
136
135
134
133
132
129
127
124
122
119
116
114
112
109
108
109
112
115
119
126
133
138
144
148
152
155
156
155
154
152
149
146
143
139
136
134
133
134
135
139
144
150
159
168
177
186
194
200
206
211
216
218
219
218
215
210
205
199
194
187
178
170
164
158
153
147
142
137
133
129
126
123
119
116
115
113
108
105
105
108
113
115
115
115
118
123
125
125
125
125
125
125
125
124
123
122
120
122
123
125
127
132
136
140
147
217
212
208
205
201
196
191
187
181
175
169
165
159
154
149
146
146
146
146
146
147
149
153
156
159
163
164
164
164
163
159
154
149
144
139
133
128
123
118
114
112
109
108
109
111
113
115
116
118
122
124
125
125
125
125
125
126
127
128
128
129
132
134
135
136
136
136
136
136
136
135
133
129
127
123
118
116
115
113
108
109
113
116
119
125
132
138
144
150
155
160
165
168
169
171
173
173
170
168
167
164
159
154
147
140
134
126
119
114
109
106
105
105
106
108
112
115
119
123
128
134
139
146
154
159
165
169
174
177
177
178
178
178
177
177
177
174
169
166
163
158
154
150
147
146
144
140
137
136
136
136
136
136
136
136
135
134
132
129
127
124
122
118
115
113
113
113
115
117
122
127
133
138
142
146
149
152
153
152
150
148
146
143
139
135
132
129
128
128
129
134
139
146
155
164
173
181
190
198
204
208
212
215
216
215
211
207
202
197
191
185
177
168
160
154
149
144
139
133
129
126
124
121
117
115
115
112
108
105
105
108
113
115
115
115
118
123
125
125
125
125
125
125
124
122
119
117
116
117
119
122
125
129
134
139
146
208
205
201
198
195
191
188
184
179
174
168
163
157
153
148
146
146
146
146
146
146
147
149
153
156
158
159
159
158
156
153
149
144
139
133
128
123
118
113
109
107
106
105
106
107
109
112
114
116
119
123
125
125
125
125
126
129
132
133
134
136
138
140
142
144
144
145
146
145
144
142
139
135
132
128
123
118
116
113
109
108
112
114
117
122
129
136
142
147
153
158
163
166
167
168
169
169
168
167
167
164
159
154
148
142
135
127
122
117
112
109
108
108
109
112
115
117
121
125
128
134
139
146
154
159
165
169
175
177
177
178
180
178
177
177
176
173
169
165
160
156
152
148
146
146
145
141
137
136
136
137
138
139
139
139
138
138
136
134
132
129
127
123
119
118
117
116
116
119
123
127
132
136
140
144
146
148
148
148
146
144
142
138
134
129
127
124
123
123
125
129
136
143
150
159
169
178
187
195
201
206
209
210
211
210
208
204
199
194
188
181
173
165
157
149
144
139
135
129
126
124
122
118
116
115
114
111
107
105
105
108
113
115
115
115
118
122
125
125
125
125
125
125
123
119
116
115
115
115
116
119
123
127
132
138
144
198
197
195
192
189
187
184
180
176
171
166
160
155
150
147
146
146
146
146
146
146
146
147
149
152
154
154
154
153
150
147
144
139
133
128
123
118
113
108
105
103
102
102
103
104
106
109
113
115
118
123
125
125
126
127
129
133
136
138
140
142
144
146
148
149
150
152
153
152
150
147
144
139
136
132
127
122
117
115
112
109
110
113
116
119
126
133
139
145
150
155
159
164
166
167
167
167
167
167
166
163
158
154
148
144
137
129
124
119
117
114
113
113
113
115
117
119
123
126
129
134
139
146
154
159
165
169
175
177
177
178
178
178
177
177
175
171
167
163
158
154
150
147
146
145
143
139
137
136
137
139
142
143
144
144
143
142
140
138
136
134
132
128
124
123
121
119
119
122
124
126
129
134
138
142
144
145
145
144
142
140
137
133
129
125
122
119
118
119
122
127
133
139
147
157
167
177
185
191
198
204
207
208
208
207
205
201
197
191
185
177
169
160
153
146
140
136
132
127
123
121
118
116
115
114
112
108
106
105
105
108
113
115
115
115
117
121
124
125
125
125
125
124
121
117
115
115
115
115
115
117
121
125
129
136
142
188
188
187
186
184
181
179
177
173
168
163
158
154
149
146
146
146
146
146
146
146
146
146
147
148
148
148
148
147
145
142
138
133
128
123
118
114
109
105
102
98
97
97
98
102
104
107
111
114
118
123
125
125
127
131
134
136
139
142
145
147
150
152
154
156
157
158
159
158
156
153
149
144
139
135
129
124
119
116
114
112
111
113
115
118
124
129
136
142
147
152
156
160
164
166
167
167
167
167
165
160
157
154
148
144
138
132
127
123
121
119
118
117
118
119
121
123
125
127
132
135
139
146
154
159
165
169
175
177
177
177
177
177
177
176
173
169
165
160
156
152
148
146
144
142
139
137
136
136
137
141
144
146
146
146
146
145
144
142
140
138
136
133
129
126
124
123
123
124
125
125
127
132
136
138
140
142
142
140
138
136
133
128
124
121
118
116
115
116
118
123
129
137
146
156
166
174
181
189
196
201
204
206
207
205
201
198
194
188
181
174
165
157
149
143
137
133
128
123
119
117
116
115
114
112
108
106
105
105
105
108
112
115
115
115
116
119
123
125
125
125
124
122
118
116
115
115
115
115
115
116
119
123
128
134
140
177
177
177
177
177
175
175
173
170
166
160
157
154
149
146
146
146
145
144
144
144
144
144
144
144
144
144
144
143
140
137
133
129
124
119
115
111
107
103
98
95
94
94
95
98
103
106
109
113
117
123
125
126
129
134
136
138
142
146
149
152
155
158
160
163
164
164
165
164
163
159
154
149
144
139
133
128
122
117
115
114
114
114
115
118
123
128
134
140
145
150
154
157
160
163
165
166
165
164
162
158
156
153
148
144
138
134
130
127
125
123
123
123
123
123
125
125
126
129
134
136
139
146
154
159
165
169
174
177
177
177
177
177
177
175
171
167
163
158
154
150
146
143
140
138
137
136
136
136
137
139
143
145
146
146
146
146
146
145
144
142
139
136
133
129
126
125
125
125
125
125
126
129
132
134
135
137
137
135
133
132
128
123
119
116
114
113
113
113
115
119
126
135
144
154
163
170
178
187
194
198
200
202
203
201
198
195
190
185
177
169
160
153
146
139
133
128
123
118
116
115
114
113
111
108
106
105
105
105
105
107
111
113
114
115
115
117
121
123
124
124
122
118
116
115
115
115
115
115
115
115
117
122
127
133
139
167
167
167
168
169
169
169
168
166
163
158
155
152
148
146
146
146
144
140
139
139
139
139
139
139
139
139
138
138
136
133
129
125
121
116
112
108
105
101
96
94
94
94
94
97
102
105
108
113
117
123
125
127
132
135
137
140
144
148
152
156
159
163
165
166
168
169
169
169
167
164
159
154
149
143
137
132
125
119
116
115
115
115
115
118
123
128
134
138
144
148
152
155
157
158
160
162
160
159
158
157
155
152
148
144
139
136
134
132
129
128
128
128
128
128
128
128
129
133
135
137
140
146
152
158
164
169
173
176
177
177
177
177
176
173
169
165
160
156
152
148
144
140
137
136
136
136
136
136
136
137
139
143
145
146
146
146
146
146
146
145
143
139
136
133
129
126
125
125
125
125
125
126
127
128
129
132
132
129
127
125
122
118
115
112
109
108
108
109
112
117
125
133
140
149
159
168
177
185
190
195
197
198
199
198
195
191
187
180
173
165
157
149
142
135
128
123
118
115
113
113
111
109
107
106
105
105
105
105
105
106
107
109
112
114
115
116
117
119
121
121
118
116
115
115
115
115
115
115
115
115
116
119
125
132
138
157
157
157
160
163
164
164
163
160
158
156
153
149
147
146
146
146
144
139
136
136
136
136
136
136
136
136
135
134
132
129
125
122
118
114
109
106
103
98
95
94
94
94
94
97
102
105
108
113
117
123
125
128
133
136
138
142
145
148
154
158
163
166
167
169
171
173
174
173
171
168
164
159
154
147
140
135
129
123
118
116
115
115
115
118
123
128
134
138
142
146
150
154
156
156
157
158
157
156
156
156
154
150
147
144
140
137
136
135
134
134
134
133
133
133
133
133
134
135
136
138
142
146
150
156
163
167
170
174
176
177
176
175
173
170
167
163
158
154
150
146
142
138
136
135
134
133
134
135
136
136
137
139
142
144
145
146
146
146
146
146
145
142
138
135
132
127
125
125
124
123
123
123
123
123
124
125
125
123
122
119
117
114
111
108
106
105
105
106
109
115
122
129
137
147
157
167
175
181
187
191
194
195
196
194
191
188
183
176
168
160
153
145
137
129
123
118
115
112
109
108
107
106
105
105
105
105
105
105
105
105
105
106
108
111
113
114
115
116
117
117
116
115
115
115
115
115
115
115
115
115
115
118
124
129
137
146
146
148
153
155
156
156
156
154
154
152
149
147
146
146
146
145
142
138
136
136
136
136
135
134
133
133
132
129
127
125
122
118
115
112
107
105
102
97
94
94
94
94
95
98
103
105
108
113
117
122
125
127
132
135
138
143
146
149
154
159
164
167
169
173
175
176
177
176
175
173
169
164
157
152
144
137
132
127
122
117
115
115
115
118
123
128
133
137
140
144
148
152
155
156
156
156
156
156
155
154
152
148
146
145
143
139
137
136
137
138
138
137
136
136
136
136
136
136
136
139
143
146
149
155
160
165
168
170
173
174
173
171
169
168
165
160
156
152
147
143
139
136
134
132
129
128
129
132
134
135
136
137
138
140
143
145
146
146
146
146
146
144
140
137
133
128
125
124
122
119
118
118
118
118
118
118
118
117
117
115
112
109
107
106
105
105
105
105
108
114
119
126
136
146
156
166
173
178
184
188
190
190
190
190
188
184
179
171
164
156
148
140
133
126
119
115
112
108
106
105
105
105
104
103
102
102
102
102
102
102
102
103
104
106
109
111
112
113
114
115
115
115
115
115
115
115
115
115
115
115
115
118
123
128
136
134
136
139
144
146
147
148
149
148
148
148
147
146
146
146
145
143
139
137
136
136
135
134
132
129
128
128
126
124
123
121
118
116
113
109
106
105
102
97
95
94
94
95
98
102
104
105
108
113
117
121
124
126
129
134
138
142
145
149
154
159
164
167
170
174
177
177
177
177
177
176
173
167
160
154
147
140
135
129
124
119
117
116
116
119
123
128
133
136
139
144
147
150
154
156
156
156
155
154
152
150
148
147
146
146
145
143
140
139
140
142
142
140
138
137
136
136
136
136
136
139
144
146
149
154
158
163
166
168
169
169
169
168
167
166
163
158
154
150
145
140
136
133
129
127
126
125
126
127
129
132
134
135
136
137
139
143
145
146
146
146
146
145
142
138
134
129
126
123
119
116
115
115
115
115
115
115
114
113
113
111
108
106
105
104
103
103
104
105
108
113
118
126
136
146
154
163
169
175
180
184
186
187
187
186
184
180
174
167
160
152
144
135
128
122
116
112
108
106
104
103
102
102
101
98
97
97
97
97
97
97
97
97
98
101
103
105
107
109
111
113
113
114
115
115
115
115
115
115
115
115
116
119
124
129
137
120
124
128
134
137
139
142
144
144
144
144
145
146
146
145
143
139
137
136
136
135
133
129
127
125
123
123
122
119
118
117
115
113
111
107
105
105
103
99
97
97
97
98
102
104
105
106
109
113
116
119
123
125
128
133
137
140
144
148
154
159
164
167
170
175
177
177
177
177
177
177
174
169
163
156
149
143
137
132
127
123
121
119
119
122
125
129
134
137
140
144
146
149
154
156
155
154
152
150
148
147
146
146
146
146
146
145
144
144
144
145
145
144
142
139
137
136
136
136
136
139
144
146
149
154
157
160
164
166
167
167
167
166
165
163
159
156
152
147
143
138
134
129
126
125
123
123
123
125
126
127
129
132
134
135
137
139
143
145
146
146
146
146
143
138
135
132
127
123
118
115
114
113
113
113
113
112
111
109
108
107
106
104
103
101
98
98
102
104
108
113
118
126
135
143
150
158
164
170
175
178
181
184
184
181
178
175
169
163
155
146
138
129
123
118
113
108
104
102
101
98
97
97
96
95
94
94
92
92
92
92
92
92
92
94
95
98
101
104
106
107
109
112
114
115
115
115
115
115
115
115
117
122
126
132
138
108
113
118
123
127
132
136
138
138
139
140
142
143
143
142
139
137
136
136
135
133
129
125
123
121
119
118
117
116
115
113
111
109
107
106
105
105
104
103
102
102
102
103
104
105
105
107
111
114
116
119
123
125
128
133
136
139
144
148
154
158
163
166
169
174
177
177
177
177
177
177
175
169
164
158
152
146
140
135
129
126
125
123
124
125
129
133
136
139
143
145
146
149
154
155
153
150
148
147
146
146
146
146
146
146
146
146
146
146
146
146
146
146
145
142
138
136
136
136
136
139
144
146
148
152
155
157
160
163
164
164
164
163
160
158
156
153
148
144
139
136
132
127
124
122
119
118
119
121
123
125
126
127
129
133
135
137
139
143
145
146
146
146
144
139
136
133
128
123
118
115
113
109
108
108
108
108
107
106
105
104
103
101
98
96
95
95
98
103
107
113
118
125
133
139
146
153
159
164
169
173
175
177
177
175
173
169
164
156
148
140
132
124
118
113
108
103
98
97
96
95
94
94
94
93
92
90
88
87
86
85
84
84
84
85
87
91
94
98
101
103
105
108
112
114
115
115
115
115
115
116
119
123
128
134
140
97
103
108
113
118
124
129
132
134
136
137
138
139
139
138
137
136
136
136
134
129
125
122
119
117
115
113
113
113
111
109
107
106
105
105
105
105
105
105
105
105
105
105
105
106
107
109
113
115
117
121
124
125
128
133
136
139
144
148
152
156
160
165
169
173
176
177
177
177
177
177
175
169
165
159
154
148
143
137
133
129
128
128
128
129
133
136
139
143
145
146
147
150
154
154
150
147
146
146
146
146
146
146
146
146
146
146
146
146
146
146
146
146
146
143
138
136
136
136
136
139
143
146
147
149
153
155
157
158
159
159
159
157
155
154
152
148
144
139
136
133
129
125
122
118
116
115
116
117
119
121
123
125
126
129
133
135
137
139
143
145
146
146
144
139
136
133
128
123
118
114
111
107
105
105
105
105
104
103
102
101
98
96
95
94
94
94
97
103
107
112
117
123
129
136
143
149
155
159
164
168
169
170
169
169
167
163
157
149
143
135
127
119
113
108
103
98
95
94
94
94
94
94
93
91
88
86
84
82
80
77
76
75
75
77
81
84
86
91
94
98
102
105
108
112
114
115
115
115
116
118
122
125
130
136
143
87
93
97
104
109
116
122
127
129
133
135
136
136
136
136
136
136
136
136
133
128
123
119
115
113
111
109
108
107
107
106
105
105
105
105
105
105
105
105
105
106
107
108
108
109
112
113
115
117
119
123
125
126
129
134
136
139
144
147
150
154
159
164
168
171
175
177
177
177
177
177
174
169
165
159
154
148
144
139
136
134
133
133
134
134
136
139
143
145
147
148
150
153
155
154
149
146
146
146
146
146
146
146
146
146
146
146
146
146
146
146
146
146
145
142
138
136
136
136
136
138
142
145
146
147
149
152
154
154
154
154
154
152
150
148
147
144
139
136
133
129
125
122
118
116
115
115
115
115
116
117
119
122
124
126
129
133
135
137
139
143
145
146
144
139
136
133
128
123
118
113
109
106
105
104
103
102
101
98
97
96
95
94
94
94
94
94
97
102
106
109
115
122
127
134
140
146
152
155
159
163
164
164
164
163
160
155
149
144
137
129
122
114
108
103
98
95
94
94
94
94
94
94
92
88
85
83
81
77
75
72
70
67
67
70
73
75
78
83
87
92
97
102
105
109
113
115
115
116
118
122
125
129
133
139
145
77
83
88
95
102
109
116
122
125
129
134
136
136
136
136
136
136
136
136
133
128
123
117
113
109
107
106
104
103
103
103
104
105
105
105
105
105
105
106
107
109
112
113
113
114
116
118
119
122
123
125
127
129
133
135
136
139
144
146
149
154
158
163
166
169
173
176
177
177
177
176
173
169
164
159
154
148
144
140
137
136
136
137
138
138
140
143
145
147
149
152
154
155
156
153
149
146
146
146
146
146
146
146
146
146
146
146
146
146
146
146
146
145
143
139
137
136
136
136
136
137
139
143
145
146
147
148
148
148
148
148
148
147
145
144
142
139
136
133
129
125
122
118
116
114
113
113
113
114
115
115
116
118
122
124
126
129
134
136
137
140
144
146
144
140
137
134
129
124
119
114
109
106
105
103
99
97
96
95
94
94
94
94
94
94
94
94
97
102
105
108
114
119
125
132
137
142
146
149
153
156
156
156
156
156
153
149
144
138
132
124
117
110
104
98
95
94
94
94
94
94
94
94
92
88
85
82
78
74
72
68
65
63
62
63
65
67
71
76
82
87
92
97
102
106
111
114
116
118
122
124
127
132
137
142
147
67
74
81
88
96
104
112
118
123
128
133
136
136
136
136
136
136
136
136
133
127
122
116
112
107
105
103
101
98
97
98
102
104
105
105
105
106
107
109
112
114
116
117
118
119
122
123
125
127
128
129
132
134
136
137
138
140
144
146
149
154
157
160
165
168
170
173
175
176
175
173
170
167
163
158
154
148
146
143
140
139
139
140
142
144
144
146
148
150
153
155
156
156
155
152
148
146
146
146
146
146
146
146
146
146
145
144
144
144
144
144
143
142
139
137
136
136
136
136
136
136
137
139
143
145
146
146
145
144
144
144
144
143
140
139
138
136
133
129
125
122
118
116
114
112
109
108
109
112
114
115
115
116
119
123
125
127
132
135
136
139
144
146
145
143
139
136
132
127
122
116
112
107
105
102
97
95
94
94
94
94
94
94
94
94
94
94
96
101
104
108
113
117
122
128
133
137
140
143
146
148
149
149
149
148
146
143
138
133
126
118
112
106
101
96
94
94
94
94
94
94
94
94
93
90
86
82
77
74
71
66
63
60
57
57
60
62
66
71
76
82
87
92
98
104
109
113
117
121
124
126
129
134
138
144
148
57
64
74
82
91
99
107
116
123
128
133
136
136
137
138
138
137
136
136
133
126
119
114
109
105
102
98
96
95
94
95
98
102
104
105
106
108
111
114
116
119
122
123
125
126
127
129
132
134
135
137
138
138
139
140
142
144
145
147
150
154
156
158
163
166
167
169
171
172
171
169
167
164
160
156
152
148
146
145
144
144
144
144
145
147
148
150
152
154
155
156
156
156
154
150
147
146
146
146
146
146
146
146
146
145
143
140
139
139
139
139
139
138
137
136
136
136
136
136
136
136
136
137
139
142
143
143
142
140
139
139
138
138
137
135
134
132
129
126
123
119
116
115
113
109
106
105
106
109
113
115
115
115
117
121
124
126
129
134
136
139
144
146
146
145
142
138
134
129
123
117
113
108
105
103
98
95
94
94
94
94
94
94
94
94
94
94
95
98
103
107
111
115
118
123
128
132
135
137
140
142
144
144
144
142
139
136
133
127
119
113
108
104
98
95
94
94
94
94
94
94
94
94
94
92
88
84
80
75
71
66
62
57
54
54
55
57
61
66
71
77
83
88
95
102
107
113
117
122
125
127
132
135
139
144
149
49
57
67
77
86
95
105
115
123
128
133
136
137
139
142
142
139
137
136
133
126
118
113
108
103
98
95
94
94
94
94
95
98
103
105
107
111
115
118
121
124
127
129
132
134
135
137
138
140
142
144
144
144
144
144
145
146
146
148
152
155
156
157
160
163
164
165
167
168
166
164
163
159
156
153
149
147
146
146
146
146
146
146
147
149
152
154
155
156
156
156
156
155
152
148
146
146
146
146
146
146
146
146
146
144
140
137
136
136
136
136
136
136
136
136
136
136
136
136
136
136
136
136
137
138
139
139
138
137
136
136
135
134
133
132
129
127
126
125
123
118
115
115
113
108
106
105
106
108
113
115
115
115
116
119
123
125
128
133
137
140
144
146
146
146
144
140
136
132
126
119
114
109
106
104
102
98
95
94
94
94
94
94
94
94
94
94
94
96
101
105
108
112
115
118
123
127
129
132
134
135
137
137
136
135
133
129
125
122
115
109
105
101
96
94
94
94
94
94
95
96
97
97
97
96
92
87
83
77
72
67
62
57
54
53
53
54
57
62
67
74
80
86
94
101
107
113
117
122
125
128
133
136
139
144
148
46
54
64
74
84
95
105
115
123
128
133
136
138
142
145
145
142
138
135
132
125
118
113
107
103
97
94
94
94
94
94
95
98
103
106
109
114
118
122
125
129
133
136
138
140
142
144
146
147
148
148
148
148
148
148
149
149
149
150
154
156
156
156
157
158
159
160
163
163
160
158
156
154
152
149
147
146
146
146
146
146
146
146
148
152
155
156
156
156
156
156
155
153
149
147
146
146
146
146
146
146
146
146
146
144
139
136
136
136
136
136
136
136
136
136
136
136
136
136
136
136
136
136
136
136
136
136
136
136
136
135
133
130
128
127
126
125
125
125
123
118
115
115
113
110
108
108
108
110
113
115
115
115
115
118
123
125
128
134
138
142
145
146
146
146
145
143
139
135
129
122
116
112
107
105
104
102
98
95
94
94
94
94
94
94
94
94
94
95
98
103
106
108
112
115
118
122
124
126
128
128
129
131
129
128
126
123
119
116
112
107
103
98
95
94
94
94
95
96
98
101
102
103
102
101
97
92
87
82
76
71
66
61
57
54
53
54
57
62
66
72
79
85
93
98
106
113
117
121
124
127
132
135
138
142
147
46
54
64
74
85
95
105
115
123
128
133
136
138
143
145
145
142
138
134
129
124
117
113
107
101
96
94
94
94
94
94
96
101
104
107
112
116
121
125
129
133
138
142
144
146
148
150
152
154
154
154
154
154
154
154
154
154
154
154
155
154
154
154
154
154
154
154
156
156
154
152
150
148
146
144
144
144
144
144
145
146
146
146
149
153
156
156
156
156
155
154
152
149
147
146
146
146
146
146
146
146
146
146
146
144
140
137
136
136
136
136
136
136
136
136
136
136
136
136
136
136
136
136
136
136
136
136
136
136
136
135
131
129
128
127
126
125
125
125
123
119
116
115
114
113
113
113
113
113
114
115
115
115
115
118
123
126
129
134
138
143
146
147
148
148
147
145
142
137
132
125
119
114
109
106
105
104
102
98
95
94
94
94
94
94
94
94
94
94
96
101
104
106
108
112
115
117
119
122
123
123
125
126
125
123
122
118
115
112
108
106
102
97
94
94
95
96
98
101
103
104
106
107
107
106
102
98
93
88
82
76
71
66
61
57
56
57
60
63
67
74
80
86
93
98
106
113
116
119
123
126
129
133
136
139
144
49
57
67
77
87
97
106
115
123
128
133
136
138
142
143
142
139
136
133
128
123
117
111
105
99
95
94
94
94
94
94
97
102
105
108
113
119
124
129
133
139
144
147
150
153
154
156
158
159
159
158
157
156
156
156
156
156
156
155
153
150
149
149
148
148
148
148
148
147
146
145
144
142
140
139
138
139
139
140
143
145
146
146
149
153
156
156
155
154
152
150
148
147
146
146
146
146
146
146
146
146
146
146
146
145
143
140
138
137
136
136
136
136
136
136
136
136
136
136
136
136
136
136
136
136
136
136
136
136
136
135
134
133
133
132
129
128
127
126
125
122
119
117
116
115
115
115
115
115
115
115
115
115
116
119
123
127
132
135
139
144
147
149
152
152
149
147
144
140
135
129
122
117
112
108
106
105
104
102
98
96
95
94
94
94
94
94
94
94
95
98
103
105
106
108
112
115
116
117
118
119
121
123
121
119
117
115
112
108
106
105
102
97
95
95
98
101
103
104
106
107
109
111
112
111
108
104
101
95
88
82
76
71
67
64
63
63
65
67
71
77
83
88
94
101
107
113
115
117
121
124
126
129
133
136
139
57
64
74
83
92
101
108
116
123
128
133
136
137
138
138
138
137
135
132
126
121
115
109
103
97
94
93
92
92
93
94
97
102
106
109
115
121
127
133
138
144
149
153
156
158
160
163
164
164
164
163
160
157
156
156
156
156
155
153
149
147
146
145
144
144
144
143
142
140
138
137
136
135
134
134
134
135
136
137
139
143
145
146
148
152
153
153
152
150
148
147
146
146
146
146
146
146
146
146
146
146
146
146
146
146
145
144
142
140
139
139
139
138
137
136
136
136
136
136
136
136
136
136
136
136
136
136
136
136
136
136
136
136
136
135
134
134
132
129
128
127
124
122
119
118
117
116
115
115
115
115
115
115
117
121
125
128
133
137
140
144
148
152
155
155
153
149
146
142
137
132
125
119
115
112
108
106
105
104
103
101
98
95
94
94
94
94
94
94
94
96
101
104
105
106
109
113
115
115
115
116
117
118
117
116
115
113
109
106
105
105
103
99
97
98
102
104
105
106
108
111
113
114
115
114
112
109
106
102
95
88
82
77
74
71
70
68
70
72
76
81
85
91
96
103
107
113
115
116
118
121
123
124
128
132
135
67
74
81
88
97
105
111
117
123
127
132
135
136
136
136
136
135
133
128
124
119
113
107
101
96
93
91
88
88
91
94
96
101
106
111
117
123
129
136
143
148
154
159
163
164
165
166
167
167
167
166
164
160
157
156
156
155
153
149
147
145
144
142
140
138
137
136
135
134
132
129
128
128
128
128
129
132
134
135
137
140
144
146
147
148
149
149
148
147
146
146
146
145
144
144
144
145
146
146
146
146
146
146
146
146
146
146
145
144
144
144
143
142
140
139
139
138
137
136
136
136
136
136
136
136
136
136
136
136
136
136
137
138
139
139
138
138
138
136
134
132
129
127
124
123
122
119
118
118
118
118
118
118
119
123
125
128
134
138
142
146
149
154
156
156
155
152
148
144
140
134
127
122
118
115
112
108
106
105
105
104
101
96
94
94
94
94
94
94
94
95
98
103
105
105
108
113
115
115
115
115
115
115
115
115
114
111
107
105
105
105
104
103
102
103
104
105
105
107
111
114
115
115
115
115
114
113
111
107
102
95
88
84
81
77
76
75
76
78
82
85
88
93
98
103
108
113
115
115
116
117
118
119
122
125
129
77
82
88
95
102
108
113
117
123
126
129
132
133
133
133
133
132
128
125
121
116
111
105
98
94
91
87
85
85
88
92
95
98
105
111
117
125
132
138
145
152
157
163
166
167
168
169
169
168
167
167
166
163
158
156
156
154
150
147
145
143
140
137
135
132
129
128
126
126
125
123
123
123
123
123
125
127
129
133
135
138
142
145
146
146
146
146
146
146
145
144
144
142
140
139
140
143
145
146
146
146
146
146
146
146
146
146
146
146
146
146
146
145
144
144
143
142
140
138
137
136
136
136
136
136
136
136
136
137
138
139
140
142
144
144
144
144
144
142
140
137
135
132
129
128
126
124
123
123
123
123
123
123
123
124
126
129
134
138
144
147
150
154
156
156
156
154
150
146
142
136
129
125
121
117
114
112
108
106
105
105
103
98
95
94
94
94
94
94
94
95
98
103
105
106
109
113
115
115
115
115
115
115
115
115
113
109
106
105
105
105
105
105
105
105
105
105
105
108
112
115
115
115
116
117
117
116
114
111
106
101
96
91
88
85
84
84
84
85
87
91
93
97
102
105
109
113
115
115
115
115
115
116
117
119
122
86
91
96
102
107
112
114
117
121
124
126
127
128
128
128
128
126
124
121
117
113
107
102
96
91
87
85
84
84
86
90
94
97
103
109
116
125
133
139
146
154
159
164
167
168
170
173
173
169
167
167
167
164
159
156
156
154
149
146
144
140
136
133
129
127
124
122
119
117
116
115
116
117
118
119
122
124
126
129
134
137
140
144
146
146
146
146
146
145
143
140
139
138
137
136
137
140
144
146
146
146
146
146
146
146
146
146
146
146
146
147
148
148
148
147
146
145
144
142
139
137
136
136
136
136
136
136
137
139
142
144
144
146
148
148
148
148
148
146
144
142
140
137
135
134
132
129
127
126
125
125
125
125
125
125
127
132
135
139
144
148
152
155
156
156
156
155
152
148
144
138
132
127
123
118
115
114
112
108
106
105
104
102
98
96
95
94
94
95
96
98
102
104
106
108
112
114
115
115
115
115
115
115
115
115
113
108
105
105
105
105
105
105
105
105
105
105
105
107
111
114
115
115
117
121
121
118
116
113
109
106
102
98
95
95
94
94
94
95
95
97
98
102
106
109
112
114
115
115
114
113
113
113
113
114
115
95
99
104
108
112
114
115
116
118
121
123
123
123
123
123
123
121
119
116
113
108
102
97
92
87
85
84
84
84
85
88
92
97
103
108
116
125
133
139
146
154
159
164
167
169
173
176
174
169
167
167
166
163
158
156
155
152
148
145
142
138
134
129
125
122
118
115
113
112
109
108
109
112
113
115
118
122
125
128
133
136
139
144
146
146
146
146
145
143
139
137
136
136
136
136
136
139
144
146
146
146
146
146
146
146
146
146
146
147
148
150
152
153
152
150
149
148
146
145
143
139
137
136
136
136
136
137
139
143
145
146
147
149
152
153
154
153
152
150
148
146
144
142
140
138
136
134
132
129
126
125
125
125
125
125
128
133
136
139
144
148
152
155
156
156
156
155
152
148
144
138
133
128
123
118
115
115
114
112
108
106
105
104
103
101
98
97
97
98
101
103
105
107
109
112
114
115
115
115
115
115
115
115
115
115
113
109
106
105
105
105
105
105
105
105
105
105
105
106
109
113
115
115
117
122
124
122
118
115
113
111
108
105
103
102
102
102
102
103
104
105
106
108
112
113
114
115
115
115
113
110
108
108
108
108
109
105
107
111
113
114
115
115
115
116
117
117
117
117
117
117
117
115
113
111
107
102
97
92
87
85
83
82
82
82
83
86
91
95
101
107
115
123
132
138
146
154
159
164
167
169
173
174
173
169
167
167
165
160
157
156
154
150
147
144
140
136
132
127
122
118
113
109
108
106
104
103
105
107
109
112
115
119
123
128
133
136
138
142
145
146
146
146
144
140
137
136
136
136
136
136
136
139
144
146
146
146
146
146
146
146
146
146
147
149
152
154
155
156
155
154
153
152
148
146
145
142
138
136
136
136
136
137
141
145
146
146
148
152
155
156
156
156
155
154
152
149
147
145
144
142
139
137
135
133
129
127
126
125
125
125
128
133
136
139
144
147
150
154
156
156
155
153
149
146
142
138
133
128
123
118
115
115
115
114
112
109
107
106
105
104
103
103
103
103
105
107
109
112
113
115
117
118
118
118
118
118
118
117
116
115
114
112
109
107
106
105
105
105
105
105
105
105
105
105
107
111
114
115
117
121
124
124
122
118
116
115
113
111
109
108
108
108
108
109
111
113
113
114
116
117
117
116
115
115
113
108
105
105
105
105
106
115
115
115
115
115
115
115
114
113
113
113
113
113
113
113
111
108
106
104
102
97
92
87
84
82
80
77
76
77
81
84
87
92
98
105
112
119
128
136
145
152
158
164
167
168
169
169
169
168
167
166
163
158
156
156
154
149
146
144
139
134
129
124
119
114
109
105
103
101
99
99
102
104
106
109
113
118
123
128
133
136
137
140
144
146
146
146
144
139
136
136
136
136
136
136
136
139
143
146
146
146
146
146
146
146
146
146
148
152
155
156
156
156
156
156
156
154
150
147
146
143
138
136
136
136
136
137
140
144
146
146
149
153
156
156
156
156
156
156
155
153
149
147
146
145
142
138
136
135
134
131
127
125
125
126
129
134
136
139
143
146
148
152
153
153
152
149
147
144
140
136
132
127
123
118
115
115
115
115
114
113
111
109
108
108
107
107
107
108
109
112
115
117
118
119
122
123
123
123
123
123
123
122
119
117
116
115
113
111
108
106
105
105
105
105
105
105
105
105
106
108
112
114
116
119
123
125
124
122
119
118
117
116
115
115
115
115
115
116
117
117
118
119
121
122
121
118
116
115
113
108
105
105
104
103
103
122
121
119
117
116
115
114
112
109
108
107
107
107
106
105
104
102
98
96
94
91
87
83
80
77
75
74
73
74
77
81
84
88
95
102
108
116
125
134
142
149
156
163
166
167
167
167
167
167
166
164
160
157
156
156
153
149
146
144
138
134
128
123
118
113
108
103
99
96
95
95
98
103
105
108
113
117
123
128
133
136
136
139
144
146
146
145
142
138
136
136
136
136
136
136
136
138
142
145
146
146
146
146
146
146
146
146
149
153
156
156
156
157
158
157
156
155
152
148
145
142
138
136
136
136
136
136
138
142
145
146
149
153
156
156
156
156
156
156
156
154
151
147
146
146
143
138
136
136
136
134
129
126
125
127
132
135
136
138
142
145
147
148
149
148
148
146
144
142
137
133
128
125
121
117
115
115
115
115
115
115
114
113
113
113
113
113
113
115
116
118
122
123
125
126
127
128
128
128
128
128
128
126
124
122
119
117
116
114
112
108
106
105
105
105
105
105
105
105
105
106
109
113
115
118
123
125
125
124
123
123
121
120
121
122
122
122
123
123
123
123
123
123
124
125
124
122
118
116
113
109
106
105
103
99
97
125
124
123
121
117
115
113
109
106
105
103
103
101
98
97
96
95
92
91
87
84
81
77
75
74
73
73
73
73
74
77
82
86
91
98
105
113
122
129
137
145
153
159
163
165
166
167
167
166
164
160
157
156
156
155
152
148
146
144
138
134
128
123
117
113
107
103
97
95
94
94
97
102
105
108
113
117
123
128
133
136
136
139
144
146
146
144
140
137
136
136
136
136
136
136
136
137
139
142
144
144
145
146
146
146
146
146
149
153
156
156
157
159
161
159
157
156
153
148
144
140
137
135
134
133
134
135
137
139
143
145
148
152
155
156
156
156
156
156
155
153
149
147
146
145
142
138
136
136
136
134
131
127
125
128
133
136
136
137
139
143
145
146
146
145
144
142
140
137
133
128
124
121
118
116
115
115
115
115
115
115
115
116
117
117
117
118
119
122
125
126
128
129
133
135
136
136
136
136
135
134
134
132
129
127
124
122
118
116
114
112
108
106
105
105
104
103
103
104
105
105
108
113
115
118
123
125
125
125
125
125
124
124
124
125
125
126
127
128
128
128
128
128
128
127
126
124
122
118
115
111
107
105
103
97
95
127
126
125
122
117
114
111
107
104
102
98
97
96
93
92
91
88
86
84
81
78
75
73
71
71
71
71
71
72
73
75
80
84
88
95
102
109
117
124
132
140
147
154
157
160
163
164
164
163
160
157
156
156
155
153
149
147
146
144
138
134
128
123
118
113
108
103
98
95
94
95
97
103
106
109
113
118
123
128
133
136
136
139
144
146
146
144
139
136
136
136
136
136
136
136
136
136
137
138
139
140
142
143
144
144
145
146
148
152
155
156
158
161
164
161
158
156
153
148
143
138
135
133
129
128
129
132
134
136
139
143
146
149
152
154
155
156
155
154
152
149
147
146
145
143
139
137
136
136
135
133
129
126
125
127
132
135
136
136
137
139
142
143
143
142
140
137
135
132
128
123
119
116
114
113
113
113
114
115
115
115
116
118
121
123
124
125
126
129
133
135
136
137
139
142
143
144
144
143
142
140
139
137
135
132
129
127
123
118
116
114
111
107
105
105
103
99
99
102
104
105
108
113
115
118
123
125
125
125
125
125
125
125
125
126
127
129
132
133
133
133
133
133
133
132
129
126
124
121
117
113
108
105
103
99
96
131
127
125
123
117
113
109
106
103
98
95
94
91
88
87
85
83
80
77
75
73
71
70
67
66
66
66
67
70
72
74
77
82
86
91
98
105
112
119
127
135
142
148
152
155
157
159
159
158
157
156
156
155
153
149
147
146
146
144
139
134
129
124
119
114
109
105
102
98
97
97
99
103
107
112
115
119
123
128
133
136
136
139
144
146
146
144
139
136
136
136
136
136
136
136
136
136
136
136
136
137
138
139
139
140
143
145
147
150
154
156
157
159
161
159
157
155
152
146
140
136
133
129
126
125
126
127
129
133
136
139
143
146
148
150
152
153
152
150
148
147
145
144
142
139
137
136
135
134
132
129
126
125
125
126
129
133
135
136
136
137
138
138
138
137
135
132
129
127
123
118
114
112
109
108
108
109
112
114
115
116
118
122
125
127
129
133
135
137
139
142
144
146
147
148
149
149
149
149
148
147
146
143
140
137
135
132
128
123
118
116
113
109
106
105
103
99
97
100
104
105
108
113
115
118
123
125
125
125
125
125
125
125
125
127
131
134
135
136
136
136
136
136
136
135
132
127
125
123
118
113
109
106
104
103
101
133
128
125
123
117
113
108
105
102
97
94
92
88
85
84
81
77
75
73
71
70
67
65
64
63
63
63
64
67
71
73
75
80
84
88
95
102
108
114
122
129
136
142
146
149
152
154
154
154
154
154
153
152
149
147
146
146
146
144
140
136
132
127
122
118
113
108
105
103
103
103
103
105
109
114
118
122
125
129
134
136
136
139
144
146
146
144
139
136
136
136
136
136
136
136
136
136
136
136
136
136
136
136
136
137
139
143
145
148
152
155
156
157
158
157
155
153
149
143
137
133
128
124
123
123
123
123
125
128
133
136
139
143
145
147
148
148
148
147
145
144
142
140
138
136
134
133
132
129
127
126
125
125
125
125
126
129
133
135
136
136
135
134
134
132
129
127
124
121
118
113
109
107
105
104
105
106
108
112
114
117
121
124
127
132
135
138
142
144
146
148
150
152
154
156
156
156
156
156
154
154
152
149
146
143
140
137
133
128
123
118
115
112
107
105
104
102
100
102
104
105
108
113
115
118
123
125
125
125
125
125
125
125
125
127
131
134
135
136
136
136
136
136
136
135
132
127
125
123
119
115
112
108
106
105
104
133
128
125
123
117
113
108
105
102
97
94
91
86
84
82
77
74
73
70
67
65
64
63
63
63
63
63
63
66
71
73
74
77
82
86
91
97
103
109
117
123
129
135
139
144
147
148
149
149
149
149
149
148
147
146
146
146
146
145
143
139
135
130
127
123
118
113
109
108
107
107
108
109
113
118
122
125
129
133
135
136
137
140
144
146
146
144
139
136
136
136
136
136
136
136
136
136
136
136
136
136
135
135
135
136
137
139
143
146
149
153
155
156
156
155
153
149
145
139
133
128
123
119
118
117
118
119
122
124
128
133
136
139
143
145
146
146
145
144
142
140
138
136
134
132
129
128
127
126
125
125
125
125
125
125
125
126
129
132
133
133
132
129
128
126
124
122
118
115
112
108
104
103
101
100
101
103
105
109
113
117
122
126
129
135
139
143
146
149
152
154
156
158
160
163
164
164
164
163
160
159
157
155
153
149
146
143
139
133
128
123
118
114
109
106
105
104
104
104
105
105
108
113
115
118
123
125
125
125
125
125
125
125
125
126
127
129
132
133
133
133
133
133
133
132
129
126
125
124
121
117
114
112
108
106
105
131
127
125
123
117
113
109
106
102
97
93
89
85
83
80
75
73
71
67
64
63
63
63
63
63
63
63
64
67
71
73
73
76
82
85
88
93
98
105
112
118
123
128
133
138
142
144
145
146
146
146
146
146
146
146
146
146
146
146
145
143
139
135
132
128
123
118
115
114
113
113
114
115
118
122
125
129
133
135
137
138
140
143
145
146
146
144
140
137
136
136
136
136
136
136
136
136
136
135
134
133
132
131
132
133
134
136
139
143
146
149
152
153
153
152
149
146
142
135
128
123
118
114
113
113
113
114
117
119
124
129
134
137
139
143
145
144
142
140
138
137
135
133
129
127
125
123
123
123
123
123
123
123
123
124
125
125
126
127
128
128
127
125
123
122
119
116
113
108
105
102
98
97
96
95
96
98
102
106
112
116
122
126
132
137
142
146
149
153
156
159
163
164
165
166
168
169
169
168
166
165
163
160
158
156
153
149
144
139
133
128
123
118
113
108
106
105
105
105
105
105
108
113
115
118
123
125
125
125
125
125
125
125
125
125
125
126
127
128
128
128
128
128
128
127
126
125
125
125
122
117
115
114
112
109
107
127
126
125
123
118
115
111
107
103
97
94
91
86
82
77
74
72
69
65
63
63
63
63
63
63
63
63
65
69
72
73
74
77
82
84
87
92
96
102
108
113
118
123
128
133
137
140
142
144
144
145
146
146
146
146
146
146
146
146
146
145
143
140
137
133
129
125
122
119
118
118
119
122
124
127
129
133
136
138
140
142
144
145
146
146
146
145
143
140
139
138
137
136
136
136
136
136
135
133
129
128
127
126
127
128
129
132
135
138
142
145
147
148
148
147
145
142
136
129
123
118
113
109
108
107
108
109
112
117
122
127
132
135
137
139
141
140
138
137
136
135
133
129
126
124
122
119
118
118
118
118
118
118
119
121
123
124
125
125
125
124
123
121
119
116
114
112
108
103
98
96
93
92
92
92
92
94
98
104
109
114
119
126
133
138
144
148
152
156
159
164
166
167
169
170
171
173
174
173
171
169
169
167
165
163
159
154
149
144
139
133
128
122
116
112
108
106
105
105
105
106
109
113
115
118
123
125
125
125
125
125
125
125
125
125
125
125
125
125
125
125
125
125
125
125
125
125
125
124
121
117
115
115
114
113
111
125
125
125
123
119
116
113
109
104
98
95
92
86
82
76
73
71
67
64
63
63
63
63
63
63
63
64
67
71
73
74
77
81
83
84
87
92
95
98
104
109
114
118
123
128
132
135
137
138
140
142
144
145
146
146
146
147
148
149
149
148
147
145
143
139
136
133
129
126
126
126
126
128
129
133
136
138
140
142
144
145
146
146
146
146
146
146
145
144
144
142
140
138
137
136
136
135
133
129
126
125
123
123
123
123
124
127
129
133
136
139
142
143
143
142
139
135
129
123
118
113
108
104
103
103
103
105
109
114
119
124
129
134
136
137
137
137
136
136
135
133
129
126
124
122
118
116
115
115
115
115
115
115
116
117
119
121
122
123
122
121
119
117
115
112
109
106
102
98
94
91
88
87
87
87
88
91
96
101
106
112
117
125
133
138
144
148
154
158
163
166
168
170
173
175
175
176
177
176
175
175
174
173
171
168
164
159
154
149
144
139
133
126
119
115
112
108
106
105
105
107
111
114
115
118
122
125
125
125
125
125
125
125
124
123
123
123
123
123
123
123
123
123
123
123
123
123
122
121
118
116
115
115
115
115
114
125
125
125
124
122
118
115
111
106
101
96
92
87
82
77
74
71
67
64
63
63
63
63
63
63
64
66
70
73
74
77
81
83
84
84
87
92
94
97
103
107
111
115
118
123
127
129
132
134
136
138
140
143
145
146
146
148
152
153
154
153
152
150
147
145
142
139
137
136
136
136
136
136
137
139
142
144
144
145
146
146
146
146
146
146
146
146
146
146
146
145
144
142
138
136
136
134
129
125
123
121
119
118
117
118
119
122
124
127
129
133
135
136
136
135
133
128
123
118
113
108
103
98
97
97
98
102
106
112
117
123
128
133
136
136
136
136
136
136
135
131
127
125
123
119
116
115
115
115
115
115
115
115
115
115
116
117
118
118
118
117
115
113
111
108
105
102
98
94
91
87
85
84
84
84
85
88
93
98
104
109
116
125
132
138
144
148
154
159
164
167
169
173
176
177
177
177
177
177
177
177
177
176
175
173
169
164
159
154
149
144
137
129
123
118
115
112
108
106
105
108
113
115
115
117
121
124
125
125
125
125
124
123
121
119
118
118
118
118
118
118
118
118
118
118
118
118
118
117
116
115
115
115
115
115
115
128
128
128
127
125
122
118
114
109
104
98
93
88
84
80
75
72
69
65
63
63
63
63
64
65
67
70
73
75
77
81
83
84
84
85
88
92
94
96
101
105
108
112
115
118
122
125
127
129
132
134
136
139
143
145
146
149
153
156
156
156
155
154
152
150
148
146
144
144
144
144
144
144
144
145
147
148
148
148
148
147
146
146
146
146
146
146
146
146
146
146
146
143
139
136
135
132
127
123
119
116
114
113
113
113
114
115
118
121
123
125
127
128
128
127
125
122
118
113
108
103
98
95
94
94
95
98
104
109
115
121
127
133
136
136
136
136
136
136
135
132
127
125
123
118
115
115
115
115
114
113
113
114
115
115
115
115
115
115
115
114
112
109
107
105
102
98
94
91
87
84
82
81
81
82
84
86
91
96
103
108
115
123
129
137
144
148
154
159
164
167
169
173
176
177
177
177
177
177
177
177
177
177
177
176
174
169
164
159
154
149
142
135
128
122
117
114
112
108
107
109
113
115
115
116
119
123
125
125
125
125
123
119
117
116
115
115
115
115
115
115
115
115
115
115
115
115
115
115
115
115
115
115
115
115
115
133
133
133
132
129
125
122
118
112
106
101
96
91
86
81
76
73
71
67
64
63
63
64
66
70
71
73
77
80
82
84
85
86
87
88
91
93
94
95
98
103
106
108
112
115
118
121
123
125
127
129
133
136
139
143
146
148
153
156
156
156
156
156
155
154
154
152
150
149
148
148
148
148
148
150
152
153
154
153
152
150
148
147
146
146
146
146
146
146
146
146
146
144
140
137
134
129
125
121
116
112
109
108
107
107
108
109
112
115
117
119
122
123
123
122
119
116
113
108
103
98
94
92
92
92
94
97
103
108
114
119
126
133
136
137
138
138
137
136
136
133
128
125
123
119
116
115
115
115
114
112
112
114
115
115
115
115
115
114
113
111
108
106
104
102
98
94
91
87
84
81
77
76
76
78
82
85
88
94
101
107
115
122
128
136
143
148
154
159
164
167
168
170
174
176
177
177
177
177
177
178
179
180
180
179
177
174
169
164
159
153
146
139
133
125
119
116
114
112
110
111
114
115
115
115
117
121
124
125
125
124
122
117
115
115
115
115
114
113
113
113
113
113
113
113
113
113
113
114
115
115
115
115
115
115
116
136
136
136
135
133
129
125
121
115
109
103
97
92
86
82
76
73
72
70
67
66
66
67
70
73
75
77
81
84
86
87
88
90
92
92
93
94
94
94
97
102
105
106
108
112
115
117
119
121
123
125
129
133
136
140
144
148
152
155
156
157
158
159
159
159
159
158
156
155
154
154
154
154
154
154
155
156
156
156
155
154
152
149
147
146
146
146
146
146
146
146
146
145
142
138
134
128
123
119
114
109
105
103
103
103
103
104
106
109
112
114
116
117
117
116
114
112
108
103
98
94
91
88
87
89
92
97
103
107
113
118
126
133
136
138
142
142
139
137
136
134
129
126
124
122
118
116
115
115
115
113
113
114
115
115
115
114
113
111
109
107
106
104
102
98
94
91
87
84
81
77
74
73
73
75
80
83
87
93
98
106
113
119
126
135
142
147
152
157
163
166
167
168
170
173
175
176
177
177
177
178
182
184
185
183
179
176
173
168
163
156
149
143
135
127
122
117
115
114
111
110
112
114
115
115
116
118
122
124
125
124
120
116
115
115
115
115
113
110
108
108
108
108
108
108
108
108
109
111
113
113
114
115
115
115
117
139
139
139
138
137
133
128
124
118
112
105
97
92
86
82
76
73
73
72
71
71
71
71
73
77
80
82
84
87
90
92
92
94
94
94
94
94
94
95
98
103
105
105
106
108
111
113
115
117
119
122
125
129
133
137
142
146
150
154
156
158
162
164
164
164
164
164
163
160
159
159
159
159
159
159
159
159
158
157
156
156
155
153
150
149
149
149
149
149
149
148
147
146
143
138
134
128
123
117
112
106
102
98
97
97
97
98
101
104
106
109
112
113
113
112
109
107
104
98
95
92
88
85
85
87
92
97
103
107
113
119
126
133
137
140
144
145
143
139
137
135
133
129
126
124
122
119
118
117
116
115
115
115
115
115
115
113
109
107
106
105
104
102
98
95
92
88
85
82
77
74
73
73
73
74
77
82
86
92
97
105
113
118
125
133
139
145
150
155
159
163
165
166
168
169
171
174
176
177
177
178
180
184
187
185
180
177
175
171
165
158
152
145
137
129
123
118
115
113
109
107
108
112
114
115
115
116
119
123
125
124
122
117
115
115
115
115
113
108
105
105
105
105
105
105
105
105
106
107
108
109
112
114
115
115
118
144
144
144
143
142
137
132
126
121
114
105
97
92
86
82
77
74
73
73
73
73
74
75
77
81
84
86
88
91
94
96
97
97
97
97
97
97
97
98
102
104
105
105
105
106
107
109
111
113
115
118
122
125
129
133
139
144
148
154
156
159
164
166
167
167
167
167
166
165
164
164
164
164
164
164
164
164
162
158
156
156
156
155
154
154
154
154
154
154
153
152
149
147
144
138
134
128
123
116
109
104
98
95
94
94
94
95
96
98
102
105
107
108
108
107
106
105
102
97
94
92
87
85
85
88
92
97
103
108
115
121
127
133
138
142
145
146
145
143
139
137
135
133
129
127
125
123
123
121
119
117
116
115
115
115
115
113
108
105
105
105
103
98
95
93
90
86
84
81
76
73
73
73
73
74
77
82
86
92
97
104
111
117
123
129
136
142
147
152
155
158
160
163
165
166
168
170
173
175
176
177
178
181
184
183
179
177
176
173
166
159
154
146
138
132
125
118
115
113
108
105
106
108
112
114
115
115
117
121
124
125
123
119
116
115
115
115
113
108
105
105
105
105
105
104
103
102
103
104
105
106
108
112
114
115
118
148
148
148
146
144
140
134
128
122
115
105
97
92
87
83
80
75
73
74
75
76
77
80
83
86
88
91
94
96
98
101
102
103
103
103
103
102
102
103
104
105
105
105
105
105
105
106
107
109
112
114
118
122
125
129
136
142
147
152
155
158
163
166
167
167
167
167
167
167
167
167
167
167
167
167
167
167
165
160
157
156
156
156
156
156
156
156
156
156
156
155
152
148
144
140
134
128
123
115
108
103
97
94
93
92
92
93
94
95
98
103
105
105
105
105
105
105
102
97
94
92
89
87
88
91
94
97
103
108
115
123
128
134
138
143
146
146
146
145
143
139
137
135
134
132
129
128
127
125
123
122
119
117
116
115
115
113
109
106
105
105
102
97
94
92
88
85
84
81
76
73
73
73
73
75
80
83
87
92
97
103
109
115
121
127
133
139
143
147
150
153
155
158
160
163
164
166
168
171
173
175
176
178
179
179
178
177
176
173
166
159
154
146
139
133
125
118
115
112
108
105
105
106
108
112
114
115
116
119
123
125
124
122
118
116
115
115
113
109
106
105
105
105
104
102
98
97
98
101
103
104
106
109
113
115
118
154
153
152
148
145
142
135
127
121
114
105
96
91
86
84
81
77
76
77
80
81
83
85
88
91
95
98
101
103
104
106
107
107
107
107
107
106
105
105
105
105
105
105
105
105
105
105
105
106
107
109
113
118
122
127
133
139
144
149
154
157
160
165
167
167
167
167
168
169
169
169
168
167
167
167
167
167
166
162
158
156
156
156
156
156
156
156
156
156
156
156
154
150
146
142
135
128
123
115
108
103
97
94
91
88
88
91
93
94
97
102
105
105
105
105
105
105
103
98
95
94
92
92
92
93
95
98
104
109
116
123
128
134
138
144
146
146
146
146
145
143
139
137
136
135
134
134
132
129
128
126
124
122
119
117
116
114
112
108
106
105
102
97
94
92
88
85
84
82
77
74
73
73
74
77
82
84
87
92
97
103
108
113
119
124
129
135
139
143
145
147
150
152
154
156
158
160
163
166
168
171
173
175
176
177
177
177
175
171
165
159
154
146
139
133
126
118
114
111
107
105
105
105
106
108
112
114
115
118
123
125
125
124
122
118
116
115
114
111
107
105
105
105
103
98
95
94
95
96
98
102
104
107
111
114
118
156
156
153
148
145
142
135
126
118
112
104
95
88
85
84
82
79
80
82
83
85
87
91
94
98
101
104
106
107
109
112
113
113
113
113
112
109
108
108
108
108
107
106
105
105
105
105
105
105
105
106
108
113
118
123
129
135
140
146
152
156
159
164
167
167
167
167
169
173
174
173
170
168
167
167
167
167
165
160
157
156
155
154
154
154
155
156
156
156
156
156
155
152
148
143
137
129
123
115
108
103
97
92
88
85
85
88
92
94
97
102
105
105
105
105
105
105
104
102
98
95
94
94
94
95
98
102
106
112
117
123
128
134
138
144
146
146
146
146
146
145
143
140
139
139
138
138
137
135
134
132
129
127
124
121
118
116
114
112
108
106
103
98
95
93
91
87
85
83
81
77
76
76
77
81
83
85
88
93
97
103
107
113
117
122
127
131
135
137
140
143
144
146
148
150
153
155
158
160
163
166
168
171
173
174
174
174
173
169
164
158
152
146
138
133
125
118
113
109
106
105
105
105
105
106
109
113
115
118
122
125
125
125
124
121
117
115
115
113
109
106
105
105
103
98
95
94
94
94
95
98
103
106
109
113
117
156
155
152
148
144
139
133
125
116
108
102
94
87
84
83
82
82
83
84
86
88
92
97
101
104
106
109
112
113
115
117
117
117
117
117
117
115
114
113
113
113
111
109
107
106
105
105
105
105
105
105
106
109
114
119
126
132
138
144
150
154
158
163
166
167
167
167
170
174
177
176
173
169
167
167
167
166
163
158
156
154
152
150
149
150
152
154
155
156
156
156
156
153
148
144
138
132
125
116
108
103
97
92
87
84
84
87
92
94
97
102
105
106
107
108
108
108
107
105
102
99
97
97
97
98
102
105
109
114
119
124
129
134
138
144
146
146
146
146
146
146
145
144
144
144
144
143
142
140
138
137
135
132
128
125
122
118
116
114
112
108
105
102
98
95
93
91
87
85
83
82
81
81
82
83
85
87
91
94
98
103
107
113
116
119
124
127
129
132
135
137
138
140
142
144
146
149
152
154
156
160
163
165
166
168
169
169
168
165
162
156
150
144
138
132
125
118
113
108
105
105
105
105
105
105
107
111
114
117
121
124
125
125
125
122
118
115
115
114
112
108
106
105
104
101
96
94
94
94
94
97
103
105
108
113
118
155
153
149
146
142
136
129
122
113
105
98
91
86
83
81
81
83
84
86
90
93
97
102
106
109
112
115
117
119
121
123
123
123
123
123
123
121
119
118
117
117
115
113
112
109
107
106
105
105
105
105
105
108
113
118
124
129
137
144
148
154
157
160
165
167
167
167
170
174
177
176
173
169
167
167
166
164
159
156
153
150
148
147
146
147
148
150
153
155
156
156
155
152
148
144
138
133
125
116
109
103
97
92
88
85
85
88
92
95
98
103
106
108
112
113
113
113
112
109
107
105
103
103
103
104
106
109
113
118
122
127
132
135
138
143
146
146
146
146
146
146
146
146
146
146
146
146
145
144
144
142
139
136
133
129
125
122
118
116
114
112
108
105
102
98
95
93
91
87
85
84
84
84
84
85
87
91
93
96
101
104
108
113
115
117
121
123
125
127
129
132
133
134
135
137
139
143
145
147
149
153
156
157
158
160
163
164
163
160
157
153
147
142
136
129
123
117
113
108
105
104
103
103
104
105
106
109
113
116
118
122
124
125
125
122
118
115
115
115
114
112
108
106
105
103
98
95
94
94
95
98
103
106
109
114
119
152
149
146
143
138
132
124
117
109
101
93
88
84
81
79
81
83
85
88
93
98
102
108
112
115
118
121
123
125
127
128
128
128
128
128
128
127
125
124
123
122
119
118
116
114
112
108
106
105
105
105
105
108
113
117
123
128
136
144
148
154
156
159
164
167
167
167
169
173
174
173
170
168
167
166
163
159
156
153
149
146
144
144
144
144
145
147
149
152
154
155
153
149
147
144
138
133
125
117
111
104
97
94
91
88
88
91
94
98
102
105
108
113
116
117
117
117
117
115
113
112
109
108
108
109
112
114
118
122
125
129
134
136
138
142
145
146
146
146
146
146
146
146
146
146
146
146
146
146
146
145
143
140
137
133
129
125
122
118
116
114
112
108
105
102
98
96
94
91
88
87
87
87
87
88
91
93
95
98
103
105
108
112
115
116
117
119
121
123
124
125
126
126
127
129
133
135
137
139
143
145
146
148
152
154
156
156
156
154
152
149
145
140
134
127
122
116
112
107
105
103
99
99
103
105
105
108
113
115
116
118
122
124
124
121
117
115
115
115
115
114
112
108
106
104
102
98
96
96
98
102
104
107
112
116
122
148
146
143
138
133
127
119
112
105
97
89
84
81
77
77
82
85
87
92
97
102
108
113
118
122
125
127
129
132
133
134
134
134
134
134
134
133
132
129
128
127
125
123
122
119
116
113
109
107
106
105
105
108
113
117
123
128
136
144
148
154
156
159
164
167
167
167
168
169
169
169
168
167
166
163
159
155
152
149
145
142
140
138
138
140
142
144
146
148
150
151
149
147
146
144
138
133
126
118
113
105
97
94
93
92
92
94
98
102
105
108
113
118
121
123
123
123
123
121
119
117
116
115
115
116
117
119
122
125
129
133
135
136
137
139
142
143
144
144
144
144
144
144
145
146
146
146
147
148
148
148
146
144
142
137
133
129
125
122
119
117
115
112
108
105
103
101
98
96
93
92
92
92
92
92
94
95
98
102
104
105
107
111
114
115
115
116
117
117
117
118
118
119
122
123
125
126
129
133
135
136
137
140
144
146
147
148
149
148
147
145
142
137
132
125
119
114
109
106
105
103
99
99
103
105
105
108
113
115
115
116
118
121
121
118
116
115
115
115
115
115
114
111
107
105
104
103
101
100
102
104
106
109
114
119
125
144
142
138
133
128
122
115
108
102
94
87
82
78
75
78
82
86
91
97
102
108
113
118
123
128
132
134
136
138
138
138
138
138
138
138
138
138
138
136
134
133
132
129
127
124
122
118
114
112
109
108
108
110
114
118
123
128
136
144
148
154
157
160
165
167
167
167
167
167
167
167
167
166
163
159
154
150
147
144
139
136
134
134
134
134
136
139
142
144
146
147
147
146
146
143
138
133
126
118
113
106
99
95
94
94
95
98
102
105
108
113
118
123
126
128
128
128
128
127
125
124
123
123
123
123
123
124
127
129
133
135
136
136
136
137
138
139
139
139
139
139
139
140
143
145
146
146
148
152
153
152
148
146
144
140
136
133
129
125
123
121
118
115
112
109
107
105
103
101
98
97
97
97
97
97
97
98
102
104
105
105
106
108
111
112
113
113
113
113
113
113
113
113
115
115
116
118
122
125
126
126
129
133
135
137
139
142
144
144
143
140
137
133
128
124
118
113
109
106
105
104
103
103
104
105
105
108
113
115
115
115
116
117
117
116
115
115
115
115
115
115
115
113
109
107
106
105
104
104
104
106
108
112
117
122
129
138
137
133
128
123
118
112
105
98
91
86
82
78
78
81
84
88
95
102
108
113
118
123
128
133
137
140
142
144
144
144
144
144
144
144
144
144
144
142
140
138
138
136
133
129
127
123
119
116
114
113
113
114
115
119
124
129
137
144
150
154
158
163
166
167
167
167
167
167
167
167
166
164
159
155
150
146
143
139
134
130
128
128
128
128
129
133
137
140
143
145
146
146
145
142
138
133
126
119
113
107
102
98
95
95
98
102
105
108
113
118
123
128
132
134
135
135
134
133
132
129
128
128
128
128
128
129
132
134
135
136
136
136
136
136
136
136
136
136
136
136
136
137
139
143
145
146
148
153
155
154
150
147
145
142
138
135
133
129
126
124
122
119
116
114
112
109
108
106
104
103
103
103
103
102
102
103
104
105
105
105
105
106
107
108
108
108
108
107
107
107
107
107
108
108
109
112
114
115
116
117
122
125
126
128
132
135
137
138
138
136
133
129
126
123
118
114
111
107
105
105
105
105
105
105
106
109
113
115
115
115
115
115
115
115
115
115
115
115
115
115
115
114
113
111
108
106
105
105
106
108
112
115
119
125
132
135
133
129
124
119
114
108
102
95
88
85
83
82
82
84
87
92
99
106
113
118
123
128
133
138
142
144
146
148
148
148
148
148
148
148
148
148
148
146
144
144
144
142
139
136
133
129
125
122
119
118
117
118
119
122
127
133
139
146
152
156
160
165
167
167
167
167
167
167
167
167
165
160
156
152
147
143
138
133
129
125
123
123
123
123
124
128
132
135
139
142
143
143
142
139
137
133
127
121
115
109
105
102
99
99
102
105
108
113
118
124
129
133
137
140
142
142
140
138
136
134
133
133
133
133
133
134
135
136
136
136
136
136
136
136
135
134
133
133
133
133
133
134
136
139
143
145
148
152
155
155
152
148
146
144
140
137
135
133
129
127
125
123
122
119
117
115
113
112
109
108
107
107
107
106
105
105
105
105
105
105
105
105
105
105
105
105
104
103
103
103
103
102
102
102
103
104
105
106
107
110
113
115
116
119
124
126
129
132
133
132
129
126
125
123
118
115
113
109
106
105
105
105
106
107
109
112
114
115
115
115
115
115
115
115
115
115
115
115
115
115
115
115
115
114
112
109
108
108
109
112
114
117
122
127
134
134
129
125
121
116
112
105
98
93
87
84
84
84
85
87
92
97
104
112
118
123
128
133
139
144
147
148
150
152
153
154
154
154
154
154
154
153
152
150
149
148
148
147
145
142
139
135
132
128
124
123
123
123
123
125
129
136
143
149
155
159
164
166
168
169
170
170
169
168
167
167
164
159
154
150
145
139
134
128
124
122
119
118
117
118
119
123
127
129
133
137
138
139
138
137
136
133
128
123
117
112
108
105
103
104
106
109
113
118
124
131
135
139
142
144
145
145
144
142
139
137
136
136
136
136
136
136
136
136
136
136
136
136
136
135
133
129
128
128
128
128
128
129
133
136
139
143
146
149
152
153
152
148
146
145
142
138
136
135
134
132
129
128
126
124
123
121
119
117
115
114
113
113
111
109
108
108
108
108
108
107
106
105
105
105
105
104
102
98
97
97
96
95
95
95
95
95
97
98
101
103
105
107
109
113
117
119
123
126
128
127
126
125
125
123
119
116
115
112
109
108
108
108
109
111
113
115
116
117
118
118
118
117
116
115
115
115
115
115
115
115
115
115
115
115
114
113
113
113
113
114
116
119
124
129
136
133
128
123
119
114
109
103
97
92
87
84
84
85
87
92
97
103
109
117
123
129
135
139
144
148
152
154
154
155
156
156
156
156
156
156
156
156
155
154
154
154
153
152
150
147
144
140
137
133
129
127
126
126
127
129
134
139
146
152
158
163
167
169
171
173
174
174
173
170
168
167
164
159
154
148
143
136
129
124
120
117
114
113
113
113
114
118
122
125
129
133
135
136
136
136
136
133
128
123
119
115
112
109
108
109
111
114
118
123
129
135
139
143
147
148
148
148
147
145
143
139
137
136
136
136
136
136
136
136
136
136
136
136
135
133
129
125
123
123
123
123
123
124
128
133
136
139
143
146
148
148
148
147
146
146
144
140
137
136
136
135
134
133
132
129
128
126
124
123
121
119
117
117
115
113
113
113
113
113
112
111
107
105
105
105
104
102
98
95
94
92
91
88
87
87
87
88
91
92
94
95
98
101
104
108
112
115
118
122
125
125
125
125
125
124
122
119
117
115
113
113
113
113
113
115
117
118
119
121
122
123
122
121
118
116
115
115
115
115
115
115
115
115
115
115
115
115
115
115
115
115
117
122
126
132
138
133
128
123
118
113
108
103
97
92
87
85
85
87
91
96
102
108
115
122
128
135
141
145
149
153
155
156
156
156
156
156
156
156
156
156
156
156
156
156
156
156
156
155
154
152
149
145
142
139
135
132
129
129
132
135
139
144
149
155
160
166
170
173
175
176
177
177
176
173
169
167
164
159
154
147
140
134
128
123
118
114
110
108
108
108
109
113
118
122
125
129
133
135
136
136
136
134
129
125
122
118
115
113
113
113
115
118
123
128
133
139
143
147
152
153
153
152
149
147
145
142
138
136
136
136
136
136
136
136
136
136
136
135
133
129
125
122
119
118
117
117
118
119
123
128
133
136
140
144
146
146
146
146
146
146
145
143
140
139
139
139
138
138
136
134
134
132
129
128
126
124
123
121
119
117
116
115
115
115
115
112
108
105
105
104
102
98
94
92
90
88
85
83
82
82
82
82
84
86
87
88
92
96
98
103
108
112
115
119
123
125
125
125
125
125
124
123
121
119
118
117
117
117
118
119
121
123
123
125
125
125
125
124
122
118
116
115
115
115
115
115
115
115
115
115
115
115
115
115
115
115
118
123
128
133
139
133
128
123
117
113
107
103
97
92
89
87
88
91
94
99
107
114
122
128
133
139
145
149
153
155
156
156
156
156
156
156
156
156
156
156
156
156
156
156
156
156
156
156
156
155
153
149
146
143
140
137
135
134
136
139
144
149
154
159
164
170
174
176
177
177
177
177
177
175
171
168
164
159
154
147
140
134
128
123
117
112
107
105
105
105
106
108
113
118
122
125
129
133
135
136
136
135
132
127
124
122
118
116
116
117
119
122
127
132
137
142
146
150
154
156
156
155
152
148
146
143
138
136
136
136
136
136
136
136
136
136
135
133
129
125
122
118
114
113
113
113
113
114
118
123
128
133
137
142
145
146
146
146
146
146
146
145
144
144
144
144
143
142
140
139
138
137
135
134
132
129
127
125
123
121
118
116
115
115
115
112
108
105
105
103
98
94
91
88
86
84
81
77
76
76
76
76
78
80
82
84
87
91
94
98
104
109
113
118
123
125
126
127
128
128
127
126
125
123
123
123
123
123
123
123
125
127
128
128
128
127
126
125
124
122
118
116
115
115
115
115
115
115
115
115
115
115
115
115
115
115
118
123
128
134
139
133
128
123
117
113
107
103
97
94
92
92
92
94
98
104
112
118
125
133
139
144
149
153
155
156
156
156
156
156
156
156
156
156
156
156
156
156
156
156
156
156
156
156
156
156
155
153
149
146
144
142
140
139
140
144
149
154
159
164
169
174
176
178
179
180
179
178
177
176
173
169
165
159
154
148
142
135
128
123
116
109
106
104
103
103
104
106
108
113
118
122
125
129
133
135
136
136
134
129
126
124
122
119
119
121
123
125
129
134
138
144
147
151
155
156
156
155
152
148
145
142
138
136
136
136
136
136
136
136
136
136
134
129
125
122
118
113
109
108
107
107
108
109
113
118
123
128
133
139
143
145
146
146
146
146
146
146
146
146
146
146
146
145
144
144
143
142
140
138
136
134
132
129
127
125
122
118
116
115
114
111
107
105
104
101
96
92
88
84
82
80
77
73
72
71
71
72
73
75
77
81
84
88
93
97
103
108
113
118
123
126
129
132
133
133
132
129
128
128
128
127
126
126
127
128
129
132
133
133
133
132
129
126
125
124
121
117
115
115
115
115
115
115
115
115
115
115
115
115
115
115
118
123
128
133
139
134
129
124
117
113
107
103
97
94
94
94
94
96
102
108
115
122
129
137
143
148
153
155
156
156
156
156
156
156
156
156
155
154
154
154
155
156
156
156
156
156
156
156
156
156
156
155
153
149
147
145
144
144
145
149
153
158
163
168
173
177
179
181
184
185
184
181
179
178
175
171
166
160
155
150
144
137
129
123
116
109
106
103
99
99
102
104
106
109
114
118
122
125
129
134
136
136
135
132
127
125
124
123
123
124
125
127
132
135
138
144
146
149
153
155
155
153
149
147
144
140
137
136
136
136
136
136
136
136
136
135
132
127
123
118
113
108
105
103
103
103
103
105
109
114
119
124
129
135
139
143
145
146
146
146
146
146
146
146
146
146
146
146
146
146
146
145
144
142
140
138
136
134
131
127
124
121
117
114
112
108
106
104
102
98
94
90
85
81
77
75
72
70
67
66
66
67
70
71
73
77
82
87
92
97
103
108
114
119
124
128
133
135
136
136
135
134
134
133
133
132
129
129
132
133
134
135
136
136
136
135
133
129
126
125
122
118
115
115
115
115
115
115
115
115
115
115
115
115
115
115
118
123
127
132
138
135
132
125
118
113
107
103
97
94
94
94
95
99
105
112
118
126
134
142
147
152
155
156
156
156
156
156
156
156
155
154
152
150
149
150
152
154
155
156
156
156
156
156
156
156
156
156
155
153
149
147
146
147
149
153
156
160
166
171
175
179
183
186
187
188
187
186
183
179
176
173
168
163
158
152
146
139
133
125
117
112
107
103
99
96
98
102
104
107
112
115
119
123
127
132
135
136
136
134
129
126
125
125
125
125
125
128
133
136
138
142
145
147
149
152
152
149
147
145
142
138
136
136
136
136
136
136
136
136
136
134
129
125
121
115
109
105
102
98
97
97
98
102
106
112
117
123
128
134
137
139
143
145
146
146
146
146
146
146
146
146
146
146
146
146
146
146
146
145
144
142
138
136
133
128
124
121
117
113
109
106
104
102
98
94
91
87
81
77
73
70
67
65
62
61
61
62
65
67
70
75
80
86
92
97
103
109
115
121
127
132
136
138
139
139
139
138
138
137
136
135
134
134
135
136
136
137
138
138
137
136
135
132
127
125
123
118
115
115
115
115
115
115
115
115
115
114
113
113
114
115
117
121
125
129
136
138
134
126
119
113
107
103
97
94
94
95
98
103
108
115
122
129
136
144
148
154
156
156
156
156
156
156
156
155
153
150
148
147
146
147
148
150
152
154
155
156
156
156
156
156
156
156
156
155
153
150
149
150
153
156
160
164
168
173
177
181
186
188
188
188
188
188
186
181
178
175
171
166
160
154
148
142
135
126
119
113
108
104
101
97
96
99
103
106
109
113
117
121
125
129
134
136
136
135
133
129
126
125
125
125
125
127
132
135
137
139
143
145
147
148
148
146
144
142
139
137
135
134
133
134
135
136
136
136
135
132
127
123
118
112
106
102
98
95
94
94
95
98
104
109
115
121
127
133
136
137
140
144
146
146
146
146
146
146
146
146
146
146
146
146
146
146
146
146
146
143
139
136
133
128
123
119
115
111
107
104
102
97
93
90
87
82
76
72
69
66
62
60
57
56
56
57
60
63
67
72
77
85
92
97
104
111
117
123
129
135
139
142
144
144
144
144
142
140
139
138
137
136
136
137
138
140
142
142
139
137
136
133
128
125
123
118
115
115
115
115
115
115
114
113
113
111
109
109
111
113
115
118
122
127
133
142
135
127
121
115
108
103
98
95
95
96
101
106
112
117
125
132
138
144
150
154
156
156
156
156
156
156
155
153
149
147
146
146
146
146
146
147
148
150
153
155
156
156
156
156
156
156
156
156
155
154
154
154
156
160
164
167
171
176
180
185
187
188
188
188
188
188
187
184
179
176
173
168
163
156
150
144
137
129
122
115
109
106
103
99
97
99
103
105
107
112
115
119
123
127
132
135
136
136
135
132
127
125
125
125
125
126
129
133
135
137
139
142
144
144
144
142
140
138
136
134
132
129
128
129
133
135
136
135
133
129
125
121
115
109
104
98
95
94
94
94
94
97
103
108
114
119
126
133
136
136
138
142
145
144
144
144
144
144
145
146
146
146
146
146
146
146
146
146
146
143
139
136
133
128
123
117
113
109
105
102
97
92
88
85
81
76
71
66
63
60
56
53
51
51
51
53
56
60
65
70
76
84
92
97
105
113
119
126
132
137
142
145
147
148
148
148
146
144
144
142
140
139
139
140
142
144
145
145
142
138
136
133
128
125
123
118
115
115
115
115
114
113
111
109
108
107
106
106
107
109
112
115
119
124
129
143
136
128
123
116
109
105
102
98
97
99
103
108
113
119
126
134
140
146
152
155
156
156
156
156
156
156
154
150
147
146
145
144
144
144
144
145
146
147
149
153
155
156
156
156
156
156
156
156
156
157
158
159
160
164
167
170
174
179
184
187
188
188
188
188
188
188
188
186
181
178
175
171
166
160
153
146
139
133
125
118
113
108
105
103
103
103
104
105
106
110
114
118
123
126
129
134
136
136
136
133
128
125
125
125
125
125
126
129
132
134
136
138
138
139
139
138
137
135
133
129
127
126
125
126
129
134
136
134
129
126
123
119
113
108
103
97
94
94
94
94
94
97
103
107
113
118
126
133
136
136
137
139
141
140
139
139
139
140
142
144
145
146
146
146
146
146
146
146
145
142
138
135
132
126
122
116
112
106
102
97
92
87
84
81
76
71
66
61
57
54
51
47
45
45
46
49
52
56
62
67
74
84
92
97
105
115
122
129
135
140
145
148
150
152
153
152
150
148
147
145
144
144
144
144
145
146
146
146
143
139
136
133
128
125
123
118
115
115
114
113
111
109
107
106
105
104
103
103
104
106
108
112
116
122
127
143
136
128
123
117
112
107
104
103
103
103
105
109
115
121
127
135
142
147
152
155
156
156
156
156
156
155
152
148
146
146
144
140
139
139
140
143
145
146
147
150
154
156
156
156
157
158
159
159
159
160
163
164
165
167
170
174
177
181
186
188
188
188
188
188
188
188
188
187
184
179
176
173
168
163
156
149
143
136
129
122
116
112
108
106
105
105
105
105
107
112
115
118
123
125
128
133
136
136
136
134
129
126
125
125
125
125
125
126
127
129
132
134
135
136
136
136
136
134
129
126
125
125
125
126
129
134
136
133
128
125
123
118
113
107
101
96
94
94
94
94
94
97
103
108
114
119
126
133
136
136
136
137
137
137
136
136
136
137
138
140
142
143
144
144
145
145
144
144
142
139
137
134
129
124
119
114
108
102
97
92
87
84
81
76
71
66
61
56
52
49
45
41
40
40
41
44
47
53
60
65
74
84
92
98
106
115
125
132
137
143
148
152
154
155
156
155
154
152
149
147
146
146
146
146
146
146
146
146
144
139
136
133
128
125
123
118
115
115
113
109
107
106
104
103
102
101
98
98
101
103
105
108
113
118
123
142
136
129
124
119
114
109
106
105
105
106
108
112
117
123
128
136
143
147
150
154
156
156
156
156
156
154
150
147
146
146
144
139
137
137
137
140
144
146
146
149
154
156
157
158
160
163
164
165
165
166
168
169
170
171
174
177
181
185
187
188
188
188
188
188
188
188
188
188
185
180
177
175
171
166
160
153
146
139
133
126
119
115
112
109
108
108
108
108
109
113
116
119
123
126
129
134
136
136
136
135
132
127
125
125
125
125
125
125
125
126
127
129
132
134
135
136
136
133
128
126
125
126
127
129
133
135
136
133
128
125
123
117
113
106
100
96
94
94
94
94
95
98
104
109
115
121
127
133
136
136
136
136
136
136
136
136
136
136
136
137
138
139
139
140
142
142
140
139
138
137
135
132
127
122
116
111
105
98
93
88
84
81
77
72
67
62
57
52
47
44
40
36
35
35
36
40
44
50
57
64
74
84
94
102
108
116
125
134
140
146
152
155
157
158
159
159
158
156
153
150
148
147
146
146
146
146
146
146
144
139
136
133
128
125
122
118
115
114
111
107
105
104
102
98
97
96
95
95
96
98
102
105
109
114
119
138
136
132
126
122
116
112
109
108
108
109
112
115
119
124
129
137
143
146
149
154
156
156
156
156
156
154
149
146
146
146
144
140
139
139
139
141
144
146
147
150
154
157
160
163
165
167
169
169
170
171
174
175
175
175
177
181
185
187
188
188
188
188
188
188
188
188
188
188
186
181
178
176
173
168
163
156
148
142
136
129
123
119
116
114
113
113
113
113
114
115
118
122
125
127
132
135
136
136
136
136
134
129
126
125
125
125
124
124
124
125
125
126
127
129
133
135
136
134
130
128
128
129
132
134
135
136
136
133
128
125
123
117
113
107
101
96
94
94
94
94
96
101
106
112
117
123
128
133
136
136
136
136
136
136
136
136
136
135
134
134
135
136
136
137
138
138
137
136
136
135
133
128
124
119
114
108
102
96
91
86
82
77
73
70
65
60
54
49
44
40
36
33
32
32
33
36
41
47
54
64
74
84
95
104
112
118
126
135
143
149
154
157
160
163
164
164
163
160
156
154
152
149
147
146
146
146
146
146
144
139
136
133
128
125
121
117
115
113
109
106
104
102
98
95
94
94
94
94
94
95
98
102
106
112
116
136
135
132
127
123
119
115
113
113
113
113
115
118
122
127
132
138
144
146
149
154
156
156
156
156
156
154
150
147
146
146
145
144
144
144
144
144
146
147
149
153
156
160
164
167
169
171
174
175
177
178
179
180
180
180
181
185
187
188
188
188
188
188
188
188
188
188
188
188
187
184
179
177
175
169
164
157
150
145
139
134
128
124
122
119
118
117
117
117
118
119
122
125
127
130
134
136
136
136
136
136
135
132
127
125
125
125
123
121
122
124
125
125
125
127
131
135
136
135
134
133
134
134
135
136
136
136
136
134
129
126
123
117
113
107
103
97
94
94
94
94
97
103
107
113
117
123
128
133
136
136
136
136
136
136
135
134
133
132
129
129
132
133
133
133
134
134
135
134
133
132
129
125
121
116
112
105
98
93
88
84
80
75
71
67
62
57
52
46
41
36
33
32
30
30
32
34
39
45
54
64
74
84
95
105
114
122
129
137
145
152
156
160
164
166
167
167
166
164
160
157
155
153
149
147
146
146
146
146
143
139
136
133
128
123
119
116
115
113
108
105
103
98
95
94
93
92
92
92
92
94
95
98
104
109
114
135
133
129
126
124
122
119
118
117
117
118
119
122
125
129
134
138
144
146
149
154
156
156
156
156
156
155
153
149
147
146
146
146
146
146
146
146
147
149
153
156
160
164
167
170
173
176
179
181
184
185
185
185
185
185
186
187
188
188
188
188
188
188
188
188
188
188
188
188
188
186
181
178
175
171
166
160
154
149
144
139
133
129
127
125
124
123
123
123
124
125
127
129
132
134
136
138
139
139
139
138
137
134
129
126
125
125
123
119
119
123
125
125
125
127
132
135
136
136
136
137
138
138
139
139
139
138
137
135
132
127
123
117
113
107
103
97
94
94
94
95
98
104
109
113
118
123
128
133
136
136
136
136
136
135
133
129
128
127
126
126
127
128
128
128
128
129
131
129
128
127
125
122
118
114
109
103
97
92
87
83
79
74
71
66
61
56
51
45
40
35
32
30
27
27
30
33
36
44
54
64
74
84
95
105
115
125
132
138
146
153
158
163
166
167
167
167
167
166
164
160
157
155
153
149
147
146
146
145
142
138
135
132
127
123
118
115
114
111
107
105
102
97
94
93
91
88
87
87
89
92
94
97
103
108
113
132
129
126
125
125
125
123
123
123
123
123
123
125
129
133
136
139
144
146
149
154
156
156
156
156
156
156
155
153
150
149
149
149
149
149
149
149
150
153
156
160
164
167
170
174
177
180
184
186
187
188
189
189
188
188
188
188
188
188
188
188
188
188
188
188
188
188
188
188
188
187
185
181
177
173
168
163
157
153
147
143
139
135
134
132
129
128
128
128
129
132
133
134
136
138
140
142
143
144
143
142
139
136
133
129
126
125
123
120
120
123
125
125
126
129
134
136
137
138
139
140
142
144
144
144
143
142
139
136
133
128
123
117
113
107
103
98
95
94
95
98
102
106
111
115
119
123
127
132
135
136
136
135
134
132
129
126
125
125
125
125
125
125
125
125
125
126
127
126
125
125
123
119
116
113
108
103
97
92
87
83
80
75
71
67
62
57
51
45
40
35
32
30
26
27
30
32
35
43
53
64
74
84
95
105
115
125
134
140
147
154
159
164
167
168
169
169
169
168
166
164
160
157
155
152
148
146
146
144
140
137
134
129
126
123
118
115
113
109
106
104
101
96
94
92
88
85
84
85
87
92
94
97
103
108
113
127
126
125
126
127
128
128
128
128
128
128
128
129
133
135
137
140
144
146
149
154
156
156
156
156
156
156
156
155
154
154
154
154
154
154
154
154
154
156
160
164
167
170
174
177
180
185
188
190
191
192
193
192
191
190
189
188
188
188
188
188
188
188
188
188
188
188
188
188
188
188
187
184
179
175
171
166
160
155
150
147
144
140
139
138
137
136
136
136
137
138
138
139
140
143
144
145
146
146
146
145
143
139
136
133
129
126
125
123
123
124
125
126
129
133
136
138
140
143
144
144
146
148
148
147
146
145
142
138
134
128
123
117
113
108
104
102
98
97
98
102
105
109
113
117
121
124
126
129
134
136
135
133
129
127
126
125
125
124
123
123
123
123
123
124
125
125
125
125
125
124
121
117
115
113
107
103
97
92
87
84
82
77
73
70
65
60
53
47
41
36
33
31
28
29
32
33
37
44
54
64
74
84
95
105
115
126
135
142
148
154
159
164
167
169
173
174
173
170
168
166
163
158
156
153
149
146
146
144
139
136
133
128
125
123
118
115
113
108
105
103
98
95
94
92
87
84
84
85
88
92
95
98
104
109
113
125
125
126
129
132
133
134
134
134
134
134
134
135
137
139
140
143
145
146
149
154
156
156
156
156
156
156
156
156
156
156
156
156
156
156
156
156
156
158
163
166
169
173
176
179
184
187
190
194
195
196
197
196
195
194
191
189
188
188
188
188
188
188
188
188
188
188
188
188
188
188
188
186
181
177
174
170
164
159
155
152
149
147
146
144
144
144
144
144
144
144
144
144
145
147
148
149
149
149
149
148
146
143
139
136
133
129
126
125
125
126
127
129
133
136
139
142
145
147
148
149
150
152
152
150
148
146
144
138
134
128
123
117
113
108
105
104
103
102
103
104
107
111
115
118
123
125
125
127
131
133
132
129
126
125
125
125
124
122
119
118
118
118
119
122
124
125
125
125
125
123
119
116
115
113
107
103
97
93
88
85
83
81
77
72
67
62
56
50
44
39
34
32
31
32
33
36
40
46
54
64
74
84
95
105
115
126
136
143
148
154
159
164
167
169
174
176
176
173
169
167
164
159
156
154
149
146
146
143
139
136
133
128
125
123
118
115
113
108
105
102
97
94
94
92
87
84
84
86
91
94
98
102
106
111
115
123
125
127
132
136
138
138
138
138
139
139
139
140
142
144
144
145
146
146
149
154
156
156
156
156
156
156
156
156
156
156
156
156
156
156
156
156
157
160
165
167
169
174
177
180
185
188
190
195
197
198
198
198
197
195
192
189
188
188
188
188
188
188
188
188
188
188
188
188
188
188
188
187
184
179
176
173
168
164
159
156
154
153
152
150
148
148
148
148
148
148
148
148
150
152
153
154
154
154
153
152
149
146
143
139
136
133
129
128
128
129
132
135
137
140
143
146
149
152
153
154
154
155
155
154
152
148
144
138
134
128
123
117
113
108
105
105
105
105
105
106
109
113
116
119
123
125
125
126
127
128
127
126
125
125
125
124
122
118
116
115
115
115
116
118
122
124
125
125
124
121
117
115
115
113
107
103
98
94
91
87
85
83
81
76
71
66
60
53
47
41
37
35
35
35
36
40
45
51
57
64
74
84
95
105
115
126
135
142
148
154
159
164
167
169
173
176
177
174
169
167
164
159
156
154
149
146
145
142
138
136
133
128
125
123
118
115
113
108
105
102
97
94
94
92
87
85
85
88
92
96
101
105
109
114
118
122
125
129
135
139
142
144
144
144
146
146
144
144
145
146
146
146
146
147
150
154
156
156
156
156
156
156
156
156
157
158
159
158
157
156
156
156
158
162
165
167
169
173
176
179
184
187
190
194
195
196
196
195
194
192
190
189
188
188
188
188
188
188
188
188
188
188
188
188
188
188
188
188
185
180
177
174
169
166
164
160
157
156
155
154
154
154
154
154
154
154
154
154
154
155
156
156
156
156
156
155
153
149
146
143
140
137
135
134
134
135
137
140
143
145
147
150
153
155
156
156
156
156
156
156
153
148
144
138
133
127
122
116
112
107
105
105
105
105
105
107
111
114
117
121
124
125
125
125
125
125
125
125
125
125
124
122
118
116
115
115
115
115
115
116
118
122
124
125
123
119
116
115
115
113
108
104
101
96
93
91
88
86
84
80
75
70
63
57
51
46
41
40
40
40
41
45
51
56
61
67
76
85
95
105
115
125
134
140
147
154
158
163
166
168
170
174
175
173
169
167
164
159
156
153
149
146
144
140
137
136
133
128
125
123
118
115
113
108
105
102
97
94
94
92
89
87
88
91
94
98
104
108
113
118
122
124
128
134
139
143
146
148
149
150
152
152
150
149
149
149
149
149
149
150
153
155
156
156
156
156
156
156
156
157
160
163
164
162
158
156
156
156
157
159
163
166
167
170
174
177
180
184
186
189
190
190
190
190
190
189
188
188
188
188
188
188
188
188
188
188
187
186
185
186
187
188
188
187
184
179
177
174
170
167
166
164
160
159
159
159
159
159
159
159
158
157
156
156
156
157
158
159
159
159
159
158
156
153
150
147
145
143
140
139
139
140
143
145
147
150
152
154
156
158
159
158
157
156
156
156
153
148
144
138
132
125
119
114
109
106
105
105
105
105
105
108
112
115
117
122
125
125
125
125
125
125
125
125
125
124
122
118
116
115
115
115
115
115
115
115
116
118
121
122
121
117
115
115
115
113
108
105
103
98
95
94
92
90
87
83
77
72
66
61
56
51
47
45
45
45
47
51
56
61
66
73
81
88
97
106
115
125
134
139
146
153
157
160
165
167
168
170
172
170
168
167
164
159
155
152
148
145
142
138
136
135
132
127
125
123
118
115
113
108
105
102
97
94
94
93
92
92
92
94
98
102
108
113
118
123
127
129
134
139
144
147
150
153
154
156
158
157
155
154
154
154
154
154
154
154
155
156
156
156
156
156
156
156
156
158
163
166
166
164
159
156
156
156
156
157
159
163
164
166
169
173
176
179
181
184
185
186
186
186
186
187
188
188
188
188
188
188
187
186
185
185
184
181
180
181
184
185
185
184
180
178
176
173
169
167
167
166
165
164
164
164
164
164
164
164
163
160
159
159
159
160
163
164
164
164
164
163
160
158
155
153
150
148
146
145
145
146
148
150
152
154
156
158
160
163
164
162
158
156
156
155
152
147
142
136
129
122
116
112
107
104
103
102
103
104
105
107
111
114
117
121
124
125
125
125
125
125
125
125
124
122
118
116
115
115
115
115
115
115
115
115
115
116
117
117
117
116
115
115
115
113
109
106
104
102
98
96
95
93
91
87
82
76
71
66
61
56
52
51
51
51
52
56
61
66
71
77
84
93
101
108
116
126
134
140
147
153
156
159
164
167
167
168
168
168
167
167
164
159
154
150
147
144
140
137
136
134
129
126
125
123
118
115
113
108
105
102
97
94
94
94
94
94
94
96
101
106
112
118
123
128
132
135
139
144
149
153
155
158
160
163
164
163
160
158
157
156
156
156
156
156
156
156
156
156
156
156
156
156
156
159
164
166
165
162
158
156
156
156
155
154
155
156
158
160
164
166
169
173
175
177
178
179
180
180
181
184
185
185
185
185
185
185
184
181
180
180
179
178
177
178
179
180
180
179
177
175
173
170
168
167
167
167
167
167
167
167
167
167
167
167
166
165
164
164
164
165
166
167
167
167
167
166
165
163
160
158
155
154
152
150
150
152
154
154
156
158
160
163
165
166
166
164
159
156
156
154
150
145
139
133
125
119
114
109
105
102
98
97
98
102
104
106
109
113
116
118
122
124
125
125
125
125
125
125
123
119
116
115
115
114
113
113
113
113
114
115
115
115
115
115
115
115
115
115
115
114
111
107
105
104
103
101
98
96
94
91
87
81
76
71
66
61
57
56
55
56
57
61
66
71
76
82
88
95
104
112
118
126
135
142
148
154
156
158
163
166
167
167
167
167
167
166
163
158
154
149
146
142
138
136
136
133
128
125
125
123
118
115
113
108
105
102
97
94
94
94
94
94
95
98
104
109
115
122
128
133
136
141
145
149
154
157
160
163
165
166
167
166
165
163
160
157
156
156
156
156
156
156
156
156
156
156
156
156
156
158
162
163
160
158
157
156
155
154
152
150
149
150
152
154
156
157
159
164
167
167
169
173
174
175
175
177
179
180
180
180
180
180
179
178
177
175
175
175
174
174
175
175
175
174
173
171
169
168
167
167
167
167
167
167
167
167
167
167
167
167
167
167
167
167
167
167
167
167
168
169
170
170
169
168
166
163
160
159
158
156
156
158
159
159
160
163
165
166
167
167
166
163
158
156
155
152
147
142
136
129
122
116
112
106
102
98
95
94
95
98
102
104
107
111
114
116
118
122
124
125
125
125
125
124
121
117
115
115
114
112
109
108
108
109
111
113
114
115
115
115
115
115
115
115
115
115
113
109
106
105
105
104
103
101
98
94
90
85
81
76
71
66
62
61
61
61
62
66
70
75
81
87
92
98
106
115
122
129
137
144
148
154
156
157
160
165
167
167
167
167
166
164
160
156
152
148
144
140
137
136
135
132
127
125
125
123
118
115
113
108
105
102
97
94
94
94
94
95
98
102
108
113
118
125
132
137
140
148
153
156
160
163
166
168
169
170
170
169
168
166
164
160
157
156
156
156
156
156
156
156
156
156
156
156
156
157
158
158
157
156
155
154
152
150
147
145
144
144
145
146
146
147
149
154
156
157
160
165
167
168
169
171
174
175
175
175
176
176
175
175
173
171
169
169
168
167
167
167
167
167
166
165
165
164
164
164
164
164
165
166
167
167
167
167
167
167
167
167
167
167
167
167
167
168
170
173
174
175
174
173
171
168
166
165
164
163
161
163
164
164
165
166
167
167
167
166
164
160
157
155
153
149
145
139
133
126
119
114
108
103
98
95
94
94
94
95
98
102
105
108
112
114
116
118
121
123
124
125
124
122
118
116
115
115
113
109
106
105
105
106
107
109
112
114
115
115
115
115
115
115
115
115
114
112
108
106
105
105
105
104
102
97
93
88
84
80
75
70
67
65
64
65
67
70
73
78
84
90
96
102
108
116
125
132
138
144
148
154
156
156
159
164
167
167
167
166
164
160
156
153
149
146
142
138
136
135
133
129
126
125
125
122
118
115
113
108
105
102
97
94
94
94
94
96
101
106
112
118
123
129
136
142
144
157
160
163
166
168
171
173
174
175
174
173
170
168
166
163
158
156
156
156
156
156
156
156
156
156
156
156
156
156
156
156
156
155
153
150
147
145
142
139
137
136
136
136
136
136
139
144
146
148
153
156
157
160
163
166
168
169
170
171
173
173
171
169
168
166
165
163
160
159
159
159
159
159
159
159
159
159
159
159
159
159
160
164
166
167
167
167
167
167
167
167
167
167
167
167
168
170
174
176
177
177
177
176
175
173
171
169
167
166
166
166
167
167
167
167
167
167
166
164
160
157
155
153
149
146
142
136
129
123
117
112
105
99
95
93
92
92
93
94
95
98
103
106
108
112
114
116
117
119
121
122
121
118
116
115
115
114
111
107
105
105
105
105
105
106
109
113
115
115
115
115
115
115
115
115
115
114
112
109
107
106
105
105
104
101
96
91
86
82
77
73
71
70
68
70
71
73
77
82
87
93
98
105
112
118
126
133
138
144
148
154
156
156
158
163
166
167
166
164
160
157
154
150
146
143
139
137
135
133
129
126
125
125
124
121
117
115
112
108
105
102
97
94
94
94
95
98
104
109
115
122
128
134
139
145
148
167
168
169
171
174
175
176
177
177
177
176
173
169
167
164
159
156
156
156
156
156
156
156
156
156
156
156
156
156
156
155
154
152
149
145
143
139
136
133
129
126
126
126
126
126
128
134
136
139
144
146
148
153
156
160
163
164
165
167
169
168
166
165
163
160
158
156
154
154
154
154
154
154
154
154
154
154
154
154
154
156
157
160
165
167
167
167
167
167
167
167
167
167
167
167
169
173
176
177
178
179
180
179
178
176
175
173
170
168
167
167
167
167
167
167
167
166
164
160
157
155
153
149
146
143
139
134
127
122
115
109
103
97
94
91
88
88
90
92
94
96
101
104
106
109
113
115
115
116
117
118
117
116
115
115
115
113
109
106
105
105
105
105
105
105
107
111
114
115
115
115
115
115
115
115
115
115
114
113
111
108
106
105
105
102
97
92
88
84
81
77
74
72
72
72
74
77
81
85
91
96
102
108
115
121
127
134
140
144
149
154
156
156
157
160
163
164
163
160
157
155
152
148
144
140
137
135
133
129
126
125
125
125
123
119
116
114
111
107
104
101
96
94
94
94
96
101
106
112
118
125
133
138
144
149
152
175
175
175
176
178
179
178
177
177
177
177
174
170
167
164
159
156
156
156
156
156
156
156
156
156
156
156
156
156
155
153
150
147
144
140
137
133
129
125
122
119
116
115
115
116
118
123
126
128
134
137
140
145
149
153
156
158
160
163
164
163
160
159
157
155
153
149
147
146
146
146
146
146
146
146
146
146
147
148
150
153
155
158
163
166
167
167
167
167
167
167
167
167
167
167
170
174
177
178
181
184
185
184
181
178
177
176
174
170
168
167
167
167
167
167
167
165
160
157
155
153
149
147
144
140
136
132
125
119
113
107
101
96
92
88
85
85
86
88
92
95
98
102
104
107
111
114
115
115
115
115
115
115
115
115
115
113
108
105
105
104
103
102
103
104
106
108
112
114
115
115
115
115
115
115
115
115
115
115
114
111
107
105
105
103
98
94
91
86
83
80
75
73
73
73
75
80
83
87
92
97
104
111
117
123
128
135
142
146
150
154
156
156
156
157
158
159
158
157
156
154
150
146
142
138
135
133
129
126
125
125
125
124
121
117
115
113
109
106
103
98
95
94
94
95
98
104
109
115
122
129
136
143
148
153
156
180
180
180
181
184
184
181
179
178
177
177
174
170
167
164
159
156
156
155
154
154
154
155
156
156
156
156
156
155
153
149
146
143
139
136
133
128
123
118
115
112
108
106
105
106
109
113
115
118
123
128
132
137
142
146
149
153
155
157
158
157
155
154
152
149
146
143
140
139
138
137
136
136
136
137
138
139
140
143
146
149
153
156
160
164
166
167
167
167
167
167
167
167
167
167
170
174
177
179
184
187
188
187
184
179
177
177
176
173
169
167
167
167
167
167
166
163
158
155
153
149
147
145
142
138
134
129
124
118
113
106
99
94
91
86
84
84
84
86
90
93
95
98
103
106
109
113
115
115
115
115
115
115
115
115
115
113
108
105
104
102
98
97
98
102
104
106
109
113
115
115
115
116
116
116
115
115
115
115
115
112
108
105
105
104
101
96
92
88
85
82
78
75
74
74
77
82
85
88
93
98
106
113
117
124
129
137
143
148
152
155
156
156
156
156
156
156
156
156
156
154
149
144
140
137
134
129
126
125
125
125
124
122
118
116
114
111
107
104
101
96
94
94
94
96
101
106
112
118
125
133
139
146
152
156
159
188
187
186
186
187
187
186
183
179
177
176
173
169
166
163
158
155
154
152
150
149
150
153
155
156
156
156
156
154
150
147
144
140
136
133
128
122
117
112
108
105
102
98
97
98
102
104
106
109
114
119
124
129
135
139
144
147
150
153
154
153
150
148
147
144
140
137
135
134
132
129
128
128
128
129
132
134
135
139
143
146
149
153
156
160
163
165
166
167
167
167
167
167
167
167
169
173
176
179
184
187
188
187
184
179
177
177
176
173
169
167
167
167
167
166
164
160
156
153
149
147
145
143
139
137
133
128
123
117
113
105
97
93
88
85
84
84
84
85
88
92
94
97
102
105
108
113
115
115
115
116
117
117
116
115
115
113
108
105
104
100
96
94
95
98
103
105
108
113
115
115
116
118
120
118
116
115
115
115
115
113
108
105
105
105
102
97
94
90
86
84
82
80
77
78
81
83
86
91
96
101
107
113
118
125
132
138
144
148
153
156
156
156
156
156
156
156
156
156
156
154
148
144
139
135
132
127
125
125
125
124
122
118
116
115
113
109
106
103
98
95
94
94
94
97
103
107
115
121
127
135
143
149
155
159
164
195
194
192
190
189
188
187
184
179
176
174
170
167
164
160
156
153
150
148
147
146
147
150
154
156
156
156
155
153
148
145
142
137
133
128
123
117
110
105
102
98
95
93
92
92
94
95
98
103
108
113
118
123
129
135
139
143
146
148
148
148
146
144
143
139
136
133
129
128
127
124
123
123
123
124
125
127
129
133
138
143
146
149
153
156
158
160
163
164
164
164
164
165
166
167
168
171
175
178
181
184
185
184
181
178
177
176
174
170
168
167
167
167
166
164
160
157
154
150
147
146
144
140
137
136
133
128
123
117
111
104
97
92
87
84
84
84
84
84
86
90
94
97
102
105
108
113
115
115
116
118
121
121
118
116
115
113
109
106
104
101
96
94
94
97
102
105
108
113
115
116
118
122
123
122
118
116
115
115
115
113
108
105
105
105
102
97
94
92
88
85
84
83
82
82
83
84
87
92
97
102
107
113
118
125
133
138
144
148
152
155
156
156
156
156
156
156
156
156
156
154
148
144
138
134
129
126
125
125
124
122
118
116
115
114
111
107
104
101
96
94
94
94
94
97
103
108
115
123
129
137
145
152
157
163
166
200
199
197
194
190
188
186
181
178
175
171
167
164
160
156
153
149
147
146
146
146
146
149
154
156
156
156
155
151
147
144
140
135
129
124
118
112
105
99
96
92
88
86
85
85
86
88
92
97
103
108
113
118
125
132
136
139
143
145
146
145
143
140
138
136
133
129
126
125
122
119
118
118
118
118
119
122
124
128
133
138
143
146
150
154
156
157
158
159
159
159
159
160
163
165
166
169
173
176
178
179
180
179
178
177
176
174
170
168
167
167
167
166
164
160
157
155
152
148
146
145
142
138
136
135
132
127
123
116
109
103
97
92
87
84
84
84
84
84
85
88
92
97
102
105
108
113
115
116
118
122
124
124
122
118
116
114
111
107
105
103
98
95
94
97
102
105
108
113
115
117
121
124
125
124
121
117
115
115
115
113
108
105
105
105
103
98
95
93
91
87
85
84
84
84
84
84
87
92
97
103
107
113
118
125
133
138
144
147
150
154
156
156
156
156
156
156
156
156
156
154
148
144
138
134
128
125
125
124
122
118
116
115
114
112
108
105
102
98
95
94
94
94
94
97
103
108
115
125
132
138
146
154
159
164
167
206
204
200
196
190
187
184
179
176
173
168
164
160
156
153
149
147
146
146
146
146
146
149
154
156
156
156
155
153
148
144
139
134
128
123
116
109
103
96
91
87
84
81
78
78
80
83
87
92
98
104
109
115
122
129
134
137
139
142
143
142
139
137
136
134
129
126
124
122
118
116
115
115
115
115
116
117
120
124
129
134
139
143
147
152
154
155
156
156
156
156
156
157
158
160
164
167
170
173
175
176
177
176
175
175
173
170
168
167
167
166
165
163
160
157
156
154
150
147
146
144
140
137
136
134
129
126
122
115
108
103
97
92
88
85
84
84
84
84
84
87
92
97
102
105
108
113
115
117
121
124
125
125
124
122
118
116
113
109
106
104
102
98
96
98
103
105
108
113
116
119
123
125
125
125
123
119
116
115
115
113
108
105
105
105
104
101
96
94
93
90
86
84
84
84
84
85
88
92
97
103
107
113
118
125
132
137
142
146
149
154
156
156
156
156
156
156
156
156
156
154
148
144
138
134
128
125
125
123
119
116
115
115
113
109
106
103
98
95
94
93
93
93
94
97
103
108
115
125
132
138
146
154
159
164
167
210
207
202
196
190
186
181
177
174
170
164
160
156
153
149
146
144
144
144
144
145
146
149
154
156
156
156
156
154
150
145
140
134
128
123
115
107
101
95
88
84
81
77
74
74
75
78
83
88
95
101
107
113
119
126
133
136
137
138
139
138
137
136
136
133
128
125
124
120
117
115
115
115
115
115
115
115
117
122
125
129
135
140
145
148
150
152
153
154
154
154
154
154
155
157
160
163
166
168
171
173
174
173
171
169
169
167
166
165
164
163
160
158
157
156
155
152
148
146
145
142
138
136
136
133
128
125
122
116
109
103
97
94
90
86
84
84
84
84
85
88
92
97
102
105
108
113
115
118
123
125
125
125
125
124
122
118
115
112
108
106
104
102
100
102
104
106
109
113
117
121
124
125
125
125
124
121
117
115
115
112
108
105
105
105
105
102
97
94
94
92
88
85
84
84
84
86
90
94
97
103
107
113
117
124
129
135
140
144
148
152
155
156
156
156
156
156
156
156
156
154
148
144
138
134
128
125
125
123
118
115
115
115
113
108
105
102
97
94
93
91
89
91
93
96
101
107
115
122
129
137
145
152
157
163
166
215
211
205
198
191
186
180
175
171
166
160
156
153
149
145
143
140
139
139
140
144
147
150
154
156
157
158
158
156
153
149
143
136
129
123
115
107
100
93
87
82
77
74
73
73
73
76
82
87
93
98
106
113
118
126
133
136
137
138
139
139
138
137
136
134
130
127
125
122
119
117
116
115
115
115
115
115
116
119
123
127
132
137
142
145
147
148
149
149
149
149
149
150
152
154
156
158
160
163
166
168
169
169
167
165
165
164
163
160
159
158
157
156
155
154
152
149
147
145
143
139
137
136
136
133
128
125
123
117
111
105
98
95
92
88
85
84
84
84
86
90
94
97
102
105
108
113
116
119
123
125
125
125
125
125
124
121
117
114
112
108
106
104
104
104
106
108
112
115
119
123
125
125
125
125
125
122
118
115
114
111
107
105
105
105
105
103
98
95
94
93
91
88
86
85
85
88
92
94
97
103
107
113
117
123
128
134
138
144
147
150
154
156
156
156
156
156
156
156
156
153
148
144
138
134
128
125
125
123
119
116
115
115
113
108
105
102
97
94
91
87
86
87
91
94
98
105
112
118
126
135
143
149
155
159
164
220
215
208
198
191
186
179
174
168
163
158
153
149
144
140
138
137
136
136
139
144
148
152
156
158
160
163
163
160
158
154
147
140
133
126
117
109
102
94
87
82
76
73
73
73
73
76
82
86
92
97
105
113
119
126
133
137
139
142
143
143
142
140
138
136
134
132
129
125
123
122
119
117
116
115
115
115
116
118
123
126
129
135
140
144
146
146
146
146
146
146
146
147
148
150
152
154
156
158
160
163
164
164
163
160
159
159
158
156
154
154
154
153
152
150
148
147
145
143
139
137
136
136
136
133
128
125
123
117
113
107
101
96
94
91
87
85
84
85
88
92
94
97
102
105
108
113
116
120
124
125
125
125
125
125
125
123
119
116
114
112
108
106
105
106
108
112
115
118
122
124
125
125
125
125
125
123
118
115
113
109
106
105
105
105
105
104
101
96
94
94
93
92
90
88
88
91
93
95
98
103
107
113
117
123
128
133
138
142
145
148
152
154
155
156
156
156
156
156
155
152
148
144
138
134
128
125
125
124
121
117
115
115
113
108
105
102
97
92
88
85
84
85
88
93
97
103
109
116
125
133
139
146
152
156
159
224
218
208
198
191
185
178
171
166
160
155
150
145
140
137
136
136
136
136
139
144
149
154
159
163
166
168
168
166
163
159
153
145
137
129
122
114
105
97
89
83
78
74
73
73
73
76
82
87
93
98
106
115
122
127
134
138
142
145
146
146
145
144
143
140
138
137
133
130
128
127
124
122
119
118
118
118
118
120
123
125
128
134
138
142
145
146
146
146
146
146
146
146
146
147
148
150
152
154
156
158
159
159
157
155
154
154
154
152
150
149
148
148
148
147
146
145
143
139
137
136
136
136
136
133
128
125
123
117
113
108
103
98
95
93
91
88
87
88
91
93
94
97
102
105
108
113
116
119
123
125
125
125
125
125
125
124
122
118
116
114
112
109
108
109
112
115
118
122
124
126
127
128
127
126
125
123
118
115
113
108
105
105
105
105
105
105
102
97
94
94
94
94
93
92
92
93
94
96
101
104
108
113
117
123
127
132
136
139
143
146
148
150
152
154
155
156
156
155
153
149
147
144
138
134
128
125
125
125
123
119
116
115
113
109
106
102
97
93
88
85
84
84
87
92
97
103
108
115
122
129
136
143
148
153
156
226
219
208
198
190
184
177
169
163
158
153
148
144
139
136
136
136
136
137
140
145
150
156
163
167
170
173
173
171
168
164
158
150
143
136
127
118
109
102
94
87
82
77
74
73
74
77
83
88
95
102
108
116
123
129
135
140
144
147
148
149
149
148
148
146
144
143
139
137
135
133
129
127
125
124
123
123
123
123
124
125
128
133
137
139
143
145
146
145
144
144
144
144
145
146
146
147
148
150
152
154
154
154
152
150
149
148
148
147
145
144
144
144
144
144
143
142
139
137
136
136
136
136
135
132
127
125
123
118
113
109
105
102
98
95
93
92
92
92
93
94
94
96
101
104
107
111
114
117
121
124
125
125
125
125
125
125
124
122
119
118
116
114
113
114
116
119
122
125
127
129
132
133
132
129
126
123
118
115
113
108
105
105
105
105
105
105
102
97
94
94
94
94
94
94
94
94
94
97
102
105
108
113
117
123
126
129
133
136
139
142
144
146
148
150
152
153
153
152
149
147
145
142
138
134
128
125
125
125
124
122
118
116
114
111
107
103
98
94
91
86
84
84
87
92
96
101
106
112
118
125
133
138
144
149
153
226
219
208
198
189
181
175
168
160
155
150
147
144
139
136
136
136
136
138
143
147
153
160
166
170
175
178
179
177
174
170
165
157
150
142
134
123
114
106
98
92
87
82
78
76
77
81
86
91
98
105
112
119
127
133
139
143
146
149
152
154
154
154
154
152
150
148
146
144
142
139
136
134
132
129
127
126
125
125
125
126
129
134
136
137
139
142
143
142
140
139
139
140
142
144
145
146
146
147
148
149
149
148
147
145
144
144
144
142
140
138
138
139
139
139
139
138
137
136
136
136
135
134
132
129
126
125
123
119
115
112
108
105
102
98
95
94
94
94
94
94
94
95
98
103
106
109
113
116
119
123
125
125
125
125
125
125
125
124
123
123
121
119
118
119
122
124
127
129
132
134
135
136
135
132
127
123
119
116
113
108
105
105
105
105
105
104
101
96
94
94
94
94
94
94
94
94
94
97
102
105
108
113
117
121
124
126
129
133
136
138
140
142
144
146
148
148
149
148
147
146
144
140
137
134
129
126
125
125
125
124
122
118
116
113
109
105
101
96
92
88
86
86
88
92
95
98
104
109
115
122
128
134
139
145
149
226
219
208
198
188
180
175
167
159
155
150
147
144
139
136
136
136
137
140
145
150
156
164
170
175
180
184
185
184
180
177
173
166
157
148
139
128
119
112
104
97
92
87
83
82
82
84
88
95
102
109
117
124
132
138
143
147
150
153
156
158
159
159
159
158
156
154
153
150
148
146
143
140
138
136
133
129
128
128
128
129
133
135
136
136
137
138
138
138
137
136
136
137
138
140
143
145
146
146
146
146
145
144
143
140
139
138
138
136
134
134
134
135
136
136
136
135
134
133
133
133
132
129
127
126
125
125
124
122
118
115
112
108
105
102
98
96
95
94
94
94
94
94
96
101
104
107
111
114
117
121
124
125
125
125
126
127
128
127
126
125
125
123
124
125
127
129
132
134
136
138
138
137
136
134
129
125
121
117
113
108
105
105
105
105
104
102
98
95
94
94
94
94
94
94
94
94
94
97
102
105
108
113
116
119
123
125
126
129
133
135
137
138
140
142
144
145
146
146
146
145
142
138
136
135
132
127
125
125
125
125
124
122
118
115
112
108
104
98
94
92
91
89
91
93
94
97
103
108
113
119
124
129
136
142
146
226
219
208
198
188
180
175
167
159
156
152
148
144
140
137
136
136
138
143
147
153
158
166
173
178
184
187
188
189
186
184
180
173
165
156
146
136
126
117
109
103
97
92
88
87
87
88
92
99
106
114
122
129
136
142
147
152
155
158
160
163
164
165
165
164
163
160
158
157
156
153
149
146
144
142
139
135
134
133
133
134
135
136
136
136
136
136
136
136
136
136
136
136
136
137
140
144
146
145
144
144
142
140
138
136
134
134
132
129
128
128
129
132
133
133
133
132
129
128
128
128
127
126
125
125
125
125
125
124
122
118
115
112
109
106
104
101
98
95
94
94
94
94
95
98
102
105
108
112
115
118
122
124
125
125
127
131
133
132
129
128
128
128
129
132
134
135
137
138
140
142
142
140
138
136
132
127
123
117
113
108
105
105
105
104
102
98
95
94
94
94
94
94
94
94
94
94
94
96
101
104
108
112
115
117
121
124
125
126
129
132
134
135
137
138
140
142
143
144
143
142
139
137
136
136
134
129
126
125
125
125
125
124
122
118
115
111
106
102
98
95
93
93
93
94
94
97
102
107
112
116
122
127
133
138
143
226
219
208
198
188
180
175
168
160
157
154
149
146
143
139
137
137
140
144
148
154
159
167
174
180
185
188
191
193
191
188
184
179
171
163
154
144
134
124
116
108
103
97
93
92
93
95
98
104
112
118
125
133
139
145
150
155
159
163
165
167
169
169
169
169
169
167
165
164
163
160
156
153
150
147
144
140
138
137
136
136
136
136
136
137
138
138
137
136
136
136
136
136
136
136
139
144
145
143
140
139
138
137
135
133
129
128
127
126
125
125
126
127
128
128
128
127
126
125
125
125
125
125
125
125
125
125
125
125
124
122
119
116
114
111
108
105
102
98
95
94
94
94
94
95
98
101
104
108
112
115
118
122
124
125
128
133
135
135
134
133
133
134
135
137
138
140
142
144
144
145
145
144
142
139
134
128
123
118
113
108
105
105
105
103
98
95
94
94
94
94
94
93
92
92
92
93
94
95
98
103
107
111
114
116
118
122
124
125
126
127
129
133
135
136
137
138
139
139
139
138
137
136
136
136
135
133
129
126
125
125
125
125
124
121
117
113
109
105
101
96
94
94
94
94
94
96
101
105
109
114
119
124
129
135
140
226
219
208
198
188
180
175
169
163
158
154
150
147
145
143
140
140
143
146
149
154
159
167
175
180
185
190
194
196
195
191
188
183
175
167
158
149
139
129
122
114
108
103
98
97
98
102
105
110
117
123
129
137
144
149
154
159
164
167
169
171
173
175
175
175
175
173
171
169
168
166
163
159
155
152
149
145
143
140
139
139
139
139
139
140
142
142
140
139
138
137
136
136
137
138
140
144
145
141
138
136
136
135
133
129
126
125
123
123
123
123
123
123
123
123
123
123
123
123
124
125
125
125
125
125
126
127
128
128
128
127
124
121
118
115
112
108
105
101
96
94
94
94
94
94
95
96
98
103
108
112
115
118
122
124
127
132
135
136
136
136
137
138
140
142
144
145
147
148
148
149
148
148
146
142
136
129
124
119
114
109
106
105
105
103
98
95
94
94
94
94
93
91
88
87
89
92
94
94
97
102
106
109
113
115
116
119
123
125
125
125
126
129
133
135
136
136
136
136
136
136
136
136
136
136
136
135
133
129
127
126
125
125
125
123
119
115
111
107
103
98
95
94
94
94
94
95
98
103
107
112
116
122
127
133
138
226
218
208
198
188
179
174
169
164
159
155
152
148
146
145
144
144
145
146
149
154
159
167
174
180
185
190
194
197
197
194
190
185
178
170
163
154
144
135
127
119
113
108
105
104
105
108
112
117
122
128
135
142
148
153
158
163
166
169
173
175
176
178
179
180
179
177
175
175
173
170
167
164
159
156
153
149
146
144
144
144
144
144
144
144
145
145
144
144
142
140
139
139
140
142
144
145
145
142
138
136
136
134
129
126
124
122
119
118
117
117
117
117
118
118
118
118
118
119
121
123
124
125
125
126
129
132
133
133
133
132
128
125
122
118
115
111
107
103
98
95
94
93
92
92
92
92
94
98
103
108
112
115
119
123
126
129
134
136
136
137
139
142
144
146
148
150
152
153
154
154
153
152
149
145
139
133
127
122
116
112
108
106
105
104
101
96
94
94
94
93
91
87
85
84
86
90
93
94
97
102
105
108
113
115
115
118
123
125
125
125
125
126
129
134
136
136
136
136
136
136
136
136
136
136
136
136
135
134
131
127
125
125
125
124
121
117
113
108
104
101
96
94
94
94
94
94
96
101
105
109
114
119
125
132
136
224
216
206
196
186
177
171
168
164
159
156
153
149
146
146
146
146
146
146
149
154
159
166
173
178
184
188
191
194
195
194
190
185
179
173
166
156
147
139
132
124
118
114
112
110
112
114
118
123
128
133
139
146
152
156
160
165
168
171
175
177
179
181
184
185
184
181
179
178
176
174
170
167
164
160
156
153
150
148
147
146
146
146
146
146
146
146
146
146
145
144
144
144
144
145
146
146
146
144
139
136
136
133
128
125
122
118
116
115
113
113
113
113
114
115
115
115
115
116
117
119
122
124
125
127
132
135
136
136
136
135
133
129
125
122
118
114
109
105
101
96
94
92
89
87
87
88
91
94
98
103
108
112
116
121
124
127
132
135
136
138
142
145
147
149
152
154
155
156
156
156
156
155
152
147
142
136
129
124
119
115
112
108
106
105
103
98
95
94
94
92
88
85
84
84
85
87
91
94
97
102
105
108
113
115
116
119
123
125
125
125
125
126
129
134
136
136
136
136
136
136
136
136
136
136
136
136
136
136
133
128
125
125
125
124
121
117
113
108
105
103
98
95
94
94
94
94
95
98
103
107
112
117
123
129
134
218
211
201
191
181
174
169
166
163
158
156
153
149
146
146
145
144
144
145
148
152
157
164
169
174
180
184
187
189
190
190
188
185
179
174
167
157
148
142
136
129
123
118
115
115
116
119
123
128
133
138
144
149
154
158
163
166
169
173
176
179
183
186
187
188
187
186
184
181
178
176
174
170
167
164
160
156
154
152
150
149
149
149
149
149
149
149
149
148
147
146
146
146
146
146
146
146
146
144
140
137
136
133
128
123
119
116
114
112
109
108
108
109
111
112
113
113
114
115
115
116
119
123
125
128
133
136
137
138
138
138
136
133
129
125
121
116
112
107
103
97
94
92
87
84
84
85
87
91
94
98
104
109
114
118
122
125
129
134
136
139
143
146
148
152
155
156
157
158
159
159
158
157
154
150
145
139
133
128
123
118
115
111
107
105
104
101
96
94
94
92
87
84
84
84
84
85
88
92
96
101
104
108
113
115
117
121
124
125
125
126
127
129
133
135
136
136
136
136
136
136
136
136
136
136
136
136
136
135
132
127
125
125
125
123
119
116
113
108
105
104
100
96
94
94
94
94
94
96
101
105
109
115
122
127
133
213
206
196
186
178
171
167
164
160
157
155
152
148
146
145
143
140
140
142
145
149
153
158
163
168
173
177
180
184
185
185
185
183
178
173
166
157
149
144
138
132
126
122
119
119
121
123
127
132
137
142
147
152
155
159
164
167
170
174
177
180
185
188
188
188
188
188
187
184
179
177
176
174
170
167
164
160
157
155
154
154
154
154
154
154
154
154
154
153
150
149
148
147
146
146
146
146
146
145
142
138
136
133
128
123
118
115
113
109
106
105
105
106
107
108
108
109
111
113
114
115
118
123
126
129
134
137
139
142
143
142
139
136
133
128
124
119
114
109
104
98
95
92
87
84
84
84
85
88
92
96
101
106
111
115
119
123
128
133
136
139
144
146
149
153
156
157
160
163
164
164
163
160
156
153
149
143
137
132
127
122
117
113
109
106
105
102
97
94
93
90
86
84
84
84
84
84
87
92
95
98
103
107
113
115
118
123
125
126
127
129
132
134
135
136
136
136
136
136
136
136
136
136
136
136
136
136
135
133
129
126
125
125
124
121
117
115
112
108
105
103
98
95
94
94
94
94
94
95
98
103
108
114
119
125
132
205
198
188
179
173
167
163
159
156
154
152
149
146
144
142
139
137
137
138
140
143
146
150
155
160
165
169
173
176
177
177
177
177
174
169
163
156
148
144
138
133
128
125
123
123
124
126
129
134
138
144
148
153
156
159
164
167
170
175
177
180
185
188
188
188
188
188
188
186
181
178
177
176
173
169
166
164
160
157
156
156
157
158
159
159
159
159
159
157
155
154
152
150
149
148
147
146
146
146
143
139
136
133
128
123
118
114
111
107
105
105
105
105
105
105
105
106
107
109
113
115
118
123
127
132
135
138
142
145
146
145
143
139
136
132
126
122
116
112
106
101
96
92
87
84
84
84
84
87
92
95
98
104
109
113
118
123
127
132
135
138
143
146
149
154
156
158
163
166
167
167
166
164
160
156
152
146
140
135
129
124
119
115
112
108
106
103
97
94
92
88
85
84
84
84
84
84
87
92
94
97
103
107
113
116
119
123
126
129
132
134
135
136
136
136
136
136
136
136
136
136
136
136
136
136
136
136
134
129
126
125
125
124
122
118
116
114
111
107
105
102
97
94
94
94
94
94
94
94
97
103
107
113
117
123
129
194
187
178
170
165
159
156
154
152
150
147
145
142
140
137
135
133
133
133
134
136
139
143
147
153
156
159
164
167
168
169
169
169
167
164
159
153
147
142
137
132
127
125
125
125
125
127
132
135
139
144
148
153
156
159
164
167
170
174
177
179
184
187
188
188
188
188
188
186
183
179
177
177
174
170
167
166
164
160
159
159
160
163
164
165
165
165
164
163
160
158
156
154
154
152
149
147
146
146
144
139
136
133
128
123
117
113
109
106
105
105
105
105
105
105
105
105
105
108
113
115
118
123
128
133
137
140
144
146
146
146
145
142
138
134
128
123
117
113
107
103
97
93
88
85
84
84
84
87
92
94
97
103
107
113
117
121
125
129
134
138
142
145
148
153
156
158
163
166
167
167
167
166
163
158
154
149
144
139
133
128
123
118
115
112
108
104
98
95
92
87
84
84
84
84
84
84
87
92
94
97
103
108
113
117
122
125
129
133
135
136
136
136
136
136
136
136
136
136
136
136
136
136
136
136
136
135
132
127
125
124
123
121
118
116
114
112
108
106
104
101
96
94
93
92
92
92
92
94
96
101
106
112
116
122
126
179
174
167
159
155
150
147
146
145
144
142
140
137
135
132
129
127
126
126
126
129
133
135
139
144
146
149
154
156
159
162
164
163
160
156
153
149
144
138
133
129
126
125
125
125
125
127
132
135
138
144
148
152
155
158
163
166
169
173
176
178
181
185
187
188
188
188
187
184
180
178
177
177
174
170
167
167
166
165
164
164
165
167
169
169
170
170
169
169
167
164
160
158
157
155
152
148
146
146
144
139
136
133
128
123
117
113
109
106
105
105
105
105
105
105
105
105
105
108
113
115
118
123
128
134
138
142
145
146
146
146
146
144
140
135
129
124
119
114
109
104
98
94
91
88
87
87
87
89
92
94
97
103
107
111
115
119
123
127
132
136
140
144
148
152
155
157
160
165
167
167
167
167
165
160
156
152
147
143
138
133
128
123
118
115
111
106
101
96
92
87
84
84
84
84
84
84
87
92
95
98
104
109
114
119
124
128
133
135
137
138
138
138
137
136
136
136
136
136
136
136
136
136
136
136
136
134
129
126
124
122
119
117
116
114
112
108
106
104
102
98
95
93
91
88
87
87
88
91
94
98
104
109
114
118
123
164
159
154
148
145
141
137
136
136
136
135
134
132
129
125
123
122
119
118
119
122
125
126
128
134
136
139
144
146
149
154
156
156
153
149
146
143
138
133
128
124
123
123
123
123
123
125
129
133
137
142
146
149
153
156
159
164
167
170
174
176
178
181
184
185
185
185
184
181
178
177
177
176
173
169
167
167
167
167
167
168
169
171
174
175
177
177
177
175
173
170
166
163
160
157
154
150
147
146
144
139
136
133
128
123
118
114
111
107
105
105
105
105
105
105
105
105
106
109
113
116
119
124
129
135
140
144
147
148
148
148
147
145
142
137
132
126
122
116
112
106
102
98
94
92
92
92
92
92
93
95
98
103
106
109
113
117
121
125
129
133
137
142
146
150
154
156
158
163
166
167
167
167
166
163
158
154
150
146
143
138
133
128
123
118
114
109
103
97
92
87
84
84
84
84
84
84
87
92
96
101
106
112
116
122
127
132
135
137
139
142
143
142
139
137
136
136
136
136
136
136
136
136
136
135
134
131
127
124
122
118
116
115
113
111
108
106
104
102
98
95
93
91
87
85
84
84
85
88
92
96
101
106
111
115
118
148
144
140
137
134
130
127
126
127
128
127
126
125
122
118
116
115
113
113
113
115
115
116
119
124
126
130
134
137
140
144
146
146
145
143
139
136
133
128
123
119
118
117
117
118
119
122
125
129
133
138
143
146
149
153
156
159
164
167
170
173
175
177
179
180
180
180
179
178
177
176
175
173
170
168
167
167
167
167
168
170
173
176
179
181
184
185
184
181
178
175
170
167
163
158
155
151
147
146
143
138
135
132
127
123
118
115
112
108
105
105
105
105
105
105
105
106
108
112
115
117
122
127
132
137
142
146
149
152
153
152
149
147
144
138
133
128
123
117
113
109
105
102
98
95
94
94
94
94
94
96
101
104
105
108
113
116
118
122
125
129
135
139
143
147
152
155
157
160
165
167
167
167
167
165
160
156
153
149
146
143
139
133
128
123
118
112
105
98
93
88
85
84
84
84
84
84
87
92
97
103
107
113
119
124
129
134
137
139
143
145
146
145
142
138
136
136
136
136
136
136
136
135
134
132
129
127
125
122
118
116
114
112
109
107
106
104
102
98
95
94
92
88
85
84
84
84
84
86
90
94
98
102
107
112
115
133
129
126
124
122
118
116
118
121
122
121
119
117
115
112
108
106
105
105
105
106
107
109
112
115
118
122
126
129
133
135
136
136
136
135
133
129
125
122
118
115
113
113
113
113
115
118
122
125
129
133
138
142
145
149
152
155
159
163
166
168
171
173
175
175
176
176
175
175
174
173
171
169
168
167
167
167
167
167
169
173
177
180
184
187
189
190
189
187
183
178
174
169
164
159
154
150
147
145
142
138
134
129
126
123
118
115
113
108
105
105
105
105
105
106
107
109
112
114
116
119
124
129
135
140
145
149
153
155
156
155
152
148
144
138
134
128
123
119
115
112
108
105
102
98
97
96
96
96
97
99
103
105
105
107
111
114
116
119
123
127
132
136
140
145
149
153
155
158
162
165
166
167
167
166
164
160
156
153
150
147
144
139
133
128
122
115
108
102
96
91
86
84
84
84
84
85
88
93
98
104
109
115
122
127
132
136
139
143
145
146
146
146
143
138
136
136
136
135
134
133
133
132
129
127
125
123
121
118
115
113
111
108
106
104
103
101
98
95
94
93
90
86
84
84
84
84
84
85
87
91
94
98
103
107
111
118
116
113
109
108
107
108
112
114
115
114
113
111
108
105
102
98
97
97
97
98
101
103
105
108
112
115
118
122
125
127
128
128
128
128
126
123
119
117
114
112
109
108
108
109
112
114
118
122
125
129
133
137
140
144
147
150
154
158
160
164
167
169
169
171
173
173
171
170
170
169
168
167
167
167
167
167
167
167
170
175
179
184
188
191
194
195
194
191
187
181
175
169
165
159
154
149
146
144
140
136
132
127
124
121
117
115
113
108
105
105
105
106
107
109
111
113
115
117
119
123
128
133
139
143
147
152
155
156
156
156
153
148
144
138
134
128
125
121
117
114
112
108
105
103
102
101
100
101
102
103
104
105
105
106
108
112
114
117
121
125
129
133
137
142
146
149
153
156
158
160
164
166
167
167
166
164
160
158
155
153
149
144
139
133
127
119
112
105
98
93
88
85
84
84
85
88
92
97
103
108
113
118
124
129
134
138
142
145
146
146
146
145
142
138
136
135
134
132
129
128
128
126
124
123
121
119
116
114
112
109
107
105
103
101
98
96
95
94
93
91
87
85
84
84
84
84
84
84
85
87
91
94
98
102
106
105
102
99
97
97
98
102
104
105
105
105
105
104
102
98
96
93
92
92
92
93
96
97
99
103
106
109
113
117
119
122
123
124
124
123
122
118
115
112
109
107
105
103
103
105
107
109
113
118
121
124
128
133
136
139
143
146
149
153
156
159
163
164
165
167
169
169
168
167
167
167
166
165
164
165
166
167
167
167
170
175
180
185
190
194
197
198
197
194
189
184
177
170
165
159
154
148
145
142
138
134
129
126
123
119
116
115
113
108
105
106
107
109
111
113
114
116
118
121
124
128
133
138
143
146
150
154
156
156
156
156
154
148
144
138
134
128
125
122
118
115
114
111
107
105
105
104
104
104
105
105
105
105
105
105
106
108
112
115
118
122
125
129
133
139
143
146
149
153
155
157
160
163
165
166
167
166
165
163
160
157
154
149
144
138
132
124
117
109
103
97
92
88
87
87
88
92
97
102
108
113
118
122
127
132
136
140
144
146
146
146
145
143
139
136
134
132
129
127
124
123
123
121
119
117
116
114
112
109
107
105
103
101
98
96
95
94
94
94
92
88
85
84
84
83
82
82
82
83
84
85
88
92
95
98
101
93
90
88
88
91
92
95
96
97
97
97
97
97
96
93
91
88
87
87
87
88
91
94
95
98
103
106
109
113
116
117
119
121
121
119
117
115
112
108
105
103
101
98
98
101
103
105
108
113
116
119
123
128
133
136
139
143
146
149
152
155
158
159
160
163
164
165
164
164
164
164
163
160
159
160
163
165
166
167
170
175
180
185
190
195
198
198
197
194
190
185
177
170
164
158
153
147
143
139
136
132
127
125
121
117
115
115
112
108
106
108
111
113
114
116
117
119
122
125
129
133
138
143
146
149
153
155
156
156
156
156
153
148
144
138
133
128
125
123
118
115
115
113
109
106
105
105
105
105
105
105
105
105
105
105
105
106
108
112
115
118
122
125
129
135
139
143
146
149
152
154
156
158
160
164
166
167
167
166
165
163
159
154
149
144
137
129
122
115
108
103
98
95
93
93
95
98
103
108
112
116
121
125
129
135
139
143
145
146
146
146
144
140
136
133
129
127
124
122
119
117
116
115
113
113
111
109
107
105
103
101
98
96
95
94
94
94
94
93
90
86
84
84
84
82
78
76
78
82
84
84
86
90
93
95
96
84
82
82
82
84
86
88
91
92
94
94
94
92
91
88
86
85
84
84
84
85
88
92
94
97
103
105
108
113
115
115
117
119
119
117
115
113
109
106
103
99
96
95
95
96
98
102
105
108
112
115
119
124
128
133
136
139
143
146
148
150
153
155
157
158
159
159
159
159
159
159
158
157
156
157
158
160
164
166
169
175
179
184
189
194
196
197
195
191
188
184
177
169
163
156
150
145
140
136
133
129
126
123
119
116
115
114
111
108
108
112
114
115
116
118
121
123
125
129
133
138
143
146
149
153
155
156
156
156
156
155
152
147
142
137
132
127
125
122
118
115
115
114
112
108
106
105
105
105
105
105
105
104
103
102
103
104
106
108
112
115
118
122
126
131
135
139
142
145
147
150
152
154
156
160
164
166
167
167
167
166
163
159
154
149
143
136
129
122
115
109
104
101
99
98
101
104
108
113
116
119
124
129
134
139
143
145
146
146
146
145
142
137
133
128
124
122
118
115
113
112
109
108
107
107
105
103
103
101
98
96
95
94
94
94
94
94
94
92
88
85
84
84
84
82
76
74
76
82
84
84
85
87
91
93
94
74
74
75
76
78
81
84
86
88
90
91
90
88
86
85
84
84
84
84
84
85
88
92
95
98
103
106
109
113
116
117
119
121
121
118
116
113
109
106
103
97
95
94
94
94
95
98
103
106
109
113
117
122
125
129
133
136
139
143
146
147
149
152
154
155
156
156
156
156
156
156
156
156
156
156
156
157
160
164
168
173
177
181
186
190
192
193
191
188
185
180
174
167
160
153
147
143
138
134
129
126
124
121
117
115
115
113
109
108
111
114
115
116
118
122
125
127
129
134
138
143
146
149
153
155
156
156
156
156
155
153
149
144
139
133
129
126
124
121
117
115
115
115
114
111
107
105
105
105
105
104
103
101
98
97
98
101
103
105
108
112
115
118
123
126
129
133
137
140
143
145
147
150
153
156
160
164
166
167
167
167
166
164
159
155
149
143
136
129
122
116
110
107
106
106
107
109
113
118
122
124
128
133
138
143
145
146
146
146
146
144
140
135
129
124
119
116
113
109
107
105
103
103
103
101
99
97
97
96
95
94
94
94
94
94
94
94
94
92
88
85
84
84
84
82
78
76
78
82
84
84
84
85
88
92
93
66
67
70
73
74
77
82
84
85
86
87
86
85
84
84
84
84
84
84
84
86
91
94
98
102
105
108
113
116
119
122
123
124
124
122
118
115
112
108
104
98
95
94
94
94
95
97
103
105
108
113
116
119
123
126
129
134
137
140
144
146
147
148
150
152
154
155
156
156
156
156
155
154
154
154
155
156
157
160
164
169
174
178
183
186
188
189
187
184
180
175
169
164
156
150
145
140
136
132
127
125
122
118
116
115
114
111
108
109
113
115
115
117
121
125
128
132
135
139
143
145
148
152
155
156
156
156
156
155
153
149
145
140
135
129
125
123
121
118
116
115
115
115
115
112
108
105
105
105
104
102
98
96
95
94
95
96
98
101
104
108
112
115
118
122
125
128
132
135
137
140
142
145
149
153
156
160
165
167
167
167
167
166
165
162
155
149
143
136
129
122
117
115
113
113
113
115
118
123
127
129
133
138
143
145
146
146
146
146
145
142
137
132
127
122
116
112
108
104
101
98
97
97
97
96
95
94
94
94
94
94
94
94
94
94
94
94
94
93
91
87
85
84
84
83
82
82
82
83
84
84
84
85
88
92
93
62
63
67
71
73
76
81
84
84
84
84
84
84
84
84
84
84
84
84
85
88
93
98
102
106
109
113
118
122
124
126
128
128
128
126
123
118
115
111
106
102
98
96
95
95
96
99
103
106
109
113
116
119
123
126
129
134
136
139
144
146
146
146
147
148
150
152
153
154
154
153
152
150
149
150
152
154
155
157
160
164
170
174
178
181
184
184
181
178
175
170
164
159
153
147
143
138
134
129
126
123
119
116
115
115
113
109
108
111
114
115
116
119
123
127
132
136
139
143
145
147
150
154
156
156
156
156
155
153
149
146
142
137
132
127
122
119
117
116
115
115
115
115
115
113
108
105
105
104
102
98
95
94
92
92
92
92
93
96
98
103
108
112
115
118
121
124
127
129
132
134
136
139
144
149
153
158
163
166
167
168
169
169
169
165
160
154
149
143
136
130
125
122
119
118
119
122
125
129
132
135
139
143
145
146
146
146
146
146
144
140
135
129
123
118
113
108
103
98
96
93
92
92
92
94
94
94
94
94
94
94
94
94
94
94
94
94
94
94
93
91
87
85
84
84
84
84
84
84
84
84
85
87
91
93
93
57
60
65
71
73
76
81
84
84
84
84
84
84
84
84
84
84
85
86
88
92
97
103
108
112
115
118
123
127
129
132
133
134
133
132
128
123
118
114
110
107
104
101
99
99
101
103
105
108
112
115
117
121
125
127
132
135
137
140
144
146
146
146
146
146
147
148
149
149
149
149
148
147
146
147
148
150
152
154
156
160
164
169
173
175
177
177
175
173
169
164
159
154
149
145
140
136
132
127
125
123
118
115
115
115
113
110
110
113
115
116
118
122
125
129
135
139
143
145
146
148
152
155
156
156
155
154
152
149
145
142
137
132
127
122
118
116
115
115
115
115
115
115
115
113
108
105
105
103
98
95
93
91
88
87
87
87
88
91
94
98
104
108
112
115
117
119
122
123
125
127
129
133
138
144
149
154
159
163
166
169
173
174
173
169
164
159
154
149
143
137
133
129
126
126
126
129
132
135
137
140
143
145
146
146
146
146
146
145
142
137
132
125
118
113
108
103
98
94
91
88
87
87
89
92
94
94
94
94
94
94
95
96
97
97
97
97
96
95
94
93
91
87
85
84
84
84
84
84
85
86
88
91
93
94
94
52
57
64
71
74
77
82
84
84
84
84
84
84
84
84
84
85
87
91
93
97
103
108
113
118
122
126
129
134
137
138
139
139
138
137
133
129
124
119
115
112
109
107
106
106
107
108
109
112
115
117
120
124
127
130
134
137
139
143
145
146
147
148
149
149
149
149
148
147
146
146
146
146
146
146
146
147
148
150
153
155
159
164
167
169
169
169
169
167
164
160
155
150
146
143
138
134
129
126
125
123
118
115
115
115
114
113
113
114
116
118
122
125
129
133
137
142
145
146
147
150
154
156
155
154
152
150
147
144
139
135
129
124
120
117
114
113
113
113
114
115
115
115
115
113
108
105
105
102
97
94
91
87
85
84
84
84
85
87
91
96
101
105
108
111
113
115
117
118
119
122
124
127
132
137
143
149
154
159
164
168
173
176
176
174
169
164
159
154
149
144
139
136
134
133
134
135
137
140
142
144
145
146
146
146
146
146
145
143
139
135
129
122
115
109
104
98
94
91
87
85
84
85
87
92
94
94
94
95
96
97
98
101
102
102
102
102
101
98
96
95
93
91
88
86
85
84
84
85
87
90
92
94
95
96
96
48
54
63
71
75
80
83
85
86
87
87
87
87
87
87
87
88
92
96
99
104
109
114
119
124
129
134
138
142
145
146
146
146
146
143
139
136
132
127
122
119
116
115
113
113
113
115
116
117
119
122
125
129
132
135
137
140
143
146
148
149
150
152
153
154
154
153
152
149
147
146
146
146
146
146
146
146
146
147
148
150
154
158
160
163
164
164
163
160
158
156
152
148
144
140
137
134
129
126
125
123
118
115
115
115
115
115
115
115
117
121
125
129
133
136
140
144
146
146
147
150
153
153
152
150
147
145
142
138
133
128
123
118
114
112
109
108
108
109
112
114
115
115
115
113
109
106
105
102
97
92
88
85
83
82
82
82
83
85
88
93
97
102
105
107
109
111
113
113
114
115
117
120
124
129
136
143
149
154
160
166
171
175
177
176
174
169
164
159
154
149
146
143
140
139
138
140
142
144
145
146
146
146
146
146
146
146
144
140
136
132
125
118
112
106
101
96
92
88
85
84
84
85
88
92
94
95
96
98
101
102
103
104
105
105
105
105
104
103
101
98
95
93
92
90
87
86
86
88
91
93
95
96
98
101
101
46
54
63
71
77
83
86
88
90
92
92
92
92
92
92
92
93
97
102
106
112
116
122
127
132
137
142
146
149
152
154
154
154
152
149
146
143
139
135
129
126
125
122
119
118
119
122
125
126
126
129
132
135
137
140
143
145
147
150
153
154
154
155
156
156
156
156
155
152
148
146
146
146
145
144
144
144
144
144
144
146
149
152
154
156
157
158
157
155
154
152
149
147
144
139
136
135
132
127
125
123
119
116
115
115
115
115
115
116
119
124
128
133
136
139
143
145
146
146
147
148
148
149
148
146
143
140
137
133
128
123
118
113
109
107
106
105
105
107
110
114
115
115
115
114
112
108
106
103
97
92
87
84
82
78
76
77
81
83
86
91
94
98
102
104
106
107
107
107
108
109
112
114
118
123
129
136
143
149
156
163
168
173
176
177
176
174
169
164
159
155
152
149
146
144
144
144
146
148
148
148
147
146
146
146
146
145
142
137
133
128
122
115
109
104
98
94
91
86
84
84
85
87
91
94
95
98
101
103
105
107
107
108
108
108
108
107
106
105
104
101
96
94
94
93
91
89
91
92
93
95
98
101
103
104
104
45
54
64
73
80
85
90
92
94
95
96
96
95
96
97
97
98
103
108
113
118
123
128
133
138
144
148
152
155
157
159
159
159
158
156
153
149
146
142
138
135
133
129
126
126
126
129
133
135
136
137
138
140
143
146
148
150
153
155
157
159
159
159
158
157
156
156
156
153
149
146
146
145
143
140
139
138
138
138
140
142
144
146
148
149
150
152
152
150
149
148
147
146
144
139
136
136
134
129
126
124
122
118
116
115
115
116
117
119
122
127
132
136
139
143
145
146
146
146
146
146
146
146
145
143
139
135
132
128
123
118
113
108
106
105
105
105
105
107
112
114
115
116
117
117
115
112
108
104
98
93
88
85
82
76
74
74
77
82
85
88
92
95
98
101
102
103
103
103
103
103
105
108
113
118
123
129
137
145
153
159
166
171
175
177
177
176
174
169
164
160
158
155
153
150
149
149
150
152
153
152
149
147
146
146
145
143
139
133
128
123
118
112
106
101
96
93
89
86
85
86
88
91
94
96
98
102
105
107
109
111
112
113
113
113
112
111
108
106
105
102
97
94
94
94
93
93
93
94
94
96
101
104
105
106
107
45
54
64
74
82
88
93
96
97
98
101
101
100
101
103
103
105
108
113
118
123
128
133
139
144
148
153
156
159
163
164
164
164
164
163
159
155
152
148
145
142
139
137
136
136
136
137
139
142
144
145
146
147
149
152
154
156
158
160
163
164
165
164
163
160
158
157
156
154
149
146
145
143
139
137
135
134
134
134
135
137
138
140
143
144
145
147
148
147
146
146
146
146
144
140
137
136
135
132
127
125
124
122
119
118
118
119
121
123
125
129
135
139
143
145
147
148
148
148
147
146
146
145
143
139
134
129
127
123
118
113
108
106
105
105
105
105
106
109
113
116
117
119
122
122
119
116
113
108
103
97
91
86
82
77
74
74
76
82
84
86
91
93
95
96
97
97
97
97
97
97
99
103
108
113
118
124
132
140
148
156
163
169
175
177
177
177
176
174
170
166
163
160
158
157
156
155
154
155
156
155
152
148
146
145
143
139
135
129
124
119
114
109
104
98
95
93
91
88
88
91
92
94
98
101
104
106
109
111
113
114
115
115
115
115
115
114
111
107
105
102
97
94
94
93
92
92
93
94
94
97
102
105
106
108
111
45
55
66
76
85
92
97
101
103
105
107
107
106
107
108
109
112
115
118
123
128
133
138
143
147
152
156
159
164
166
167
167
167
167
166
163
159
156
153
150
148
147
146
146
146
146
146
147
148
150
152
154
156
157
158
160
163
165
166
168
169
169
167
166
165
162
158
156
153
148
145
143
139
136
134
132
129
128
128
129
132
134
135
137
138
140
142
144
144
144
145
146
146
145
143
139
137
136
134
129
126
125
124
123
123
123
123
124
126
129
133
137
142
145
147
149
152
153
152
148
146
145
143
139
135
129
125
122
118
114
109
106
105
105
105
105
106
108
113
117
119
122
125
127
127
125
122
118
113
108
102
95
88
84
81
77
76
78
82
84
86
89
93
94
94
94
94
94
94
92
93
94
98
103
108
113
119
128
137
146
153
160
168
174
177
177
177
177
176
174
171
168
166
165
164
163
160
159
159
158
157
154
150
147
144
140
136
132
127
122
116
112
107
103
97
94
94
93
92
92
94
96
98
102
105
108
111
113
114
116
117
117
117
116
115
115
115
112
107
104
101
96
94
92
90
88
88
91
93
94
97
102
105
107
111
114
46
57
70
82
90
97
102
106
109
111
113
113
113
113
115
116
118
122
125
129
133
138
143
146
150
154
158
163
166
167
167
167
167
167
167
166
164
159
156
154
154
153
153
153
153
153
154
154
156
157
158
160
163
164
165
167
169
169
171
173
174
173
170
168
167
164
159
155
152
147
143
139
136
133
129
127
124
123
123
124
125
127
129
132
134
135
137
138
139
140
142
144
145
146
145
143
139
137
135
133
129
126
125
125
125
125
125
125
127
132
136
140
144
147
149
153
155
156
153
149
146
144
140
137
133
128
123
119
116
113
108
105
105
105
105
106
108
113
118
122
125
129
132
133
133
132
129
124
118
113
106
99
92
87
84
82
82
82
84
85
87
91
93
94
94
94
94
93
91
88
88
91
94
98
104
109
116
126
136
144
150
157
167
174
177
178
179
180
180
178
176
174
171
170
169
169
167
165
164
163
159
156
152
148
144
139
134
129
124
119
114
109
106
102
97
94
94
94
95
96
98
101
104
106
109
112
114
116
117
119
121
122
121
118
116
115
114
111
107
103
98
94
91
88
86
85
85
87
91
93
97
102
105
108
112
115
48
61
73
84
94
102
108
112
115
117
118
118
118
119
122
123
126
129
132
135
139
143
145
148
152
155
159
164
167
167
167
167
167
167
167
167
166
163
158
156
156
156
156
156
156
157
158
160
163
164
164
166
168
169
171
173
174
175
175
176
177
176
174
170
168
164
159
154
150
145
140
136
133
128
124
122
119
118
117
118
119
121
123
125
127
129
132
134
135
137
138
140
143
145
146
145
142
138
136
135
132
127
125
125
125
125
125
126
129
134
138
142
145
148
152
155
156
156
154
149
146
144
139
135
132
127
123
118
115
113
109
106
106
107
108
109
113
118
123
128
133
136
138
138
138
138
136
132
126
118
112
105
98
92
88
87
87
86
87
88
91
93
94
94
94
94
94
92
88
85
85
88
92
96
102
107
116
126
136
144
149
157
167
174
178
181
184
185
185
184
181
179
178
177
175
175
173
171
169
167
163
158
154
148
144
138
134
127
122
116
112
107
105
102
97
94
94
95
98
101
104
106
109
112
114
116
118
119
121
123
124
125
124
121
117
115
113
109
105
101
96
91
87
85
84
84
84
85
87
91
96
101
104
108
113
115
51
63
76
87
98
107
114
118
122
125
126
126
126
126
128
129
133
136
138
140
143
145
147
150
154
156
158
163
166
167
167
167
167
167
167
167
166
163
158
156
156
156
156
156
157
160
163
165
166
167
168
170
173
174
175
176
177
177
177
177
177
177
176
173
169
164
159
154
148
143
137
132
127
122
118
115
113
113
113
113
113
115
116
118
122
124
127
129
132
134
135
137
139
143
145
145
143
138
136
136
134
129
126
125
125
125
125
127
132
135
138
143
146
148
153
156
156
156
153
149
146
144
138
134
129
126
123
118
115
114
112
109
109
112
113
115
118
123
128
133
138
142
144
144
144
144
142
138
132
124
118
112
105
99
95
94
93
92
93
94
96
97
97
96
95
94
94
92
87
85
85
87
92
95
100
107
116
126
136
144
150
157
167
175
179
184
187
188
188
187
186
186
185
184
181
180
179
177
174
170
166
160
155
150
144
138
133
126
119
114
109
106
105
102
98
97
97
98
102
105
108
111
114
116
119
121
123
123
124
125
125
125
124
121
117
114
111
107
103
98
93
88
84
82
81
81
81
82
84
88
93
98
103
107
112
115
