P2
# Created by GIMP version 2.10.36 PNM plug-in
128 128
255
225
210
189
169
152
138
129
120
113
107
101
97
95
97
102
108
115
122
128
133
137
139
139
138
135
132
129
125
123
121
119
117
113
108
103
96
88
77
66
57
48
40
33
28
24
22
24
28
34
41
49
57
66
73
79
83
86
89
93
98
104
110
116
121
124
124
120
115
108
98
85
74
63
53
45
40
40
44
51
61
73
85
96
108
119
128
136
143
146
148
149
148
147
145
142
138
136
135
134
134
134
134
135
138
143
152
163
174
185
196
206
215
223
230
235
240
244
247
249
251
251
252
253
253
253
253
253
253
209
196
177
159
143
131
123
116
110
104
99
95
93
94
99
105
111
118
123
128
132
134
135
134
132
130
127
124
122
120
118
115
112
109
104
99
92
83
75
68
60
53
47
42
39
37
39
42
48
54
62
70
77
83
88
90
92
93
96
99
104
109
114
117
119
119
116
112
106
97
88
78
69
61
55
51
51
55
61
70
81
92
102
113
123
132
139
145
150
152
153
152
149
146
143
139
136
135
134
133
132
132
133
135
140
148
157
168
178
187
196
204
211
218
224
229
233
237
241
244
245
247
248
249
249
249
249
249
188
176
161
145
132
123
116
111
106
102
98
94
92
92
95
101
106
112
118
122
126
129
130
130
129
127
124
123
121
120
117
114
112
110
107
103
98
92
86
80
74
68
63
59
56
54
55
59
64
70
77
84
90
95
98
100
100
99
100
102
105
109
111
113
114
113
111
108
103
97
90
82
76
70
66
64
64
67
72
81
90
100
109
119
128
135
142
148
153
156
157
156
153
149
145
141
137
135
133
132
130
129
129
132
137
143
151
159
168
176
183
190
196
202
208
213
217
222
226
230
233
236
238
239
239
240
240
240
168
158
145
132
123
116
110
106
103
100
97
93
91
91
94
98
103
108
112
116
119
122
124
125
125
124
123
122
121
119
116
114
113
112
110
108
105
102
98
93
88
84
79
76
73
71
72
75
80
86
92
98
104
108
110
110
108
106
106
106
108
109
110
110
109
108
107
104
101
97
92
87
82
79
77
76
76
79
83
90
98
107
115
123
131
138
145
151
157
160
161
160
156
152
147
142
138
135
132
130
127
126
126
129
133
138
144
150
157
163
169
175
180
186
191
195
200
204
209
213
217
220
222
224
224
224
224
224
149
141
132
123
116
110
106
103
101
99
97
94
92
92
94
97
100
103
106
110
113
117
119
121
122
122
122
122
121
120
118
116
116
115
115
114
113
111
109
106
102
98
94
90
88
87
88
90
94
100
107
112
117
120
121
120
117
115
113
112
111
111
109
106
105
104
103
101
100
98
95
92
89
87
86
85
86
88
92
98
105
112
119
126
134
141
147
154
159
163
164
163
159
154
148
143
138
134
131
128
125
124
124
126
129
133
137
142
147
151
156
160
165
170
175
179
183
187
192
196
199
202
204
205
206
206
206
206
136
130
123
117
112
107
104
102
101
99
98
96
94
94
95
97
99
101
103
105
109
112
115
118
120
121
122
122
122
121
120
120
120
121
121
122
122
121
119
117
113
110
106
103
100
100
100
103
107
113
119
124
129
131
132
130
127
124
121
119
115
112
109
105
102
101
101
100
99
99
98
97
95
94
93
93
94
96
99
104
109
116
122
129
136
143
150
156
162
165
166
165
161
155
149
143
138
134
130
126
124
123
123
124
126
128
131
134
137
141
145
148
152
156
161
165
169
173
177
181
183
186
187
188
188
188
188
187
129
126
120
116
111
108
105
103
102
100
99
98
97
96
97
98
99
100
101
102
105
108
112
116
119
121
122
122
122
123
123
123
125
126
127
129
129
129
128
125
123
120
116
113
110
109
110
113
117
123
128
133
138
141
141
139
136
133
129
125
120
115
110
105
101
100
100
99
99
100
100
101
101
101
100
100
101
102
105
108
113
119
125
131
138
145
152
159
164
167
168
167
163
156
150
144
138
133
128
125
123
122
122
122
122
123
125
127
129
132
134
137
140
145
149
153
157
160
164
168
171
173
175
175
175
174
173
173
130
127
123
118
114
111
109
107
104
102
100
99
98
98
98
98
99
99
99
100
102
105
109
113
117
120
122
123
123
124
126
127
129
131
133
135
135
135
134
133
130
127
124
120
118
116
117
120
124
129
135
140
144
147
148
146
143
140
135
130
125
118
111
105
101
100
99
99
100
101
103
105
107
107
107
108
108
109
110
112
116
121
126
133
139
147
155
162
167
170
171
169
165
158
151
144
138
133
128
125
123
122
121
120
119
119
120
121
122
123
125
128
131
135
139
143
147
151
155
158
162
165
166
166
166
164
162
161
137
134
129
124
119
115
112
110
108
105
102
100
99
98
98
98
98
98
98
99
100
103
107
111
116
119
122
123
125
127
129
132
134
136
139
140
140
140
140
138
135
132
129
125
122
121
121
124
129
134
139
144
148
151
152
151
148
145
140
135
128
121
112
105
101
100
99
99
100
102
106
109
111
112
113
113
113
114
115
116
119
124
129
135
142
150
158
165
170
174
174
172
166
159
152
145
139
134
129
125
123
121
119
117
115
115
114
114
115
116
118
120
123
127
132
135
139
143
147
151
154
157
159
160
159
157
155
152
148
144
138
131
125
121
116
113
110
107
103
100
99
98
97
97
96
96
96
97
99
101
105
110
114
119
122
125
128
131
133
135
138
140
142
143
143
143
143
141
139
135
132
128
125
123
123
126
130
135
140
145
149
152
152
152
151
148
143
137
130
122
113
105
101
99
99
99
100
103
107
111
115
117
118
118
118
119
119
120
123
127
132
139
146
154
162
169
174
177
177
174
168
161
154
147
140
135
130
126
123
120
117
114
112
110
110
109
110
110
112
114
117
121
125
128
132
136
140
144
148
152
154
155
155
153
149
146
161
155
147
139
132
126
121
117
112
108
103
100
98
96
95
94
93
92
93
94
96
99
103
109
114
119
123
127
130
133
135
138
141
143
144
144
144
144
144
143
140
137
133
130
126
124
124
126
131
135
139
144
147
149
150
150
149
147
143
137
130
121
113
105
101
99
98
98
100
103
108
113
117
119
121
121
122
122
123
124
126
130
136
143
150
158
166
173
178
180
179
176
170
163
156
148
142
137
132
128
124
121
117
113
110
107
105
104
104
105
106
109
112
116
119
123
127
131
135
139
143
147
150
152
152
150
146
143
173
165
156
147
138
131
124
119
113
108
103
99
96
93
92
91
90
90
90
91
93
97
102
107
113
119
124
129
133
135
138
141
143
144
145
145
145
145
144
143
141
137
134
131
126
124
124
126
130
133
136
139
142
144
145
145
144
142
139
134
127
119
111
104
100
97
96
97
99
103
108
113
118
121
122
124
125
126
126
127
129
134
140
147
155
163
170
177
182
183
182
178
172
165
157
149
144
139
134
130
126
122
118
114
109
105
103
102
101
102
103
105
108
111
115
118
122
126
131
135
140
144
148
150
151
148
145
142
182
174
163
153
143
134
126
120
114
108
102
98
94
91
89
88
88
87
88
89
91
94
100
106
112
119
125
131
135
138
141
143
145
146
146
146
145
145
145
144
141
137
134
131
127
124
124
125
128
130
131
133
134
135
137
138
138
135
132
128
122
115
108
102
98
94
93
95
98
103
108
113
118
121
124
127
129
130
131
132
134
138
144
151
159
166
173
179
183
184
182
178
172
165
157
150
144
140
136
132
129
124
120
115
110
105
102
101
100
100
101
102
105
108
111
114
118
122
127
132
137
142
146
149
150
148
146
143
188
179
167
156
145
135
126
120
113
108
101
96
91
88
86
85
85
85
85
86
89
93
98
105
112
120
127
133
137
141
144
146
147
148
148
147
146
145
145
144
141
137
134
131
128
125
123
123
124
125
125
125
125
125
126
128
128
126
123
120
116
110
104
99
95
93
92
94
98
102
107
112
118
122
125
129
132
133
134
136
138
142
148
154
162
169
175
180
183
183
180
176
170
163
155
149
144
141
137
134
130
126
122
116
111
107
103
101
100
100
100
101
102
105
109
112
115
119
124
129
135
141
146
149
151
150
148
147
190
180
168
156
145
135
126
119
112
106
100
94
89
85
82
81
80
80
81
83
86
91
97
104
112
121
129
136
141
144
147
149
150
151
151
150
148
146
145
144
141
138
135
132
129
125
123
122
121
120
119
118
116
115
115
115
115
114
113
111
108
103
99
96
93
91
91
93
97
101
106
112
117
122
126
130
133
135
137
139
142
145
150
157
164
169
175
179
181
180
177
172
166
159
152
147
142
139
136
134
132
128
124
119
114
109
105
103
101
100
100
100
101
103
107
110
113
117
122
128
135
141
146
150
153
153
153
152
187
177
165
153
142
132
124
117
110
103
97
91
86
82
79
77
76
76
78
80
84
89
96
104
113
122
131
139
144
148
151
153
153
154
154
152
149
147
145
144
141
138
135
133
130
126
123
120
118
115
112
110
107
105
103
103
103
102
102
101
100
97
94
92
91
90
91
93
97
101
105
111
116
122
127
132
135
138
140
142
144
147
152
158
164
169
174
177
177
176
172
166
160
153
147
142
139
137
135
134
133
130
126
122
118
113
109
105
103
102
100
100
100
102
105
108
112
116
121
127
134
141
147
152
155
157
158
158
178
169
158
146
137
127
120
113
107
100
94
88
83
78
75
72
71
72
74
77
82
88
94
103
113
123
133
141
147
152
155
156
156
156
155
154
151
148
146
144
142
138
135
133
130
125
122
118
114
110
106
102
99
95
93
92
92
92
92
92
92
91
90
90
90
90
92
95
98
102
106
112
117
123
129
133
137
140
142
144
146
148
153
158
164
168
172
173
173
170
166
160
153
147
141
137
135
134
134
134
133
132
129
125
121
116
112
109
107
104
102
101
100
101
103
107
111
114
120
126
134
142
147
153
157
161
164
165
165
157
147
137
129
121
114
108
102
96
90
85
80
75
71
69
68
69
71
75
80
86
93
102
113
123
134
143
150
156
159
160
159
158
156
155
152
149
146
144
142
138
135
133
130
125
121
116
111
106
100
96
91
88
85
83
83
83
84
85
86
87
88
89
90
92
94
98
101
105
109
114
119
125
130
135
139
142
144
145
146
148
152
156
161
165
168
169
167
164
159
153
146
140
135
132
131
131
132
133
133
133
131
128
124
120
116
112
110
107
104
102
101
101
102
105
109
113
118
125
134
142
148
155
160
165
170
172
149
142
134
126
120
113
108
102
97
92
87
82
77
72
69
67
66
66
69
72
77
84
92
102
112
123
134
144
153
159
162
163
162
160
157
155
153
149
146
145
142
139
136
133
130
125
120
115
109
103
97
91
86
81
78
77
76
77
77
79
81
84
87
90
93
96
99
102
105
109
112
117
122
127
132
136
140
143
144
145
145
147
150
153
158
161
163
164
162
158
153
146
139
133
129
126
126
127
130
132
133
133
132
130
127
123
119
116
113
110
107
105
103
102
103
105
109
113
118
125
134
142
149
157
164
171
176
179
130
125
119
114
109
104
100
96
92
88
84
79
74
70
67
65
64
65
67
70
76
83
91
102
112
124
134
145
154
160
164
165
164
162
159
156
153
150
147
145
143
140
137
134
130
125
120
114
108
101
94
88
82
77
73
72
71
71
72
75
78
82
87
91
95
99
103
107
110
113
116
120
124
129
133
137
141
143
144
144
144
145
147
150
153
156
158
158
156
152
146
139
132
126
122
120
121
124
127
130
132
133
133
132
129
126
122
119
116
113
110
108
106
105
105
107
110
113
118
126
134
143
151
160
168
176
182
186
109
106
103
100
97
94
91
89
86
84
81
76
72
68
66
64
63
64
66
70
75
82
91
101
112
124
134
145
154
160
164
165
165
163
159
156
154
151
148
146
144
142
138
135
131
126
120
114
108
101
93
86
80
74
71
69
68
69
70
73
78
83
88
94
99
104
108
112
115
117
120
123
127
131
134
137
140
142
142
142
142
142
144
146
149
151
153
152
150
146
140
133
126
120
117
115
117
120
124
128
131
132
133
133
131
129
126
123
119
116
114
111
109
108
108
109
111
115
120
126
135
145
154
163
171
179
187
192
89
88
87
87
86
84
83
82
81
80
78
75
71
68
66
65
64
65
67
71
76
83
92
102
112
123
134
144
152
159
163
164
164
162
158
156
154
151
148
146
144
142
139
136
132
126
121
115
109
101
94
87
80
75
71
69
69
69
71
74
80
85
92
98
103
108
113
117
119
121
124
126
130
132
134
136
139
140
140
139
138
138
140
142
144
146
147
147
145
141
135
128
121
115
112
111
113
117
121
125
129
131
132
133
132
131
129
126
123
120
118
115
113
111
111
111
112
115
121
127
136
146
155
165
174
182
190
196
72
73
75
77
77
77
77
78
78
78
77
74
71
68
67
67
66
67
69
73
78
85
93
102
113
123
134
143
151
156
160
162
162
159
157
155
152
149
147
145
144
142
140
136
132
128
122
116
110
103
96
90
83
78
74
72
72
73
75
79
84
91
97
103
109
113
118
121
123
125
127
129
132
133
134
135
136
137
137
136
135
135
136
138
140
142
142
142
140
136
130
123
117
111
108
107
110
113
118
122
126
129
131
132
133
132
131
129
126
124
121
119
116
114
113
112
113
116
121
127
136
145
155
165
174
182
190
196
60
63
67
70
71
72
73
75
76
77
76
75
73
71
70
70
70
71
73
77
82
88
95
104
113
124
134
142
149
154
157
158
158
157
155
153
150
148
145
144
143
141
139
135
132
128
123
117
111
105
99
93
87
83
80
78
78
80
82
86
92
98
104
109
114
118
122
125
127
129
130
132
133
134
134
134
135
135
135
134
132
132
132
134
136
136
137
136
134
130
125
119
113
108
104
104
107
111
115
119
123
126
129
130
132
132
132
131
129
127
125
122
119
117
115
114
114
117
121
127
135
144
153
162
171
179
186
191
55
59
64
68
70
71
73
75
76
77
77
77
76
75
75
75
76
76
78
82
87
93
99
106
115
124
133
141
147
152
154
155
155
154
152
150
147
145
143
142
140
138
136
133
130
126
122
118
113
107
102
97
92
88
86
84
85
88
91
95
100
105
111
115
120
123
126
129
130
132
132
133
134
134
134
134
134
134
133
132
129
128
128
130
131
132
132
131
129
126
121
116
111
106
103
103
105
109
113
117
120
123
126
127
130
131
133
133
132
130
128
126
123
120
118
116
116
118
122
127
134
142
150
158
166
173
179
183
56
61
66
70
73
75
76
77
78
79
79
80
80
80
80
81
81
82
84
88
92
98
104
110
117
125
134
141
146
150
152
152
152
151
149
146
144
142
140
138
136
134
133
130
128
125
121
118
113
109
105
101
97
93
92
91
93
96
100
104
109
114
119
122
126
129
130
132
133
133
133
134
134
134
134
134
134
134
133
131
128
126
125
126
127
127
128
127
125
122
118
113
109
105
103
102
105
109
112
115
119
122
123
125
127
130
132
133
133
132
131
129
126
123
121
119
119
120
123
127
133
140
146
153
159
165
169
173
63
69
73
78
80
81
82
82
83
83
83
84
85
86
86
87
88
89
91
94
98
103
109
115
121
128
135
141
145
147
148
148
148
147
145
143
141
138
136
134
132
131
129
127
125
122
120
117
113
110
108
104
101
99
98
99
101
105
109
114
119
123
126
129
132
133
134
134
134
134
134
134
134
134
134
134
134
134
133
131
127
125
124
124
124
124
125
124
123
120
116
113
110
106
104
104
106
109
112
115
119
121
122
123
125
128
131
133
133
133
133
131
129
126
124
122
121
122
124
127
132
138
143
149
153
157
159
162
74
79
84
88
89
90
90
90
90
90
90
90
91
92
92
93
94
96
98
101
104
109
114
119
125
131
136
141
144
146
146
146
145
144
142
139
137
134
132
130
128
126
125
123
121
119
117
115
113
111
109
107
105
103
103
105
108
113
118
123
127
131
134
136
137
137
137
136
135
134
134
134
134
134
134
134
134
134
133
131
128
126
124
124
123
123
123
123
122
120
117
114
111
108
107
107
109
111
114
117
120
121
122
123
124
127
130
132
133
134
133
133
132
129
127
125
124
124
125
128
132
136
141
144
147
148
149
150
85
90
96
99
100
100
100
99
98
97
97
97
98
99
100
100
101
102
104
107
110
114
119
124
129
134
138
142
144
145
145
145
144
141
139
136
134
131
128
126
124
122
121
119
118
116
114
113
112
111
110
109
108
108
109
111
115
120
126
131
136
140
143
144
144
143
141
139
136
135
134
134
134
134
134
134
134
134
133
132
130
128
126
125
124
124
123
123
122
121
119
116
114
112
111
111
112
114
116
119
121
122
122
123
124
126
130
132
133
134
134
134
133
132
130
128
127
126
127
129
133
135
138
141
142
142
140
139
98
102
107
110
111
111
109
107
105
104
103
103
105
106
107
107
108
109
110
113
115
119
123
127
132
137
140
143
144
145
145
144
142
139
136
134
131
128
125
123
120
118
117
115
114
113
112
112
111
111
111
110
110
111
112
116
121
127
133
139
144
148
150
151
150
148
145
142
139
136
135
134
134
134
134
134
134
134
134
134
132
131
129
128
127
126
125
124
124
123
122
120
117
116
115
115
116
118
120
122
123
123
123
123
124
125
129
131
133
134
134
134
135
134
133
132
131
130
131
132
134
136
137
138
138
136
134
131
110
114
118
120
121
120
118
115
113
111
110
110
111
112
113
113
114
114
116
118
120
123
126
130
135
139
142
144
144
145
144
143
140
137
135
132
129
126
123
121
118
115
114
113
112
112
111
111
111
111
111
111
111
112
115
120
126
133
140
146
151
155
157
157
156
153
149
145
141
138
136
135
134
134
134
134
134
135
135
135
134
133
132
131
130
129
128
127
126
126
125
124
122
121
120
120
121
122
123
125
125
125
125
124
123
124
127
129
132
133
134
135
136
137
137
136
135
134
135
136
137
138
138
137
136
133
129
126
121
124
127
129
129
128
125
123
120
118
116
116
117
118
118
118
119
119
120
122
124
126
130
133
136
140
143
144
144
144
143
142
139
136
133
131
128
124
122
120
116
114
112
111
110
110
110
111
111
111
111
111
112
113
117
123
130
138
146
152
157
160
162
162
161
157
153
148
144
139
136
135
134
134
134
134
135
136
137
137
137
136
135
134
134
133
132
131
131
130
130
129
127
126
125
125
126
126
127
129
129
129
128
125
124
124
125
127
130
132
134
136
139
140
141
140
139
139
139
140
141
141
141
139
136
131
126
122
129
132
135
136
136
134
132
129
126
124
122
121
121
122
122
122
123
123
124
126
127
130
132
134
137
140
142
143
143
143
142
140
137
134
132
130
127
124
122
119
116
113
111
109
108
108
109
110
110
111
111
111
112
114
118
125
133
142
150
157
161
164
166
165
164
161
156
151
145
141
137
135
134
134
134
135
136
138
140
140
140
139
138
137
137
136
135
134
134
134
134
133
132
131
131
130
131
131
131
132
132
131
129
126
124
123
124
125
128
132
134
137
141
143
144
144
143
143
144
144
145
144
143
141
136
131
125
120
138
140
142
143
142
140
138
135
132
130
127
126
126
126
126
126
126
127
129
130
131
133
134
135
137
139
141
142
142
141
140
138
135
133
130
128
126
124
123
120
116
113
110
107
105
105
107
108
109
110
111
111
112
115
120
127
135
144
153
160
164
166
167
167
165
162
156
151
146
141
137
135
134
134
134
135
137
139
142
143
143
142
141
141
140
139
138
138
137
137
137
137
136
136
135
134
134
134
134
134
134
133
130
127
124
123
123
125
127
131
134
138
141
144
146
147
148
148
148
148
148
147
145
142
137
131
125
120
146
147
148
149
148
146
143
140
137
134
132
131
130
130
130
130
130
131
132
133
134
135
135
136
136
138
139
139
138
138
137
135
133
131
129
128
128
127
125
122
118
114
110
106
104
103
104
106
108
109
110
111
113
116
121
128
136
145
154
161
165
167
168
167
164
161
155
149
144
139
136
135
134
134
134
135
137
140
142
143
144
144
144
143
143
142
142
141
141
141
141
141
141
140
139
138
138
138
138
137
136
135
132
128
125
124
124
125
127
132
135
138
142
146
148
151
152
153
153
153
153
151
148
144
139
132
125
120
153
153
154
154
153
151
148
145
141
138
135
133
133
132
132
132
133
133
134
135
136
137
138
138
138
137
137
137
136
136
135
134
132
129
128
129
130
129
128
124
120
116
111
107
104
102
102
103
105
107
108
110
113
116
122
129
137
146
154
161
164
166
166
165
162
158
152
147
142
138
135
134
133
133
133
134
136
139
142
143
144
144
144
144
144
144
144
144
144
144
143
143
143
143
142
142
142
142
142
141
140
137
134
130
127
125
125
126
129
133
136
140
144
147
151
154
155
157
158
158
158
156
152
148
141
134
126
120
158
158
159
158
157
155
152
148
144
141
137
135
134
133
133
133
134
134
135
138
140
141
141
141
140
139
138
137
136
135
134
133
131
128
128
130
131
131
130
126
122
118
113
109
104
102
101
102
103
105
107
110
112
116
122
129
137
145
153
159
162
163
163
161
158
154
149
144
140
136
134
133
131
131
131
132
134
136
139
141
143
144
144
144
145
145
144
144
144
144
144
144
144
144
144
144
145
146
146
145
143
140
136
133
129
128
128
129
132
135
138
142
146
149
153
156
159
161
163
163
163
160
157
151
144
136
128
121
163
163
163
163
161
159
155
151
147
143
138
136
134
133
133
133
134
135
137
140
142
143
143
143
143
142
140
138
136
135
134
133
131
128
128
130
132
132
131
128
123
119
114
110
106
103
102
102
103
105
107
110
113
117
122
129
136
144
151
155
157
158
158
156
153
149
145
141
138
135
133
131
128
127
127
128
130
132
135
137
140
142
143
144
144
145
145
145
144
144
144
144
145
145
145
146
147
149
149
147
145
142
139
135
133
132
132
133
135
138
141
144
148
152
155
159
162
165
167
168
168
165
161
155
148
139
130
124
165
165
165
165
164
161
157
153
148
144
139
136
133
132
131
132
133
134
137
140
143
144
144
144
144
143
142
141
138
136
134
133
131
128
128
131
132
133
131
129
124
120
115
111
108
105
104
104
105
107
109
112
114
118
123
129
136
143
148
151
153
154
153
152
149
146
142
139
136
134
132
129
126
124
123
124
125
127
129
132
135
139
141
142
143
144
144
144
144
144
144
144
144
145
145
146
148
150
151
149
146
144
141
138
136
135
136
137
139
142
144
147
150
153
157
161
164
167
170
172
172
170
165
160
152
143
135
128
164
164
165
165
164
162
158
154
149
144
139
134
131
129
128
129
131
133
136
140
143
144
145
145
145
144
144
142
140
137
135
133
131
128
128
131
132
132
131
128
124
120
116
113
110
109
108
108
109
111
112
114
117
121
125
131
136
142
145
148
149
149
149
148
146
143
140
137
135
134
132
128
125
123
121
120
120
121
123
126
130
133
136
139
141
142
143
143
142
142
142
142
143
143
144
145
147
149
150
149
147
145
143
141
140
139
140
142
143
145
147
149
152
155
158
162
166
169
173
175
175
173
170
164
157
148
138
132
159
161
162
163
162
161
157
153
148
143
137
132
128
125
124
125
127
130
134
139
142
144
145
145
145
145
144
143
141
137
135
133
131
128
128
131
132
132
130
127
124
121
118
115
112
111
111
112
113
114
116
118
121
124
128
133
137
142
144
146
146
146
146
145
144
141
138
137
135
134
132
129
125
121
118
116
115
114
116
118
123
127
131
135
137
139
140
140
139
138
138
138
139
140
141
142
144
146
147
147
146
145
144
144
144
144
145
147
148
149
150
152
154
156
159
162
167
170
174
177
178
177
173
168
161
152
142
136
155
157
158
159
159
158
155
152
147
142
136
130
125
122
121
121
123
127
131
136
140
143
144
145
145
145
145
143
141
138
135
133
131
129
129
131
132
131
129
126
123
121
119
116
114
113
114
115
117
119
121
123
126
129
132
135
139
142
144
145
145
145
145
145
143
141
139
138
137
136
134
130
126
121
116
113
110
109
110
112
116
121
126
130
133
135
136
135
135
134
134
134
134
136
137
138
140
142
144
144
145
145
145
146
147
148
150
151
152
152
153
154
155
156
158
161
166
170
175
178
180
179
176
172
164
155
146
139
151
153
155
156
156
155
153
150
145
139
133
126
121
117
116
117
119
123
127
133
138
142
144
145
145
145
145
144
141
138
135
134
132
131
131
132
131
129
127
124
123
122
120
119
117
116
117
119
122
124
127
130
132
135
137
139
142
144
145
145
145
145
145
145
144
143
142
141
140
138
136
132
127
122
116
111
107
105
105
107
111
116
120
125
128
130
131
131
131
130
129
129
129
130
132
133
135
138
140
142
143
145
146
148
150
152
153
154
154
154
154
154
154
155
157
160
165
170
175
179
182
182
178
173
166
156
147
141
148
150
152
153
153
152
149
146
141
135
129
122
117
113
111
112
115
119
124
130
136
140
143
145
146
146
145
144
142
138
135
134
133
132
132
131
130
127
125
123
122
122
121
121
120
121
122
125
127
130
133
136
138
141
142
144
145
146
146
146
146
145
145
145
145
144
144
143
143
141
139
136
130
124
117
111
106
103
102
103
107
111
116
121
124
126
126
126
126
125
125
124
124
125
126
128
130
133
136
138
141
144
146
149
152
154
155
155
155
154
153
152
151
153
155
158
163
169
174
178
182
182
179
174
166
157
148
141
146
147
148
150
149
147
144
140
135
130
123
117
113
109
107
108
111
116
122
128
134
140
144
146
147
147
146
145
142
138
136
134
134
133
132
130
128
126
124
123
122
122
122
122
123
124
127
130
133
136
139
142
145
146
147
148
148
148
148
148
146
146
145
145
145
145
145
144
144
143
142
138
133
127
120
113
107
103
101
102
104
108
113
117
121
122
123
123
123
122
121
120
120
120
121
123
125
128
132
135
139
143
146
150
153
155
155
155
154
153
150
149
148
149
152
156
161
166
172
176
180
181
178
173
165
156
147
140
144
144
145
145
144
141
138
134
129
124
118
113
109
105
104
105
109
114
121
128
135
141
146
149
151
151
149
146
143
139
136
135
134
133
131
128
126
124
123
122
122
122
123
124
126
128
132
135
138
142
145
149
151
153
153
153
153
152
151
150
148
146
145
145
145
145
145
145
145
144
143
141
136
130
123
116
109
104
102
101
102
106
110
114
118
120
121
121
120
119
117
116
116
116
116
118
121
124
128
132
137
141
146
150
153
155
155
155
153
151
148
146
146
147
149
153
158
163
169
174
177
177
175
171
163
153
144
137
141
141
141
140
138
135
131
127
122
117
113
109
105
103
103
105
109
115
123
130
137
144
149
152
154
154
152
149
145
140
137
135
134
132
129
126
124
123
122
122
122
122
123
126
129
133
137
140
144
148
152
155
157
158
158
157
156
155
153
151
148
146
145
145
145
145
145
145
145
145
144
142
138
132
125
118
112
106
103
101
102
104
109
112
115
117
118
118
117
115
114
113
113
113
113
115
117
121
125
130
135
139
144
149
152
154
154
153
151
148
145
144
143
144
146
150
154
160
165
170
173
173
171
166
158
149
140
134
136
136
135
134
132
129
125
121
117
113
109
105
103
102
103
107
112
118
126
134
142
148
153
157
158
158
155
152
147
143
139
136
134
131
128
125
123
122
121
120
121
122
124
128
132
136
141
145
149
153
157
161
162
163
162
161
158
156
154
152
148
146
145
145
145
145
145
145
145
145
144
143
140
134
127
121
114
109
105
102
102
104
108
110
112
114
114
114
114
113
112
112
112
112
112
113
115
119
123
128
133
138
143
147
151
153
153
151
148
145
142
140
139
140
143
146
151
156
162
166
168
168
166
162
154
145
137
131
131
131
129
127
125
122
119
116
112
109
106
104
103
104
106
111
116
123
131
139
147
153
158
162
163
162
159
155
150
145
141
137
134
131
127
124
122
120
119
118
119
122
125
130
134
140
144
148
153
158
162
164
165
166
165
163
159
156
154
151
148
146
145
145
145
145
145
145
145
145
144
143
140
135
129
123
116
111
107
103
102
103
107
109
111
112
112
112
112
112
111
111
111
111
112
113
114
118
122
127
132
137
142
146
149
150
150
148
145
142
139
137
136
137
139
143
147
152
157
161
163
163
161
156
149
141
133
127
125
125
124
121
119
116
114
112
109
107
106
105
106
107
111
116
122
129
137
145
153
159
164
167
168
166
163
158
153
147
142
137
134
130
126
123
120
118
116
116
117
121
125
130
136
141
146
151
156
161
164
166
167
167
165
163
159
155
152
149
147
146
145
145
145
145
145
145
145
145
144
143
141
136
130
124
118
113
108
104
102
103
106
108
110
111
111
111
111
111
111
111
111
111
112
113
115
118
122
126
131
136
140
144
146
147
146
144
141
138
136
134
133
134
136
139
143
147
151
154
156
155
153
149
143
136
129
123
120
119
118
116
113
111
109
108
107
107
108
109
110
113
117
122
128
136
144
152
159
165
169
172
172
170
166
162
156
149
143
138
133
129
124
121
118
115
114
113
115
119
124
129
135
141
147
152
158
162
165
167
167
166
165
162
158
154
150
148
146
145
145
145
145
145
145
145
145
145
144
143
140
136
131
125
119
113
109
104
102
102
104
107
109
110
111
111
111
111
111
111
112
112
113
114
117
120
123
127
131
135
138
142
143
144
143
141
138
135
132
131
130
131
134
136
139
142
145
147
148
148
146
142
137
131
124
120
115
114
113
111
109
106
105
105
106
108
110
112
115
119
124
129
135
142
150
158
165
170
174
175
175
173
168
163
157
151
144
137
132
127
122
118
115
113
111
112
113
117
122
127
134
140
146
152
158
163
166
167
167
166
163
160
156
152
149
147
146
145
145
145
145
145
145
145
145
145
144
142
139
135
130
124
119
114
109
104
101
101
102
105
108
110
111
111
111
111
112
112
113
114
115
117
120
122
125
128
132
134
137
139
141
141
140
137
134
131
128
127
127
128
131
134
136
138
140
142
142
141
139
136
131
126
120
116
112
110
109
107
105
103
102
103
105
109
112
116
120
125
130
136
142
148
155
162
169
174
176
177
176
174
169
164
157
151
143
136
130
124
119
115
112
110
109
109
111
115
120
125
132
138
145
151
157
162
165
166
166
164
161
157
153
150
147
146
145
145
145
145
145
145
145
145
145
144
143
141
137
133
128
123
118
113
109
104
102
101
102
105
108
110
111
111
111
112
113
114
115
117
119
122
124
126
128
130
133
134
135
137
137
137
136
134
131
128
126
125
125
127
130
133
134
135
136
137
137
135
133
130
126
121
116
113
109
107
105
103
102
101
101
102
106
110
115
120
125
131
136
141
147
153
159
166
171
175
177
178
177
174
169
164
157
149
142
134
127
121
115
111
108
106
105
106
108
112
117
123
130
136
143
149
155
159
163
165
164
162
158
154
151
148
146
145
145
145
145
145
145
145
145
145
144
144
142
139
135
131
126
121
116
112
109
105
103
102
103
105
108
110
111
112
112
113
115
117
119
121
124
126
129
131
132
133
134
134
135
135
135
135
134
131
128
126
125
125
126
128
131
133
134
134
135
134
133
131
128
125
120
116
112
108
106
104
102
101
100
100
101
103
107
112
118
124
130
135
141
146
151
156
162
167
172
175
177
177
177
174
169
163
156
147
139
131
124
117
111
107
104
102
102
103
106
110
115
121
127
134
141
147
153
157
160
162
161
159
156
152
149
147
146
145
145
145
145
145
145
145
145
145
144
142
140
137
132
128
123
119
115
112
109
106
105
105
105
108
110
111
112
113
114
116
118
120
123
126
129
131
133
135
136
136
135
135
134
134
134
134
132
130
127
126
125
127
128
130
132
134
134
134
134
133
130
127
124
121
117
113
109
105
103
101
100
100
99
99
101
103
108
114
120
127
133
139
144
148
153
157
161
166
170
173
175
176
175
172
168
162
155
146
137
129
121
114
108
104
101
101
101
102
105
109
114
119
125
132
138
144
150
154
156
157
157
155
152
149
147
146
145
145
145
145
145
145
145
145
145
144
143
140
137
134
130
125
121
117
114
112
111
109
108
108
109
110
111
112
113
115
116
119
121
124
127
130
133
135
137
139
140
139
137
135
134
134
133
133
131
128
127
127
128
130
132
133
135
135
135
134
133
131
128
125
122
118
114
110
106
103
102
101
100
99
98
98
100
104
109
115
122
129
135
141
145
149
152
156
159
163
167
170
172
173
172
170
165
160
153
145
136
127
119
112
106
102
100
100
100
101
104
108
113
117
123
130
135
141
146
150
152
153
152
151
149
147
146
145
145
145
145
145
145
145
145
145
144
143
141
138
135
131
127
124
120
117
114
113
112
112
112
112
112
112
113
115
116
118
119
122
124
128
130
133
136
139
141
142
142
140
138
136
134
133
132
131
129
128
128
130
132
134
136
137
138
137
137
135
133
131
127
124
120
116
113
109
105
102
103
102
101
99
97
97
100
103
109
115
123
130
136
141
145
147
150
152
155
158
162
164
167
168
168
166
162
157
151
144
135
126
118
111
105
102
100
100
100
101
104
108
112
116
121
127
132
137
142
145
147
147
147
147
146
145
144
144
145
145
145
145
145
145
145
145
144
142
139
136
132
128
125
123
120
118
116
115
115
115
115
115
115
116
117
118
119
121
122
124
126
130
132
135
138
140
142
142
141
140
137
135
133
132
131
129
128
127
130
132
135
138
140
142
142
141
139
137
134
131
127
123
120
116
112
108
104
101
108
106
103
101
98
98
100
104
109
115
123
131
137
141
143
145
146
148
149
152
155
157
160
162
163
162
159
155
149
143
135
126
118
112
106
102
100
100
100
101
104
108
111
115
120
125
129
133
137
140
142
142
142
142
142
142
142
143
144
145
145
145
145
145
145
144
144
142
138
135
131
127
124
122
121
120
119
119
120
120
120
120
120
121
121
122
122
123
123
125
128
131
133
135
138
139
140
140
139
137
135
133
132
130
128
126
126
127
131
134
138
141
145
146
145
144
141
138
135
132
128
124
120
116
112
108
104
101
114
112
108
104
101
99
101
104
109
115
123
130
135
139
141
142
142
142
143
145
147
150
153
156
157
158
156
153
148
142
135
128
120
113
107
103
101
100
101
102
105
109
111
114
119
122
126
129
132
135
136
137
137
137
137
138
139
141
143
144
144
144
144
144
144
144
143
141
137
134
131
127
124
123
122
122
122
123
124
125
125
125
125
125
125
125
125
125
124
125
127
130
132
133
135
135
136
136
135
134
132
131
129
127
125
124
125
127
131
136
140
145
148
150
149
146
142
139
135
132
128
124
120
117
112
108
103
100
122
119
114
108
103
101
101
104
109
115
122
128
133
136
138
137
136
136
136
137
139
142
146
149
152
154
154
152
148
143
137
130
123
116
110
106
103
102
102
104
107
109
111
114
117
119
122
124
127
129
131
131
132
132
133
134
135
138
140
142
143
143
143
143
143
143
142
140
137
134
131
127
124
123
123
123
124
126
128
130
131
131
131
131
130
130
129
128
125
124
125
127
128
130
130
131
131
131
131
130
129
127
125
124
123
123
124
127
131
136
142
147
150
151
150
146
142
138
134
130
127
123
120
116
112
107
101
97
131
127
120
113
107
103
102
104
109
114
120
126
130
133
133
132
131
129
128
129
132
135
139
144
148
151
153
152
149
145
139
133
127
120
114
109
106
105
105
106
108
110
111
112
114
116
118
120
121
123
125
125
126
126
128
130
132
134
137
139
140
141
141
141
141
141
140
139
136
134
131
128
125
123
123
124
127
129
132
134
135
136
136
135
134
133
131
129
126
124
123
123
124
125
125
125
125
125
125
125
124
123
122
121
121
121
123
126
131
137
142
147
151
151
149
145
140
135
131
128
124
121
118
114
110
105
100
95
139
134
126
118
111
106
103
105
109
114
119
123
127
129
129
127
125
123
122
123
125
129
133
139
144
148
151
152
151
147
143
137
131
124
118
113
110
109
108
109
110
110
111
111
112
112
113
114
116
118
119
120
120
121
123
125
127
130
132
134
136
136
137
137
137
137
137
137
135
134
132
129
126
124
124
125
129
132
134
137
139
140
140
139
137
135
133
130
126
123
121
120
120
119
119
119
119
119
119
119
119
119
119
118
118
119
121
124
130
135
141
146
149
149
147
142
137
132
128
124
121
118
115
112
108
102
97
92
145
139
131
122
114
108
104
105
108
112
117
121
123
125
124
122
120
117
116
117
119
123
128
135
141
145
149
152
152
150
146
141
135
128
122
117
113
112
111
110
111
111
110
110
109
109
109
109
110
112
113
114
115
117
119
121
123
125
127
129
131
131
132
133
134
135
135
135
135
135
133
131
128
126
125
126
130
133
136
139
141
142
142
141
139
136
133
130
125
122
119
116
115
113
112
112
112
112
113
113
113
113
113
114
114
115
117
122
127
133
139
144
146
146
143
139
134
128
124
120
118
115
112
109
105
99
93
89
148
142
133
123
115
109
105
104
107
110
114
118
120
121
120
119
116
113
112
112
115
119
125
131
138
143
148
152
153
152
150
145
139
133
127
121
117
115
113
112
111
111
110
108
107
105
104
104
104
106
108
109
111
112
114
116
118
120
122
124
125
126
128
129
131
133
134
135
136
136
135
133
130
128
126
127
131
133
136
139
141
143
143
142
140
136
132
128
124
120
116
112
110
108
106
105
105
105
106
107
108
108
108
109
109
111
114
118
124
130
135
140
142
141
139
135
129
123
119
116
113
111
109
106
102
96
91
86
148
142
133
124
115
109
104
103
104
107
111
114
117
118
117
115
113
111
108
109
112
116
122
129
136
142
147
152
154
154
152
148
143
137
131
126
121
118
115
113
111
110
108
106
103
102
100
100
100
101
103
105
107
109
111
113
115
116
118
120
120
121
123
125
128
131
134
136
138
139
137
135
133
130
128
128
131
133
135
137
140
142
142
141
139
135
131
126
121
117
112
108
104
102
100
99
98
99
100
100
101
101
102
103
104
106
109
114
120
125
130
135
137
136
133
129
123
118
114
111
109
108
106
103
99
94
89
85
146
140
131
123
114
108
103
101
102
104
107
111
113
114
114
113
111
109
107
108
111
115
121
128
135
142
147
151
154
154
153
150
145
140
134
129
124
121
118
114
112
110
108
104
101
99
98
96
96
97
99
101
103
106
108
111
112
113
114
115
116
117
119
122
125
129
133
136
140
141
140
138
135
133
131
130
130
132
133
135
137
139
139
138
136
132
128
123
118
113
108
103
99
97
94
93
92
92
93
94
94
95
97
98
99
101
105
110
115
120
125
129
130
129
126
122
117
113
109
106
104
103
102
100
97
93
89
85
140
135
128
120
112
106
102
100
100
102
104
107
110
111
112
112
111
110
108
109
112
116
122
128
135
141
147
151
153
154
153
150
146
141
135
130
125
122
119
116
113
110
108
104
101
98
95
94
93
94
97
99
102
104
107
110
111
112
112
113
113
114
116
118
123
127
132
137
141
142
142
140
138
135
133
131
129
130
131
133
134
135
135
134
131
128
124
119
114
108
103
98
94
92
90
88
88
88
89
90
90
91
92
93
95
98
102
106
111
116
120
123
124
123
120
116
112
108
105
103
101
101
100
99
97
94
91
88
132
128
122
115
108
103
99
98
98
99
101
105
108
110
111
112
112
111
111
112
114
118
123
128
135
141
146
149
151
152
151
148
144
140
135
130
126
123
120
117
114
111
108
104
101
98
95
93
92
94
96
99
102
105
108
110
111
112
112
112
112
112
114
117
121
126
132
137
141
143
144
142
140
137
134
131
128
127
128
129
130
131
130
129
126
122
118
113
108
103
98
94
90
87
86
85
84
84
86
88
89
89
90
91
93
96
100
104
109
113
116
118
119
118
115
111
107
104
102
101
100
100
100
100
99
98
95
94
124
121
115
110
104
100
97
95
95
97
99
103
107
110
112
113
114
114
115
116
118
121
125
130
135
141
144
147
148
148
147
145
141
137
133
129
125
122
121
118
115
112
109
105
102
100
97
95
94
95
98
101
104
107
110
112
112
112
112
112
112
112
113
116
121
126
132
138
142
144
145
144
141
138
135
131
127
125
125
125
126
126
125
123
120
116
111
107
103
98
93
89
86
83
82
81
81
82
85
87
89
90
91
92
94
97
100
104
108
111
113
114
114
113
111
107
104
102
100
100
100
100
102
103
103
103
103
102
117
114
109
105
100
96
93
92
92
95
98
103
107
111
114
116
117
119
120
121
122
125
128
132
136
139
142
144
144
144
142
140
136
132
129
125
123
121
121
119
116
113
111
108
105
103
101
99
98
99
101
105
108
111
113
114
115
114
113
112
112
112
113
116
121
127
133
139
143
146
146
145
143
140
135
131
127
124
123
123
123
122
120
118
114
109
105
101
97
93
89
85
82
80
80
80
81
83
86
88
90
92
93
95
97
100
102
105
109
111
112
112
112
111
108
105
102
101
100
100
101
102
105
107
109
111
112
112
110
108
104
100
96
93
91
90
91
94
98
103
109
114
118
120
123
124
125
126
127
129
131
133
135
138
140
140
140
138
136
133
130
127
123
121
120
120
120
120
118
116
114
111
109
107
105
103
103
104
106
109
112
115
118
119
119
118
116
114
113
113
114
117
122
128
134
140
145
147
147
145
143
140
136
131
127
124
123
122
121
118
116
113
108
104
99
95
91
88
85
82
80
79
79
80
82
85
89
91
94
96
97
99
101
103
105
108
110
111
112
111
111
109
107
104
101
100
100
101
103
105
109
113
116
119
121
122
104
102
99
96
93
91
89
89
91
94
99
105
112
117
122
125
128
130
130
131
131
132
133
134
135
136
136
136
135
133
130
127
124
121
118
116
116
117
118
119
119
119
117
115
113
111
109
108
108
109
111
114
117
120
123
124
123
121
119
116
115
114
115
118
124
130
135
141
145
147
146
145
142
139
135
131
126
124
122
121
119
116
112
108
104
99
94
91
87
84
81
80
79
78
79
81
85
89
92
96
98
100
102
104
106
108
109
111
113
113
113
112
111
110
107
104
102
102
102
104
106
110
114
119
123
126
130
132
99
98
95
92
90
88
88
89
91
95
101
108
115
121
126
130
133
134
135
134
134
133
134
134
134
134
134
133
131
128
125
122
118
116
114
113
113
114
116
119
120
120
120
118
117
115
113
112
111
112
114
118
121
124
127
128
127
125
122
120
118
117
118
121
125
131
136
141
144
145
145
143
140
137
134
130
126
123
122
120
118
114
110
106
101
96
92
88
85
82
80
79
79
79
81
84
88
93
97
100
103
105
107
108
110
111
113
115
116
116
114
113
111
110
108
106
104
104
105
108
111
115
119
124
129
133
138
140
95
94
91
89
87
86
86
88
92
97
104
111
119
125
130
134
137
139
139
137
135
134
134
134
134
134
133
130
127
125
122
118
115
112
111
110
111
112
115
117
120
121
121
120
120
118
117
115
114
115
117
120
124
127
130
131
130
128
124
122
121
120
121
123
127
132
136
141
143
144
143
141
138
135
132
129
125
123
122
121
118
114
111
106
101
96
92
89
85
82
80
80
80
81
84
88
92
97
102
105
108
110
111
112
113
115
117
118
119
118
116
114
112
111
110
108
108
108
109
111
115
119
123
128
133
138
142
145
90
89
87
85
83
83
84
87
92
99
106
115
123
130
135
139
141
142
141
139
136
135
134
134
134
133
131
128
125
123
120
116
113
111
108
108
110
111
113
116
119
121
121
121
121
120
119
118
116
116
119
122
125
128
131
132
131
129
125
123
122
122
123
125
129
133
136
140
142
142
140
138
135
132
130
127
124
124
123
122
120
116
113
109
104
99
95
92
88
85
83
83
83
85
88
92
97
102
106
109
111
113
114
115
116
117
119
119
119
119
117
114
112
111
111
110
110
110
112
115
118
121
126
130
135
140
144
147
84
83
82
81
80
80
82
86
92
100
109
118
127
134
139
142
143
143
142
139
137
135
134
134
134
133
131
128
125
123
120
116
113
111
109
108
110
111
113
115
119
121
121
122
122
121
121
120
118
118
120
122
125
128
131
132
131
129
125
123
122
122
123
126
130
133
136
139
140
139
137
134
131
129
127
125
124
124
125
124
122
120
116
113
109
104
101
97
94
91
89
88
89
91
94
98
102
107
110
113
115
116
116
116
117
117
118
119
118
117
116
113
112
111
111
111
111
112
113
116
120
123
127
131
134
139
142
145
77
77
77
77
78
79
81
86
93
102
112
122
131
137
142
144
144
144
142
139
136
134
134
133
133
133
132
129
126
124
121
118
115
113
111
110
111
112
113
115
118
121
121
122
122
122
121
121
120
119
120
122
124
126
129
130
129
128
125
123
123
123
124
127
130
133
135
136
136
136
133
130
127
125
124
123
124
126
128
128
126
124
121
118
114
110
107
103
100
97
95
94
95
97
100
104
107
111
114
116
118
118
117
115
115
115
115
116
115
115
114
112
111
111
111
110
111
112
114
117
120
122
125
128
131
134
138
140
71
71
72
74
77
79
83
88
96
105
116
125
134
140
144
145
145
144
142
138
135
134
133
133
133
133
133
131
130
127
125
122
118
116
114
113
113
113
113
115
118
120
121
122
122
122
121
121
120
120
121
122
123
124
126
127
126
125
124
123
123
123
125
128
131
133
134
134
134
132
130
126
123
122
121
122
123
126
129
130
130
128
125
122
119
115
112
109
106
104
101
101
101
103
106
109
112
115
117
119
119
118
115
114
113
113
113
113
113
113
112
111
111
110
110
110
111
111
113
115
118
120
122
124
125
128
130
131
66
67
70
73
77
80
85
91
100
109
119
129
137
143
146
147
146
144
141
137
135
133
131
132
133
134
134
134
133
132
130
127
124
122
120
117
116
115
115
116
118
120
121
121
121
121
121
121
121
121
121
122
122
123
124
124
124
123
123
123
123
124
126
129
132
133
134
133
132
130
126
122
119
118
118
119
122
125
129
131
132
131
129
126
124
120
118
115
112
109
107
107
107
109
111
114
116
118
119
120
119
117
114
112
111
111
112
112
112
112
111
111
111
110
109
109
110
111
112
114
116
118
119
119
119
120
121
121
63
66
69
73
78
83
88
95
103
112
122
131
139
144
146
147
146
143
140
137
135
133
132
132
134
136
137
137
137
137
136
134
131
128
125
123
121
119
117
117
118
119
119
120
120
119
119
119
120
121
121
122
122
122
123
123
123
123
123
123
123
124
127
130
132
133
133
133
131
127
122
118
116
115
115
117
120
124
128
131
132
132
132
130
128
125
121
119
116
114
111
110
111
113
115
117
119
120
120
119
117
114
112
111
110
110
111
111
111
111
111
111
111
110
110
110
110
111
112
112
114
114
114
113
112
112
111
109
63
67
72
77
83
88
93
99
106
115
124
132
139
143
145
146
144
142
139
136
135
134
133
134
136
138
141
142
142
142
142
140
138
135
132
129
126
123
121
120
119
118
118
118
117
116
116
117
119
120
121
122
122
122
123
123
124
124
124
124
124
126
128
131
133
133
133
132
129
125
120
116
114
113
113
115
119
123
127
131
133
133
133
132
130
127
124
121
119
116
113
112
113
115
117
119
120
120
119
117
114
112
109
108
108
108
110
110
111
111
111
111
111
111
111
111
111
111
111
112
112
111
110
108
106
104
101
99
66
71
77
83
89
94
99
104
111
118
125
132
138
142
144
144
143
140
137
135
134
134
134
136
138
142
144
146
147
147
147
146
144
141
138
135
131
127
124
122
121
119
118
116
115
114
114
115
117
120
121
122
122
123
124
125
126
126
126
126
127
128
130
132
133
133
133
131
128
123
118
114
113
112
112
114
117
121
126
130
132
133
133
132
131
128
124
121
119
116
113
112
113
116
118
119
119
118
116
114
111
108
105
104
104
106
108
110
111
111
112
112
112
112
112
112
112
111
111
111
111
110
107
104
101
98
94
92
74
79
85
91
96
101
105
110
115
120
126
132
137
140
142
142
140
138
136
135
134
135
135
138
141
145
148
151
152
153
153
152
150
147
143
140
136
131
127
125
122
121
119
117
115
114
114
115
117
120
121
122
123
124
126
128
129
130
130
130
131
131
132
133
134
133
133
131
126
122
117
114
112
112
112
114
117
121
125
130
132
133
133
132
130
126
123
120
117
114
112
111
112
114
116
117
116
115
113
110
107
104
102
101
101
103
106
109
111
112
113
114
114
114
114
113
113
112
112
111
110
108
105
101
97
93
89
85
84
88
94
100
105
110
113
116
120
123
127
131
135
137
139
139
138
136
135
134
134
135
136
139
144
148
151
154
157
158
158
157
155
152
148
144
140
135
131
127
125
122
121
119
117
116
115
116
118
120
121
122
123
125
128
131
132
132
133
133
133
133
133
134
134
133
132
130
126
121
117
114
113
112
113
114
117
121
125
130
132
133
132
131
128
124
121
118
114
111
109
108
109
110
112
112
112
111
108
106
103
100
98
98
99
101
104
108
110
113
115
117
118
118
117
116
115
115
114
113
111
108
104
100
95
90
84
81
95
100
106
111
116
120
122
123
125
127
129
132
134
135
136
136
135
135
134
134
134
135
137
141
146
150
154
157
160
162
162
161
159
155
152
148
143
139
134
131
127
125
122
121
120
119
118
118
119
121
121
122
123
126
129
132
133
134
134
134
134
134
134
134
134
133
132
129
125
122
118
115
114
114
114
116
119
122
126
130
132
132
131
129
125
122
118
114
110
107
105
104
105
106
107
108
107
106
104
101
99
96
95
95
97
99
102
106
109
112
115
118
119
120
120
119
119
118
117
115
112
109
104
99
93
87
81
77
108
113
119
123
127
130
131
131
131
131
132
133
133
134
134
134
133
133
134
134
134
136
138
142
147
152
155
159
162
164
165
164
161
158
154
150
146
142
137
134
130
127
124
123
121
121
120
120
120
121
121
122
123
126
130
133
134
135
136
135
135
134
134
134
134
133
132
129
125
122
120
118
116
116
117
119
122
124
126
129
130
130
128
125
122
118
114
110
106
103
101
100
101
101
102
103
102
101
99
97
94
93
92
93
95
98
100
103
107
110
113
116
119
120
120
121
120
120
119
117
114
111
106
99
93
87
80
75
120
125
131
135
138
139
138
137
136
135
134
134
133
132
131
131
131
132
133
134
134
136
138
143
147
152
156
159
162
164
165
164
162
158
155
152
147
144
140
136
133
130
127
124
122
122
121
120
119
119
120
121
123
126
130
133
135
137
138
137
135
135
134
134
133
132
130
127
124
123
122
121
120
121
121
123
125
126
127
128
128
126
124
122
118
114
110
105
102
100
98
97
97
97
98
99
98
97
95
93
91
90
90
91
93
95
98
100
103
107
110
113
116
118
120
121
121
121
121
120
117
112
107
100
93
86
80
74
133
137
142
145
147
147
145
143
141
138
136
134
132
130
128
128
128
130
132
133
135
136
139
143
147
152
155
158
161
163
163
163
161
158
155
152
148
144
141
137
134
132
128
125
123
122
120
118
117
116
117
119
122
125
130
133
136
139
140
139
137
135
134
134
133
132
129
126
124
123
123
124
124
125
126
127
128
128
127
126
125
123
121
118
114
110
106
102
100
98
96
94
93
93
94
95
95
94
92
91
90
89
89
89
91
93
95
97
100
103
106
109
112
115
118
120
121
122
122
121
119
114
109
102
94
87
80
74
143
146
151
154
155
154
152
148
145
142
139
136
133
130
128
127
127
129
132
134
135
137
140
143
147
151
154
157
158
159
160
159
158
156
154
151
147
144
141
137
135
132
129
126
123
121
119
117
114
114
115
117
121
124
129
133
136
139
141
140
137
135
134
134
133
131
128
125
124
125
126
127
128
129
130
130
130
129
127
124
122
120
118
115
111
107
103
101
99
97
95
93
92
92
92
92
92
92
91
90
90
89
89
89
89
90
92
93
96
98
101
104
108
112
115
119
121
123
124
123
121
117
111
104
96
88
80
74
149
153
158
160
161
160
157
153
149
145
142
138
135
132
130
129
129
131
133
135
136
138
141
144
147
150
153
155
157
157
157
157
156
154
152
149
146
144
141
137
134
132
129
126
123
121
119
116
113
113
113
116
120
123
127
132
135
139
140
139
137
135
134
133
132
130
127
125
125
127
129
130
131
132
132
132
132
130
126
123
120
117
115
111
108
104
102
100
99
98
96
95
93
93
93
93
93
93
92
92
92
91
90
90
89
89
90
91
92
94
97
100
104
108
113
117
121
124
126
126
123
119
114
106
98
89
81
75
152
156
161
163
164
163
160
156
152
148
145
141
138
135
134
133
133
134
135
136
138
140
142
144
146
149
152
154
156
156
156
155
153
151
149
147
144
142
140
136
134
131
128
125
123
121
119
115
113
112
113
115
119
123
127
131
134
137
138
137
136
135
134
133
132
129
127
126
127
129
131
132
133
133
133
133
132
129
125
121
117
114
112
108
105
102
101
101
100
100
99
98
97
96
96
96
96
96
96
96
95
94
93
92
90
89
89
89
89
90
93
96
100
105
110
116
120
124
128
128
125
121
116
108
99
90
81
75
152
155
160
163
164
163
160
157
154
150
147
144
141
139
138
137
137
138
139
140
141
143
144
145
146
148
151
154
155
156
155
154
151
149
146
144
142
140
137
135
132
129
127
124
122
121
119
116
113
113
113
115
118
122
126
131
134
136
137
136
135
134
134
133
132
130
128
128
130
132
133
133
134
134
134
133
131
128
123
119
115
112
109
106
103
102
102
102
103
103
102
101
100
100
99
99
98
99
99
99
99
98
96
94
92
90
89
88
88
88
90
93
97
103
109
114
120
124
128
130
127
123
117
109
100
90
81
75
147
151
156
159
161
160
158
155
153
150
147
145
144
143
142
142
142
143
143
144
145
145
146
147
147
149
151
154
155
156
155
153
150
147
145
142
139
137
135
132
130
127
125
123
122
121
119
117
114
114
114
116
119
123
128
132
135
137
137
136
135
135
134
134
133
132
131
131
132
133
134
134
134
134
134
133
131
127
122
117
114
111
108
105
103
103
104
106
106
107
106
105
104
103
102
101
100
101
101
102
101
100
99
97
95
92
89
88
87
87
89
91
96
102
108
114
120
124
129
130
128
124
118
110
100
90
81
75
139
144
149
153
154
155
153
152
150
148
146
145
145
145
145
145
146
147
147
148
148
148
149
149
150
151
153
155
156
156
155
153
150
146
143
140
137
135
133
130
127
125
123
122
122
121
120
119
117
116
116
118
121
125
130
134
137
139
140
138
136
135
135
134
134
133
133
133
133
134
134
134
134
134
134
133
130
126
121
116
113
111
108
105
104
105
106
108
109
109
109
108
107
106
105
103
103
103
104
105
105
104
102
100
97
94
91
89
88
88
89
91
95
101
108
114
120
125
129
130
128
123
117
109
100
90
81
74
129
135
141
145
147
148
147
147
146
146
145
145
146
147
148
149
149
151
152
152
152
152
152
153
153
154
155
157
157
157
157
155
151
147
144
139
136
133
130
127
125
123
123
122
122
122
121
120
120
119
120
121
124
128
133
137
140
142
142
141
139
137
135
135
134
134
134
134
134
134
134
134
134
134
133
132
130
125
120
116
113
111
109
107
106
107
108
109
110
110
109
109
108
107
106
104
104
104
106
107
107
107
105
103
100
96
93
91
90
90
90
92
96
102
109
114
120
125
129
130
128
123
116
108
99
89
80
73
118
125
131
136
140
141
142
142
142
143
144
145
147
149
151
152
153
154
154
154
154
154
155
155
155
156
157
159
160
160
160
158
154
150
145
140
136
132
128
125
124
123
122
122
122
122
122
121
121
122
123
124
128
132
136
140
143
145
145
144
142
139
137
136
135
134
134
134
134
134
134
134
134
134
133
132
130
125
120
116
113
111
110
109
108
108
109
109
109
109
108
107
106
105
103
102
102
102
104
106
107
108
108
106
103
100
97
94
93
93
93
95
98
104
110
115
120
124
128
129
126
121
114
106
96
86
77
71
108
115
122
128
131
133
134
135
137
138
141
143
146
149
152
153
154
155
155
155
155
155
155
156
156
158
160
163
164
165
164
163
159
154
148
142
137
133
128
125
123
122
122
122
122
122
122
122
122
123
125
128
131
135
140
144
146
148
148
147
145
142
139
138
136
135
134
134
134
134
134
134
134
134
133
132
130
125
121
116
113
112
111
110
109
108
107
107
107
106
105
104
103
101
100
99
99
100
101
103
106
108
108
108
106
103
100
98
97
97
97
98
101
106
112
117
121
124
127
127
124
118
111
102
92
82
72
66
98
105
113
119
123
125
126
128
131
133
137
141
144
147
150
152
153
154
154
154
154
155
155
156
157
159
163
166
168
169
169
168
164
158
152
145
139
134
128
125
123
122
122
122
122
122
122
122
123
125
128
131
134
138
143
146
150
151
152
151
148
145
143
141
138
136
135
134
134
134
134
134
134
134
133
132
130
125
121
117
114
112
111
110
108
106
104
103
103
102
101
100
99
97
96
96
96
97
98
100
103
106
108
109
108
106
104
102
101
100
100
102
105
109
114
119
121
124
125
124
121
115
107
98
87
77
67
61
90
97
104
111
115
117
120
122
125
128
132
137
141
144
147
149
150
151
152
152
152
152
153
155
157
160
164
168
172
174
175
173
169
163
156
149
143
136
130
126
124
123
122
122
122
122
122
122
123
126
129
133
136
140
145
149
152
155
155
154
152
149
146
143
140
137
135
134
134
134
134
134
134
134
134
133
130
126
122
119
116
114
112
110
108
104
102
101
100
99
98
96
95
93
92
91
91
93
95
97
100
103
106
108
109
109
107
106
104
104
104
105
109
113
117
120
122
123
123
122
118
112
103
93
82
70
60
54
85
92
98
104
109
112
115
117
120
124
128
133
137
140
143
145
146
147
147
147
148
148
150
152
155
159
165
170
174
177
179
178
174
168
161
154
146
139
133
128
125
123
122
122
122
122
122
122
123
126
130
133
137
142
146
151
155
157
158
158
155
152
148
145
141
138
135
134
133
133
133
133
133
134
134
133
131
128
124
121
118
116
113
111
108
104
102
100
98
96
94
92
90
89
87
87
87
88
90
93
96
100
104
107
109
110
109
109
108
108
108
110
112
116
119
122
123
123
123
121
116
110
100
89
77
64
54
46
82
88
95
100
105
108
112
114
117
120
125
129
133
136
139
141
142
142
143
143
143
144
145
149
153
158
164
170
176
180
183
182
179
173
166
158
150
143
136
131
127
125
123
122
122
122
122
122
123
125
129
133
137
143
147
153
157
161
162
161
158
154
150
146
142
138
135
133
131
131
131
131
133
133
134
133
132
130
126
123
121
118
115
113
109
105
102
100
97
94
91
89
86
85
83
81
82
83
86
89
93
98
102
106
109
110
110
110
110
110
111
113
116
119
122
124
125
125
123
120
115
108
97
85
72
59
48
40
80
87
93
99
103
107
110
112
114
118
122
126
130
133
135
137
137
137
137
137
137
138
140
144
149
156
163
169
176
181
185
185
182
177
170
163
154
146
140
134
130
126
124
123
122
122
122
122
123
125
128
133
137
143
148
154
159
163
165
164
161
157
152
147
142
137
134
131
128
127
127
129
131
132
133
133
133
131
129
125
123
120
118
115
112
108
104
101
97
93
89
86
83
81
78
77
77
79
82
86
91
95
100
104
108
110
111
111
111
112
113
116
119
123
126
128
129
128
126
122
116
108
96
84
70
56
45
37
81
88
94
100
104
107
110
112
114
117
121
124
128
131
133
134
133
133
132
132
133
134
136
140
146
153
160
168
175
181
185
186
184
179
173
165
157
149
143
137
132
128
125
123
122
122
122
122
123
124
127
132
137
143
149
155
161
165
166
165
163
158
153
147
142
137
132
128
126
125
125
126
129
131
133
133
133
132
130
127
125
122
120
118
115
111
107
102
98
93
89
84
81
78
75
73
73
75
79
83
88
93
98
103
107
110
111
111
112
114
116
119
123
126
130
132
133
132
129
124
118
109
98
85
71
56
44
36
82
89
96
102
106
109
111
112
114
117
121
124
127
130
132
132
131
129
128
128
128
129
132
136
141
149
157
165
172
178
182
184
182
178
173
166
158
151
144
139
134
129
126
123
122
122
122
122
123
124
127
132
137
143
149
156
162
165
166
166
163
158
152
146
141
135
130
126
124
123
123
124
127
129
131
133
133
133
132
130
127
125
123
121
118
114
110
105
100
95
90
84
80
76
73
70
71
73
77
82
87
93
98
103
107
110
111
112
114
116
119
123
127
131
134
136
136
135
133
128
121
112
100
88
74
60
47
39
83
90
97
104
108
110
112
114
116
119
122
125
128
131
133
133
131
129
127
125
125
126
128
132
138
145
153
161
168
174
178
180
179
176
172
165
158
151
145
139
135
130
126
123
122
122
122
122
123
124
127
132
137
143
149
156
162
165
166
165
162
157
151
145
138
133
128
125
123
123
123
123
125
127
129
131
132
133
132
131
130
127
125
123
121
118
114
109
104
98
92
86
81
76
72
70
70
73
77
82
88
94
99
104
108
111
112
114
116
119
123
127
131
135
138
140
141
140
136
132
124
115
104
92
78
65
53
44
82
90
98
105
109
112
114
116
119
121
124
128
131
134
135
135
134
131
128
126
124
124
126
129
134
141
148
156
163
169
173
175
175
172
168
163
156
150
144
138
134
130
126
123
122
122
122
122
122
123
126
131
136
142
148
155
160
163
164
163
160
154
148
142
136
130
126
123
122
122
122
122
123
125
127
129
130
132
132
132
132
130
129
127
125
122
118
113
108
101
94
88
83
78
74
72
72
75
79
84
90
96
101
107
110
113
115
117
120
123
127
132
136
140
142
144
145
144
141
136
129
120
109
97
84
71
59
51
80
89
98
105
110
113
116
119
121
124
128
132
135
138
139
139
138
136
132
128
126
124
125
127
131
137
144
152
158
164
168
169
169
168
164
159
153
147
142
137
133
129
125
123
121
121
121
121
121
123
125
130
135
141
147
152
157
160
160
159
155
150
143
137
132
127
124
122
121
121
121
122
122
123
124
126
127
129
131
132
133
132
132
130
128
126
122
117
112
105
99
92
86
82
79
77
78
79
83
88
94
99
105
110
113
116
119
121
124
127
131
136
140
144
146
148
149
148
145
140
134
125
114
102
90
77
66
58
77
86
96
104
109
113
118
121
124
127
132
136
141
144
145
145
144
141
137
132
128
125
124
125
129
134
140
147
153
158
162
164
164
162
159
155
149
144
139
134
130
126
123
121
120
119
119
119
120
121
124
128
133
138
144
149
152
154
154
152
148
143
137
132
127
123
121
119
119
119
120
120
121
121
122
123
124
126
128
131
133
133
133
133
131
129
126
122
117
110
104
98
92
88
85
84
84
86
89
94
99
104
109
114
118
120
123
125
128
131
135
140
144
147
150
152
152
151
149
144
138
129
119
107
95
83
73
66
73
83
93
102
108
113
118
122
126
130
136
141
146
150
152
153
151
148
143
137
132
127
125
125
127
131
136
142
147
152
155
157
158
157
154
151
146
141
136
131
127
123
120
118
116
115
115
116
117
119
122
126
130
135
140
144
146
147
145
143
140
135
130
125
122
119
117
116
116
116
118
118
119
119
120
121
122
124
127
131
133
134
135
135
134
132
129
126
121
115
109
104
99
95
93
92
92
94
97
101
105
110
115
119
123
125
127
129
131
135
138
143
146
150
153
154
154
153
151
146
140
132
122
111
100
89
80
74
69
80
91
100
108
113
119
123
128
133
139
145
151
156
158
159
158
154
148
142
135
129
125
124
125
128
132
137
141
145
149
151
152
152
149
147
142
138
133
128
124
121
117
115
114
113
113
113
114
116
119
123
127
132
136
139
140
139
137
134
131
126
122
118
116
115
114
113
114
114
115
115
115
116
117
119
121
123
126
130
133
135
136
137
137
136
133
130
125
120
115
110
106
103
102
101
101
102
105
108
112
116
120
124
127
129
131
132
134
137
141
144
148
152
154
154
155
154
152
148
142
133
124
114
104
94
86
81
67
77
89
99
107
113
119
124
130
135
142
148
155
160
164
165
163
159
153
146
138
132
127
124
124
125
128
131
135
139
142
145
146
147
145
143
139
136
132
127
123
119
115
113
112
111
111
112
112
114
117
120
124
128
131
133
133
131
128
125
122
118
114
112
112
112
112
113
113
114
115
114
114
113
114
116
119
122
126
130
133
136
139
140
140
139
137
134
130
125
121
117
114
112
111
111
111
111
112
115
118
121
125
128
131
132
133
134
136
139
142
145
149
152
153
154
154
153
151
147
142
134
126
117
108
99
91
86
65
76
88
99
107
114
120
125
131
137
144
151
157
164
168
170
168
163
156
149
141
134
128
124
123
124
125
127
130
133
137
140
142
143
142
140
137
134
131
126
121
117
114
112
111
110
110
110
111
112
115
118
121
124
126
126
125
123
120
117
113
110
108
107
109
110
112
113
115
117
117
115
114
113
113
114
117
121
125
130
133
137
140
142
143
142
140
137
134
130
127
124
122
120
119
119
119
119
119
120
122
125
128
130
132
133
133
134
136
139
142
144
147
149
151
152
152
151
149
146
141
134
127
119
111
102
95
90
66
77
88
99
108
114
120
126
132
138
145
153
159
166
171
173
171
166
159
152
144
136
129
125
123
123
123
124
126
129
133
136
138
139
140
138
136
134
130
126
121
117
113
111
110
109
108
108
110
111
113
116
119
121
122
121
120
117
114
110
107
104
103
104
106
110
113
115
117
119
119
117
115
113
112
113
116
120
124
129
133
136
140
143
144
143
142
140
138
135
132
131
129
127
126
126
125
125
124
124
125
127
129
131
132
132
132
133
134
136
138
140
143
145
146
147
147
147
147
144
141
135
129
121
113
105
98
93
70
80
90
100
108
115
121
127
133
139
146
154
160
167
172
174
173
168
162
154
145
137
130
125
123
123
123
123
125
128
131
134
136
138
139
138
136
134
131
126
121
117
113
111
109
106
105
105
107
109
111
114
116
118
118
117
115
112
108
105
102
100
101
102
106
110
114
117
119
120
120
119
117
114
112
113
114
118
122
126
131
135
139
142
144
144
144
143
141
139
137
136
135
134
133
133
131
130
129
127
126
126
128
129
129
129
129
129
129
131
132
134
137
139
141
142
143
144
144
143
140
135
129
122
114
107
100
95
77
85
94
103
111
117
123
129
135
141
148
155
161
167
172
174
173
168
162
155
146
138
132
127
124
123
123
123
125
127
131
134
136
138
140
140
138
135
132
127
123
118
114
111
108
105
103
103
104
107
109
111
113
114
114
113
111
108
104
101
98
97
99
102
107
112
116
119
121
121
121
120
117
114
112
112
113
116
119
124
129
133
137
141
143
144
144
144
143
142
141
141
141
140
139
138
136
133
131
128
125
124
124
124
123
123
122
122
122
123
125
127
130
132
135
137
139
141
142
141
138
134
130
123
116
109
101
96
87
93
101
108
115
121
127
133
138
144
151
157
163
168
171
172
171
167
162
155
147
139
133
128
125
123
123
124
125
128
132
135
138
140
142
142
140
138
134
130
125
120
115
112
108
104
102
101
102
104
107
109
111
112
112
110
107
104
101
97
95
95
98
102
108
113
117
120
121
121
120
119
116
113
111
110
111
113
116
120
125
130
135
139
142
144
144
145
144
144
144
143
143
143
142
141
139
135
131
127
123
121
119
119
117
116
114
113
113
114
116
119
122
125
128
131
134
137
139
140
137
134
130
124
117
110
102
96
99
103
109
115
120
126
132
138
143
149
155
160
165
168
170
171
170
166
160
154
147
140
135
130
126
124
124
125
127
130
133
136
140
142
143
143
142
140
137
132
127
122
117
112
108
104
101
100
101
102
105
107
110
110
110
108
105
101
98
95
93
94
98
102
108
112
117
120
120
120
119
117
114
111
109
108
108
110
113
117
122
127
132
137
141
143
144
145
145
145
145
145
144
144
144
142
139
135
130
124
120
116
114
112
110
108
106
105
105
106
109
111
114
118
122
126
130
134
137
138
137
134
130
125
118
110
102
96
111
114
117
121
126
132
137
143
149
154
160
165
168
171
172
171
169
165
160
154
148
142
136
132
128
126
126
127
130
132
134
137
140
143
144
144
143
142
139
134
129
123
118
113
109
104
101
100
100
101
103
106
109
110
110
108
104
100
97
93
92
93
97
101
107
111
116
118
119
118
117
114
110
107
105
104
104
106
110
114
119
124
130
135
139
142
144
145
145
145
145
145
145
145
144
142
139
134
128
122
117
112
109
106
104
101
99
99
99
99
101
104
108
112
117
122
127
131
134
135
135
133
130
125
118
109
101
94
123
124
125
128
132
137
143
148
154
160
165
170
173
175
176
174
171
167
161
155
148
143
138
134
131
129
129
130
132
133
135
137
140
143
144
144
144
142
139
135
130
124
119
114
109
104
101
100
101
102
104
106
109
110
109
107
103
100
96
93
91
92
95
100
105
109
113
115
116
115
112
109
106
103
101
100
101
103
107
112
117
122
128
133
138
142
144
145
146
146
146
146
146
145
144
142
138
132
126
120
114
109
105
102
98
96
94
93
93
93
96
99
103
108
113
119
124
128
131
133
133
131
128
122
115
106
97
90
135
134
134
135
138
143
148
154
160
166
172
176
179
181
180
179
175
169
163
156
150
144
139
135
133
132
132
132
133
134
135
137
139
141
142
143
143
141
139
134
130
124
119
113
109
104
102
101
102
104
107
108
110
110
110
108
104
100
96
92
90
90
93
96
101
105
108
110
111
109
106
103
100
98
96
96
98
100
104
109
115
121
126
133
138
142
145
147
148
148
149
148
147
146
145
142
137
132
125
118
112
107
103
99
95
92
90
88
88
89
91
95
99
104
110
115
120
125
128
130
130
128
124
118
110
100
91
84
147
145
142
142
144
148
153
160
166
173
178
183
186
187
186
184
180
174
167
159
152
146
141
137
135
134
133
134
134
134
135
136
137
139
140
140
140
139
136
132
128
123
118
113
109
105
103
104
105
107
110
111
112
111
110
108
105
100
96
91
89
88
89
92
95
99
102
104
104
102
99
96
93
91
90
91
93
96
101
107
113
120
126
133
139
144
147
149
151
152
152
152
150
149
146
143
138
132
126
119
113
107
103
98
94
90
87
85
84
86
88
92
96
101
107
112
117
121
124
126
125
123
118
111
103
92
82
75
161
157
152
150
150
153
158
164
171
178
185
189
192
194
193
191
187
180
172
164
156
149
144
140
137
136
135
135
135
135
135
135
136
136
137
137
136
135
132
129
124
119
115
111
108
105
105
107
109
111
113
114
114
113
111
108
104
99
94
89
86
85
85
86
88
91
94
96
96
94
91
88
85
83
83
85
88
92
97
104
111
119
126
134
141
146
149
152
155
156
156
156
154
153
150
146
141
135
129
123
117
111
105
100
95
90
87
83
82
83
85
89
93
98
102
107
112
115
118
119
118
115
109
101
93
82
72
65
179
172
164
159
157
158
162
168
175
183
190
196
200
202
202
200
195
188
180
170
161
154
147
143
140
138
137
136
136
136
136
135
135
135
134
133
132
130
128
124
120
115
112
109
107
106
107
110
112
114
117
117
117
115
112
108
103
97
91
86
81
78
77
78
80
82
85
86
86
84
80
78
76
75
76
78
81
86
93
100
109
117
126
134
142
148
153
156
159
160
160
160
160
158
155
151
147
141
135
129
122
116
110
104
98
92
87
82
80
80
82
85
89
93
98
102
106
108
109
110
108
105
98
90
81
70
60
52
197
188
177
169
164
164
167
172
179
187
195
202
207
210
211
209
203
196
187
177
168
159
152
147
144
142
140
139
138
138
138
137
136
135
133
130
127
125
122
118
114
111
108
106
105
106
109
112
115
118
120
120
119
116
111
106
100
93
86
80
75
70
68
68
69
71
73
74
73
71
68
66
65
65
66
69
74
80
87
96
105
115
125
135
145
152
157
161
164
165
166
166
166
165
163
159
155
150
145
138
130
124
117
109
101
94
88
82
79
78
79
81
84
87
91
95
98
99
100
99
97
92
86
77
68
57
46
38
216
205
192
181
173
170
171
175
181
190
199
207
213
218
219
217
212
204
194
184
173
165
157
151
148
146
144
143
143
142
142
141
138
135
132
128
124
120
116
112
109
106
104
103
104
107
111
114
118
121
122
122
120
116
110
103
95
88
80
73
67
61
58
57
58
59
60
60
59
57
55
53
52
52
54
59
65
72
81
91
102
114
126
137
148
156
163
167
170
171
172
173
174
174
172
169
166
161
155
148
140
133
124
115
106
97
89
82
78
75
75
75
77
80
84
87
89
89
89
88
85
79
72
63
53
43
33
25
232
221
206
192
182
176
175
178
183
192
201
210
218
223
226
225
219
211
201
190
179
170
162
156
152
149
148
147
147
146
146
144
141
137
132
126
121
116
111
107
105
103
102
102
104
108
112
117
121
124
125
124
120
114
107
99
90
81
72
65
58
52
49
47
47
47
47
46
44
43
41
40
39
40
43
48
55
63
74
87
100
114
127
140
152
161
168
174
176
178
178
179
181
183
182
180
176
172
166
159
151
142
132
122
111
100
90
82
76
72
70
69
70
72
76
78
80
80
79
77
73
67
60
51
41
31
21
15
241
230
215
200
188
180
178
180
184
193
202
212
220
226
229
228
224
216
206
194
183
173
165
158
155
152
151
151
150
150
149
147
143
138
132
125
119
113
108
105
102
101
101
101
104
108
113
118
122
126
127
125
120
113
105
95
86
76
67
58
51
45
41
39
38
38
37
36
34
32
31
30
30
31
34
40
48
58
70
84
98
114
129
142
154
164
172
178
182
183
184
185
187
189
189
187
184
180
174
167
158
148
138
127
115
103
91
82
74
69
65
64
64
66
69
72
73
73
71
68
64
58
50
41
32
22
14
8
